!!!!SEGMENT: pl-wumfc--n2100--012_dobrzynski-ignacy-feliks--monbar-czyli-flibustierowie-partytura-fortepianowa-akt-ii-11-coro.krn
!!!cenid: 18xx:4195
!!!COM: Dobrzyński, Ignacy Feliks
!!!COM-rismID: pe30020642
!!!CDT: 1807/02/15-1867/10/09
!!!CNT: Polish
!!!OPR: Monbar czyli Flibustierowie - partytura fortepianowa
!!!OTL: Akt II - 11. Coro
!!!OMV: 012
!!!PDT: 1863
!!!AGN:
!!!SMS-siglum: PL-Wumfc
!!!SMS-shelfmark: N2100
!!!SMS-shelfwork: 001-012 M
!!!SMS-variant:
!!!SMS-altvar:
!!!NIFC-rismSourceID: 1001123412
!!!NIFC-rismChildID: 1001123412
!!!NIFC-islandoraID: pl-wumfc:1659
!!!URL-pdf-islandora: https://repozytorium.nifc.pl/islandora/object/pl-wumfc%3A1659/datastream/PDF/view
!!!URL-scan: https://polish.musicsources.pl/pl/lokalizacje/galeria/druki-muzyczne/11863/95 @EN{Scan on Polish Music Sources Website} @PL{Skany w portalu Dziedzictwo Muzyki Polskiej w otwartym dostępie}
!!!IIIF:
!!!ONB-nifc: Skany 0095-0101
!!!AIN: 2 bass 2 piano 3 tenor
!!!key: D
**kern	**kern	**dynam	**kern	**text	**dynam	**kern	**text	**dynam	**kern	**dynam	**kern	**text	**dynam	**kern	**text	**dynam
*part7	*part6	*part6	*part5	*part5	*part5	*part4	*part4	*part4	*part3	*part3	*part2	*part2	*part2	*part1	*part1	*part1
*staff7	*staff6	*	*staff5	*staff5	*	*staff4	*staff4	*	*staff3	*	*staff2	*staff2	*	*staff1	*staff1	*
*I"Pianoforte	*I"PIANO.	*	*I"Basso II.o	*	*	*I"Basso I.o	*	*	*I"Tenore II.o	*	*I"Tenore I.o	*	*	*I"TENORE SOLO.	*	*
*Ipiano	*Ipiano	*	*Ibass	*	*	*Ibass	*	*	*Itenor	*	*Itenor	*	*	*Itenor	*	*
*ICKlav	*ICklav	*	*ICvox	*	*	*ICvox	*	*	*ICvox	*	*ICvox	*	*	*ICvox	*	*
*	*	*	*	*	*	*	*	*	*	*	*	*	*	*IGsolo	*	*
*	*I'pf	*	*I'Coro B 2	*	*	*I'Coro B 1	*	*	*I'Coro T 2	*	*I'Coro T 1	*	*	*I'T	*	*
*clefF4	*clefG2	*	*clefF4	*	*	*clefF4	*	*	*clefGv2	*	*clefGv2	*	*	*clefGv2	*	*
*k[f#c#]	*k[f#c#]	*	*k[f#c#]	*	*	*k[f#c#]	*	*	*k[f#c#]	*	*k[f#c#]	*	*	*k[f#c#]	*	*
*D:	*D:	*	*D:	*	*	*D:	*	*	*D:	*	*D:	*	*	*D:	*	*
*M2/4	*M2/4	*	*M2/4	*	*	*M2/4	*	*	*M2/4	*	*M2/4	*	*	*M2/4	*	*
=1	=1	=1	=1	=1	=1	=1	=1	=1	=1	=1	=1	=1	=1	=1	=1	=1
!	!	!	!	!	!	!	!	!	!	!	!	!	!	!LO:TX:t=P:problem:partie mają zmienione nazwy początkowe wynikające ze zmiany "instrumentów" w takcie 204	!	!
!	!	!	!	!	!	!	!	!	!	!	!	!	!	!LO:TX:a:B:t=Vivace	!	!
!	!LO:TX:a:B:t=Vivace.	!	!	!	!	!	!	!	!	!	!	!	!	!LO:TX:t=P:problem:partie tenorowe zapisane bez przenośnika oktawowego	!	!
4DD/ 4D	4dd\ 4ff# 4aa 4ddd	ff	2ryy	.	.	2ryy	.	.	2ryy	.	2ryy	.	.	2ryy	.	.
8.D\L 8.F# 8.A	8.d/L	.	.	.	.	.	.	.	.	.	.	.	.	.	.	.
16E\Jk 16G 16A	16c#/Jk	.	.	.	.	.	.	.	.	.	.	.	.	.	.	.
=2	=2	=2	=2	=2	=2	=2	=2	=2	=2	=2	=2	=2	=2	=2	=2	=2
8E\L 8G 8A	8c#\L	.	2ryy	.	.	2ryy	.	.	2ryy	.	2ryy	.	.	2ryy	.	.
8AA\J 8A	8a\J 8cc# 8ee 8aa	.	.	.	.	.	.	.	.	.	.	.	.	.	.	.
4r	4r	.	.	.	.	.	.	.	.	.	.	.	.	.	.	.
=3	=3	=3	=3	=3	=3	=3	=3	=3	=3	=3	=3	=3	=3	=3	=3	=3
4AAA/ 4AA	4ee\ 4gg 4ccc# 4eee	.	2ryy	.	.	2ryy	.	.	2ryy	.	2ryy	.	.	2ryy	.	.
8.AA\L 8.A	8.c#/L 8.e 8.g	.	.	.	.	.	.	.	.	.	.	.	.	.	.	.
16D\Jk 16A	16d/Jk 16f#	.	.	.	.	.	.	.	.	.	.	.	.	.	.	.
=4	=4	=4	=4	=4	=4	=4	=4	=4	=4	=4	=4	=4	=4	=4	=4	=4
8D\L 8A	8d\L 8f#	.	2ryy	.	.	2ryy	.	.	2ryy	.	2ryy	.	.	2ryy	.	.
8DD\J 8D	8dd\J 8ff# 8aa 8ddd	.	.	.	.	.	.	.	.	.	.	.	.	.	.	.
4r	4r	.	.	.	.	.	.	.	.	.	.	.	.	.	.	.
=5	=5	=5	=5	=5	=5	=5	=5	=5	=5	=5	=5	=5	=5	=5	=5	=5
4d\	4dd\	f	2ryy	.	.	2ryy	.	.	2ryy	.	2ryy	.	.	2ryy	.	.
8c#\L	8cc#\L	.	.	.	.	.	.	.	.	.	.	.	.	.	.	.
8B\J	8b\J	.	.	.	.	.	.	.	.	.	.	.	.	.	.	.
!LO:LB:g=original	!LO:LB:g=original	!	!LO:LB:g=original	!	!	!LO:LB:g=original	!	!	!LO:LB:g=original	!	!LO:LB:g=original	!	!	!LO:LB:g=original	!	!
=6	=6	=6	=6	=6	=6	=6	=6	=6	=6	=6	=6	=6	=6	=6	=6	=6
8.A\L	8.a/L	.	2ryy	.	.	2ryy	.	.	2ryy	.	2ryy	.	.	2ryy	.	.
16F#\Jk	16f#/Jk	.	.	.	.	.	.	.	.	.	.	.	.	.	.	.
4D\	4d/	.	.	.	.	.	.	.	.	.	.	.	.	.	.	.
=7	=7	=7	=7	=7	=7	=7	=7	=7	=7	=7	=7	=7	=7	=7	=7	=7
8E\L	8e/L	.	2ryy	.	.	2ryy	.	.	2ryy	.	2ryy	.	.	2ryy	.	.
16D\L	16d/L	.	.	.	.	.	.	.	.	.	.	.	.	.	.	.
16C#\JJ	16c#/JJ	.	.	.	.	.	.	.	.	.	.	.	.	.	.	.
8D/L	8d/L	.	.	.	.	.	.	.	.	.	.	.	.	.	.	.
8BB/J	8B/J	.	.	.	.	.	.	.	.	.	.	.	.	.	.	.
=8	=8	=8	=8	=8	=8	=8	=8	=8	=8	=8	=8	=8	=8	=8	=8	=8
!	!LO:TX:a:t=Cor.	!	!	!	!	!	!	!	!	!	!	!	!	!	!	!
4F#\	2f#^/	.	2ryy	.	.	2ryy	.	.	2ryy	.	2ryy	.	.	2ryy	.	.
4r	.	.	.	.	.	.	.	.	.	.	.	.	.	.	.	.
=9	=9	=9	=9	=9	=9	=9	=9	=9	=9	=9	=9	=9	=9	=9	=9	=9
8FF#/	16ff#\LL	p	2ryy	.	.	2ryy	.	.	2ryy	.	2ryy	.	.	2ryy	.	.
.	16gg\	.	.	.	.	.	.	.	.	.	.	.	.	.	.	.
8F#\L 8A#X 8e	16ff#\	.	.	.	.	.	.	.	.	.	.	.	.	.	.	.
.	16gg\JJ	.	.	.	.	.	.	.	.	.	.	.	.	.	.	.
8F#\ 8A# 8e	16ff#\LL	.	.	.	.	.	.	.	.	.	.	.	.	.	.	.
.	16gg\	.	.	.	.	.	.	.	.	.	.	.	.	.	.	.
8F#\J 8A# 8e	16ff#\	.	.	.	.	.	.	.	.	.	.	.	.	.	.	.
.	16gg\JJ	.	.	.	.	.	.	.	.	.	.	.	.	.	.	.
=10	=10	=10	=10	=10	=10	=10	=10	=10	=10	=10	=10	=10	=10	=10	=10	=10
8BB/	8ff#\L	.	2ryy	.	.	2ryy	.	.	2ryy	.	2ryy	.	.	2ryy	.	.
8F#\L 8B 8d	8bb\J	.	.	.	.	.	.	.	.	.	.	.	.	.	.	.
8F#\ 8B 8d	4ddd\	.	.	.	.	.	.	.	.	.	.	.	.	.	.	.
8F#\J 8B 8d	.	.	.	.	.	.	.	.	.	.	.	.	.	.	.	.
=11	=11	=11	=11	=11	=11	=11	=11	=11	=11	=11	=11	=11	=11	=11	=11	=11
8FF#/	16ff#\LL	.	2ryy	.	.	2ryy	.	.	2ryy	.	2ryy	.	.	2ryy	.	.
.	16gg\	.	.	.	.	.	.	.	.	.	.	.	.	.	.	.
8F#\L 8A#X 8e	16ff#\	.	.	.	.	.	.	.	.	.	.	.	.	.	.	.
.	16gg\JJ	.	.	.	.	.	.	.	.	.	.	.	.	.	.	.
8F#\ 8A# 8e	16ff#\LL	.	.	.	.	.	.	.	.	.	.	.	.	.	.	.
.	16gg\	.	.	.	.	.	.	.	.	.	.	.	.	.	.	.
8F#\J 8A# 8e	16ff#\	.	.	.	.	.	.	.	.	.	.	.	.	.	.	.
.	16gg\JJ	.	.	.	.	.	.	.	.	.	.	.	.	.	.	.
=12	=12	=12	=12	=12	=12	=12	=12	=12	=12	=12	=12	=12	=12	=12	=12	=12
8BB\L	8ff#\L	.	2ryy	.	.	2ryy	.	.	2ryy	.	2ryy	.	.	2ryy	.	.
8F#\J 8B 8d	8bb\J	.	.	.	.	.	.	.	.	.	.	.	.	.	.	.
4F#\ 4B 4d	4ddd\	.	.	.	.	.	.	.	.	.	.	.	.	.	.	.
!LO:LB:g=original	!LO:LB:g=original	!	!LO:LB:g=original	!	!	!LO:LB:g=original	!	!	!LO:LB:g=original	!	!LO:LB:g=original	!	!	!LO:LB:g=original	!	!
=13	=13	=13	=13	=13	=13	=13	=13	=13	=13	=13	=13	=13	=13	=13	=13	=13
((2GG#X/ [2D 2E#X	4.dd\ 4.ddd	ff	2ryy	.	.	2ryy	.	.	2ryy	.	2ryy	.	.	2ryy	.	.
.	(16ccc#\LL	.	.	.	.	.	.	.	.	.	.	.	.	.	.	.
.	16bb\JJ	.	.	.	.	.	.	.	.	.	.	.	.	.	.	.
=14	=14	=14	=14	=14	=14	=14	=14	=14	=14	=14	=14	=14	=14	=14	=14	=14
8AA/)) 8D] 8F#	8aa'\L)	.	2ryy	.	.	2ryy	.	.	2ryy	.	2ryy	.	.	2ryy	.	.
8r	(16ff#\L	.	.	.	.	.	.	.	.	.	.	.	.	.	.	.
.	16dd\JJ	.	.	.	.	.	.	.	.	.	.	.	.	.	.	.
((4GG#X^/ [4D 4E#X	8ddd^\L)	.	.	.	.	.	.	.	.	.	.	.	.	.	.	.
.	(16ccc#\L	.	.	.	.	.	.	.	.	.	.	.	.	.	.	.
.	16bb\JJ	.	.	.	.	.	.	.	.	.	.	.	.	.	.	.
=15	=15	=15	=15	=15	=15	=15	=15	=15	=15	=15	=15	=15	=15	=15	=15	=15
4AA/)) 4D] 4F#	8aa\L)	.	2ryy	.	.	2ryy	.	.	2ryy	.	2ryy	.	.	2ryy	.	.
.	(16ff#\L	.	.	.	.	.	.	.	.	.	.	.	.	.	.	.
.	16dd\JJ	.	.	.	.	.	.	.	.	.	.	.	.	.	.	.
4AA\ 4C# 4E 4G	8ee^\L)	.	.	.	.	.	.	.	.	.	.	.	.	.	.	.
.	(16cc#\L	.	.	.	.	.	.	.	.	.	.	.	.	.	.	.
.	16a\JJ	.	.	.	.	.	.	.	.	.	.	.	.	.	.	.
=16	=16	=16	=16	=16	=16	=16	=16	=16	=16	=16	=16	=16	=16	=16	=16	=16
.	8qee/)	.	.	.	.	.	.	.	.	.	.	.	.	.	.	.
8D\L 8F#	16dd\LL	.	2ryy	.	.	2ryy	.	.	2ryy	.	2ryy	.	.	2ryy	.	.
.	16cc#\	.	.	.	.	.	.	.	.	.	.	.	.	.	.	.
8D\J 8F# 8A	16dd\	.	.	.	.	.	.	.	.	.	.	.	.	.	.	.
.	16ee\JJ	.	.	.	.	.	.	.	.	.	.	.	.	.	.	.
4D\ 4F# 4A	8ff#\L	.	.	.	.	.	.	.	.	.	.	.	.	.	.	.
.	8dd\J	.	.	.	.	.	.	.	.	.	.	.	.	.	.	.
=17	=17	=17	=17	=17	=17	=17	=17	=17	=17	=17	=17	=17	=17	=17	=17	=17
((2GG#X^^/ [2D 2E#X	4.dd^^\ 4.ddd	.	2ryy	.	.	2ryy	.	.	2ryy	.	2ryy	.	.	2ryy	.	.
.	16ccc#\LL	.	.	.	.	.	.	.	.	.	.	.	.	.	.	.
.	16bb\JJ	.	.	.	.	.	.	.	.	.	.	.	.	.	.	.
=18	=18	=18	=18	=18	=18	=18	=18	=18	=18	=18	=18	=18	=18	=18	=18	=18
8AA/)) 8D] 8F#	8aa'\L	.	2ryy	.	.	2ryy	.	.	2ryy	.	2ryy	.	.	2ryy	.	.
8r	(16ff#\L	.	.	.	.	.	.	.	.	.	.	.	.	.	.	.
.	16dd\JJ	.	.	.	.	.	.	.	.	.	.	.	.	.	.	.
((4GG#X/ [4D 4E#X	8ddd^\L)	.	.	.	.	.	.	.	.	.	.	.	.	.	.	.
.	(16ccc#\L	.	.	.	.	.	.	.	.	.	.	.	.	.	.	.
.	16bb\JJ	.	.	.	.	.	.	.	.	.	.	.	.	.	.	.
=19	=19	=19	=19	=19	=19	=19	=19	=19	=19	=19	=19	=19	=19	=19	=19	=19
4AA/)) 4D] 4F#	8aa\L)	.	2ryy	.	.	2ryy	.	.	2ryy	.	2ryy	.	.	2ryy	.	.
.	16ff#\L	.	.	.	.	.	.	.	.	.	.	.	.	.	.	.
.	16dd\JJ	.	.	.	.	.	.	.	.	.	.	.	.	.	.	.
8AA\L 8C# 8E 8G	8ee\L	.	.	.	.	.	.	.	.	.	.	.	.	.	.	.
8AA\J 8C# 8E 8G	(16cc#\L	.	.	.	.	.	.	.	.	.	.	.	.	.	.	.
.	16a\JJ	.	.	.	.	.	.	.	.	.	.	.	.	.	.	.
!LO:LB:g=original	!LO:LB:g=original	!LO:LB:g=original	!	!LO:LB:g=original	!	!	!LO:LB:g=original	!	!	!LO:LB:g=original	!	!LO:LB:g=original	!	!	!LO:LB:g=original	!
=20	=20	=20	=20	=20	=20	=20	=20	=20	=20	=20	=20	=20	=20	=20	=20	=20
!	!	!	!	!	!	!	!	!	!	!	!LO:TX:a:t=TENORE SOLO ad libitum col Tenori Imi	!	!	!	!	!
4D\ 4F#	4dd\)	.	4r	.	.	4r	.	.	4r	.	4r	.	.	2ryy	.	.
4r	4r	.	8r	.	f	8r	.	f	8r	f	8r	.	f	.	.	.
.	.	.	16D\	.	.	16D\	Da-	.	16F#/	.	16F#/	Da-	.	.	.	.
!	!	!	!	!	!	!	!	!	!	!	!LO:TX:t=P:problem:znak segno nad i pod(m.g. piano) podwójnych kresek taktowych	!	!	!	!	!
.	.	.	16D\	.	.	16D\	-léj	.	16F#/	.	16F#/	-léj	.	.	.	.
=21||	=21||	=21||	=21||	=21||	=21||	=21||	=21||	=21||	=21||	=21||	=21||	=21||	=21||	=21||	=21||	=21||
8r	8r	.	8D\	.	.	8D\	bra-	.	8F#/	.	8F#/	bra-	.	2ryy	.	.
16DD/LL 16AA 16D	16d/LL 16f# 16a	f	8D\	.	.	8D\	-cia	.	8F#/	.	8F#/	-cia	.	.	.	.
16DD/JJ 16AA 16D	16d/JJ 16f# 16a	.	.	.	.	.	.	.	.	.	.	.	.	.	.	.
8DD/ 8AA 8D	8d/ 8f# 8a	.	8r	.	.	8r	.	.	8r	.	8r	.	.	.	.	.
8r	8r	.	16D\	.	.	16D\	do	.	16F#/	.	16A/	do	.	.	.	.
.	.	.	16D\	.	.	16D\	kie-	.	16F#/	.	16A/	kie-	.	.	.	.
=22	=22	=22	=22	=22	=22	=22	=22	=22	=22	=22	=22	=22	=22	=22	=22	=22
8r	8r	.	8D\	.	.	8D\	-li-	.	8F#/	.	8A/	-li-	.	2ryy	.	.
16DD/LL 16AA 16D	16f#/LL 16a 16dd	.	8D\	.	.	8D\	-cha	.	8F#/	.	8A/	-cha	.	.	.	.
16DD/JJ 16AA 16D	16f#/JJ 16a 16dd	.	.	.	.	.	.	.	.	.	.	.	.	.	.	.
8DD/ 8AA 8D	8f#/ 8a 8dd	.	8r	.	.	8r	.	.	8r	.	8r	.	.	.	.	.
*	*8va	*	*	*	*	*	*	*	*	*	*	*	*	*	*	*
!	!	!	!	!	!	!	!	!	!	!	!LO:TX:t=P:problem:LO:N:vis=8	!	!	!	!	!
8r	(16ddd\LL	.	16D\	.	.	16F#\	precz	.	16A/	.	16d\	precz	.	.	.	.
.	16eee\JJ)	.	16D\	.	.	16F#\	tę-	.	16A/	.	16e\	tę-	.	.	.	.
=23	=23	=23	=23	=23	=23	=23	=23	=23	=23	=23	=23	=23	=23	=23	=23	=23
4D\ 4F# 4A	8.fff#\L	.	8.D^\	.	.	8.F#^\	-skno-	.	8.A^>/	.	8.f#^\	-skno-	.	2ryy	.	.
.	16fff#\Jk	.	16D\	.	.	16F#\	-to	.	16A/	.	16f#\	-to	.	.	.	.
4D\ 4F# 4A	16ggg\LL	.	8.D\	.	.	8.F#\	z na-	.	8.A/	.	(16g\LL	z na-	.	.	.	.
.	16fff#\	.	.	.	.	.	.	.	.	.	16f#\JJ)	.	.	.	.	.
.	16eee\	.	.	.	.	.	.	.	.	.	(16e\LL	-szych	.	.	.	.
.	16ddd\JJ	.	16D\	.	.	16F#\	-szych	.	16A/	.	16d\JJ)	.	.	.	.	.
=24	=24	=24	=24	=24	=24	=24	=24	=24	=24	=24	=24	=24	=24	=24	=24	=24
8AA\L 8C# 8E 8A	8eee\L	.	8A\	.	.	8A\	twa-	.	8c#\	.	8e\	twa-	.	2ryy	.	.
8AA\J 8C# 8E 8A	8aa\J 8ccc# 8eee 8aaa	sf	8A\	.	.	8A\	-rzy	.	8c#\	.	8A/	-rzy	.	.	.	.
*	*X8va	*	*	*	*	*	*	*	*	*	*	*	*	*	*	*
4r	4r	.	4r	.	.	4r	.	.	4r	.	4r	.	.	.	.	.
!LO:LB:g=original	!LO:LB:g=original	!	!LO:LB:g=original	!	!	!LO:LB:g=original	!	!	!LO:LB:g=original	!	!LO:LB:g=original	!	!	!	!	!
=25	=25	=25	=25	=25	=25	=25	=25	=25	=25	=25	=25	=25	=25	=25	=25	=25
!	!LO:TX:b:i:t=sempre	!	!	!	!	!	!	!	!	!	!	!	!	!	!	!
4.FF#/ 4.AA#X 4.C# 4.F#	4.ff#\ 4.fff#	.	4.F#\	.	.	4.A#X\	Dla	f	4.c#\	.	4.f#\	Dla	f	2ryy	.	.
8FF#/ 8AA# 8C# 8F#	8ee\ 8eee	f	8F#\	.	.	8A#\	ni-	.	8c#\	.	8f#\	ni-	.	.	.	.
=26	=26	=26	=26	=26	=26	=26	=26	=26	=26	=26	=26	=26	=26	=26	=26	=26
4.BB\ 4.D 4.F# 4.B	4.dd\ 4.ddd	.	4.B\	.	.	4.B\	-kcze-	.	4.d\	.	4.f#\	-kcze-	.	2ryy	.	.
8GG/ 8BB 8E	8ee\ 8eee	.	8G\	.	.	8B\	-mnych	.	8e\	.	8g\	-mnych	.	.	.	.
=27	=27	=27	=27	=27	=27	=27	=27	=27	=27	=27	=27	=27	=27	=27	=27	=27
8AA/L 8D 8F#	8a\L 8aa	.	8A\	.	.	8A\	lu-	.	8d\	.	8f#\	lu-	.	2ryy	.	.
8AA/J 8D 8F#	8aa\J	.	8A\	.	.	8A\	-bość	.	8d\	.	8f#\	-bość	.	.	.	.
8AA/L 8E 8G	8aa\L	.	4A\	.	.	4A\	ci-	.	4c#\	.	4e\	ci-	.	.	.	.
8AA/J 8E 8G	16bb\L	.	.	.	.	.	.	.	.	.	.	.	.	.	.	.
.	16ccc#\JJ	.	.	.	.	.	.	.	.	.	.	.	.	.	.	.
=28	=28	=28	=28	=28	=28	=28	=28	=28	=28	=28	=28	=28	=28	=28	=28	=28
4D\ 4F#	(16ddd\LL	.	4D\	.	.	4A\	-cha	.	4d\	.	4f#\	-cha	.	2ryy	.	.
.	16eee\	.	.	.	.	.	.	.	.	.	.	.	.	.	.	.
.	16fff#\	.	.	.	.	.	.	.	.	.	.	.	.	.	.	.
.	16ggg\JJ	.	.	.	.	.	.	.	.	.	.	.	.	.	.	.
8r	4aaa\)	.	4r	.	.	4r	.	.	4r	.	4r	.	.	.	.	.
8D\ 8d	.	.	.	.	.	.	.	.	.	.	.	.	.	.	.	.
=29	=29	=29	=29	=29	=29	=29	=29	=29	=29	=29	=29	=29	=29	=29	=29	=29
4.FF#/ 4.AA#X 4.C# 4.F#	4.ff#\ 4.fff#	.	4.F#\	.	.	4.A#X\	męz-	.	4.c#\	.	4.f#\	męz-	.	2ryy	.	.
8FF#/ 8AA# 8C# 8F#	8ee\ 8eee	.	8F#\	.	.	8A#\	-two	.	8c#\	.	8f#\	-two	.	.	.	.
=30	=30	=30	=30	=30	=30	=30	=30	=30	=30	=30	=30	=30	=30	=30	=30	=30
4.BB\ 4.D 4.F# 4.B	4.dd\ 4.ddd	.	4.B\	.	.	4.B\	sła-	.	4.d\	.	4.f#\	sła-	.	2ryy	.	.
8GG/ 8BB 8E	8ee\ 8eee	.	8G\	.	.	8B\	-wa	.	8e\	.	8g\	-wa	.	.	.	.
=31	=31	=31	=31	=31	=31	=31	=31	=31	=31	=31	=31	=31	=31	=31	=31	=31
8AA/L 8D 8F#	8a\L 8aa	.	8A\	.	.	8A\	dla	.	8d\	.	8f#\	dla	.	2ryy	.	.
8AA/J 8D 8F#	8a\J 8aa	.	8A\	.	.	8A\	kor-	.	8d\	.	8f#\	kor-	.	.	.	.
8AA/L 8E 8G	8a\L 8aa	.	4A\	.	.	4A\	-sa-	.	4c#\	.	4e\	-sa-	.	.	.	.
8AA/J 8E 8G	16bb\L	.	.	.	.	.	.	.	.	.	.	.	.	.	.	.
.	16ccc#\JJ	.	.	.	.	.	.	.	.	.	.	.	.	.	.	.
=32	=32	=32	=32	=32	=32	=32	=32	=32	=32	=32	=32	=32	=32	=32	=32	=32
8D\L 8F#	8ddd\L	.	4D\	.	.	4D\	-rzy	.	4d\	.	4d\	-rzy	.	2ryy	.	.
8D\J	8aa\J 8fff#	.	.	.	.	.	.	.	.	.	.	.	.	.	.	.
4DD/	4ff#\ 4ddd	.	4r	.	.	4r	.	.	4r	.	4r	.	.	.	.	.
!LO:LB:g=original	!LO:LB:g=original	!	!LO:LB:g=original	!	!	!LO:LB:g=original	!	!	!LO:LB:g=original	!	!LO:LB:g=original	!	!	!	!	!
=33	=33	=33	=33	=33	=33	=33	=33	=33	=33	=33	=33	=33	=33	=33	=33	=33
8E\L 8G#X 8d	16ee'\LL	p	4.E\	.	.	4.G#X\	z peł-	p	4.B\	.	4.e\	z peł-	p	2ryy	.	.
.	16ff#'\	.	.	.	.	.	.	.	.	.	.	.	.	.	.	.
8E\ 8G# 8d	16ee'\	.	.	.	.	.	.	.	.	.	.	.	.	.	.	.
.	16ff#'\JJ	.	.	.	.	.	.	.	.	.	.	.	.	.	.	.
8E\ 8G# 8d	16ee'\LL	.	.	.	.	.	.	.	.	.	.	.	.	.	.	.
.	16ff#'\	.	.	.	.	.	.	.	.	.	.	.	.	.	.	.
8E\J 8G# 8d	16ee'\	.	8E\	.	.	8G#\	-néj	.	8B\	.	8e\	-néj	.	.	.	.
.	16ff#'\JJ	.	.	.	.	.	.	.	.	.	.	.	.	.	.	.
=34	=34	=34	=34	=34	=34	=34	=34	=34	=34	=34	=34	=34	=34	=34	=34	=34
8AA/	8ee'\L	.	4A\	.	.	4A\	cza-	.	4c#\	.	4e\	cza-	.	2ryy	.	.
*tremolo	*	*	*	*	*	*	*	*	*	*	*	*	*	*	*	*
8E\L 8A 8c#	8aa'\J	.	.	.	.	.	.	.	.	.	.	.	.	.	.	.
8E\ 8A 8c#	4ccc#\	.	4A\	.	.	4A\	-ry	.	4c#\	.	4e\	-ry	.	.	.	.
8E\J 8A 8c#	.	.	.	.	.	.	.	.	.	.	.	.	.	.	.	.
*Xtremolo	*	*	*	*	*	*	*	*	*	*	*	*	*	*	*	*
=35	=35	=35	=35	=35	=35	=35	=35	=35	=35	=35	=35	=35	=35	=35	=35	=35
8EE/	16ee'\LL	.	4.E\	.	.	4.G#X\	w do-	.	4.B\	.	4.e\	w do-	.	2ryy	.	.
.	16ff#'\	.	.	.	.	.	.	.	.	.	.	.	.	.	.	.
8E\L 8G#X 8d	16ee'\	.	.	.	.	.	.	.	.	.	.	.	.	.	.	.
.	16ff#'\JJ	.	.	.	.	.	.	.	.	.	.	.	.	.	.	.
8E\ 8G# 8d	16ee'\LL	.	.	.	.	.	.	.	.	.	.	.	.	.	.	.
.	16ff#'\	.	.	.	.	.	.	.	.	.	.	.	.	.	.	.
8E\J 8G# 8d	16ee'\	.	8E\	.	.	8G#\	-brém	.	8B\	.	8e\	-brém	.	.	.	.
.	16ff#'\JJ	.	.	.	.	.	.	.	.	.	.	.	.	.	.	.
=36	=36	=36	=36	=36	=36	=36	=36	=36	=36	=36	=36	=36	=36	=36	=36	=36
8AA/	8ee'\L	.	4A\	.	.	4A\	wi-	.	4c#\	.	4e\	wi-	.	2ryy	.	.
*tremolo	*	*	*	*	*	*	*	*	*	*	*	*	*	*	*	*
8E\L 8A 8c#	8aa'\J	.	.	.	.	.	.	.	.	.	.	.	.	.	.	.
8E\ 8A 8c#	4ccc#\	.	4A\	.	.	4A\	-nie,	.	4c#\	.	4e\	-nie,	.	.	.	.
8E\J 8A 8c#	.	.	.	.	.	.	.	.	.	.	.	.	.	.	.	.
*Xtremolo	*	*	*	*	*	*	*	*	*	*	*	*	*	*	*	*
=37	=37	=37	=37	=37	=37	=37	=37	=37	=37	=37	=37	=37	=37	=37	=37	=37
!	!	!LO:HP:t=cres---	!	!	!LO:HP:t=cres---	!	!	!	!	!LO:HP:a:t=cres---	!	!	!	!	!	!
8FF#/	16ff#'\LL	<	4.F#\	.	<	4.A#X\	Niech	.	4.c#\	<	4.f#\	Niech	.	2ryy	.	.
.	16gg'\	.	.	.	.	.	.	.	.	.	.	.	.	.	.	.
8F#\L 8A#X 8e	16ff#'\	.	.	.	.	.	.	.	.	.	.	.	.	.	.	.
.	16gg'\JJ	.	.	.	.	.	.	.	.	.	.	.	.	.	.	.
8F#\ 8A# 8e	16ff#'\LL	.	.	.	.	.	.	.	.	.	.	.	.	.	.	.
.	16gg'\	.	.	.	.	.	.	.	.	.	.	.	.	.	.	.
8F#\J 8A# 8e	16ff#'\	.	8F#\	.	.	8A#\	nam	.	8c#\	.	8f#\	nam	.	.	.	.
.	16gg'\JJ	.	.	.	.	.	.	.	.	.	.	.	.	.	.	.
=38	=38	=38	=38	=38	=38	=38	=38	=38	=38	=38	=38	=38	=38	=38	=38	=38
8BB/	8ff#\L	.	4B\	.	.	4B\	ros-	.	4d\	.	4f#\	ros-	.	2ryy	.	.
*tremolo	*	*	*	*	*	*	*	*	*	*	*	*	*	*	*	*
8F#\L 8B 8d	8bb\J	.	.	.	.	.	.	.	.	.	.	.	.	.	.	.
8F#\ 8B 8d	4ddd\	.	4B\	.	.	4B\	-kosz	.	4d\	.	4f#\	-kosz	.	.	.	.
8F#\J 8B 8d	.	.	.	.	.	.	.	.	.	.	.	.	.	.	.	.
*Xtremolo	*	*	*	*	*	*	*	*	*	*	*	*	*	*	*	*
=39	=39	=39	=39	=39	=39	=39	=39	=39	=39	=39	=39	=39	=39	=39	=39	=39
8FF#/	16ff#\LL	.	4.F#\	.	.	4.A#X\	ży-	.	4.c#\	.	4.f#\	ży-	.	2ryy	.	.
.	16gg\	.	.	.	.	.	.	.	.	.	.	.	.	.	.	.
8F#\L 8A#X 8e	16ff#\	.	.	.	.	.	.	.	.	.	.	.	.	.	.	.
.	16gg\JJ	.	.	.	.	.	.	.	.	.	.	.	.	.	.	.
8F#\ 8A# 8e	16ff#\LL	.	.	.	.	.	.	.	.	.	.	.	.	.	.	.
.	16gg\	.	.	.	.	.	.	.	.	.	.	.	.	.	.	.
8F#\J 8A# 8e	16ff#\	.	8F#\	.	.	8A#\	-cia	.	8c#\	.	8f#\	-cia	.	.	.	.
.	16gg\JJ	.	.	.	.	.	.	.	.	.	.	.	.	.	.	.
!LO:PB:g=original	!LO:PB:g=original	!	!	!LO:PB:g=original	!	!	!LO:PB:g=original	!	!	!LO:PB:g=original	!	!LO:PB:g=original	!	!	!	!
=40	=40	=40	=40	=40	=40	=40	=40	=40	=40	=40	=40	=40	=40	=40	=40	=40
8BB/	8ff#\L	.	4B\	.	.	4B\	pły-	.	4d\	.	4f#\	pły-	.	2ryy	.	.
*tremolo	*	*	*	*	*	*	*	*	*	*	*	*	*	*	*	*
8F#\L 8B 8d	8bb\J	.	.	.	.	.	.	.	.	.	.	.	.	.	.	.
8F#\ 8B 8d	4ddd\	.	4B\	.	.	4B\	-nie	.	4d\	.	4f#\	-nie	.	.	.	.
8F#\J 8B 8d	.	.	.	.	.	.	.	.	.	.	.	.	.	.	.	.
*Xtremolo	*	*	*	*	*	*	*	*	*	*	*	*	*	*	*	*
=41	=41	=41	=41	=41	=41	=41	=41	=41	=41	=41	=41	=41	=41	=41	=41	=41
!	!	!	!	!	!LO:DY:a	!	!	!	!	!	!	!	!LO:DY:a	!	!	!
16AA\LL 16C# 16E	4.gg\ 4.ggg	f	4.A\	.	f	4.A\	z peł-	.	4.c#\	.	4.g\	z peł-	f	2ryy	.	.
16A\	.	.	.	.	.	.	.	.	.	.	.	.	.	.	.	.
16AA\ 16C# 16E	.	.	.	.	.	.	.	.	.	.	.	.	.	.	.	.
16A\JJ	.	.	.	.	.	.	.	.	.	.	.	.	.	.	.	.
4AA/ 4C# 4E	.	.	.	.	.	.	.	.	.	.	.	.	.	.	.	.
.	16fff#\LL	.	8A\	.	.	8A\	-néj	.	8c#\	.	8e\	-néj	.	.	.	.
.	16eee\JJ	.	.	.	.	.	.	.	.	.	.	.	.	.	.	.
=42	=42	=42	=42	=42	=42	=42	=42	=42	=42	=42	=42	=42	=42	=42	=42	=42
16D\LL 16F#	4.ddd\	.	4.D\	.	.	4.A\	cza-	.	4.d\	.	4.f#\	cza-	.	2ryy	.	.
16A\	.	.	.	.	.	.	.	.	.	.	.	.	.	.	.	.
16D\ 16F#	.	.	.	.	.	.	.	.	.	.	.	.	.	.	.	.
16A\JJ	.	.	.	.	.	.	.	.	.	.	.	.	.	.	.	.
4D\ 4F#	.	.	.	.	.	.	.	.	.	.	.	.	.	.	.	.
.	16ccc#\LL	.	8D\	.	.	8A\	-ry	.	8d\	.	8f#\	-ry	.	.	.	.
.	16bb\JJ	.	.	.	.	.	.	.	.	.	.	.	.	.	.	.
=43	=43	=43	=43	=43	=43	=43	=43	=43	=43	=43	=43	=43	=43	=43	=43	=43
8AA\L 8C# 8E 8G	16aa\LL	.	8AA/	.	.	8A\	w do-	.	8c#\	.	8e\	w do-	.	2ryy	.	.
.	16bb\	.	.	.	.	.	.	.	.	.	.	.	.	.	.	.
8AA\ 8C# 8E 8G	16aa\	.	8AA/	.	.	8A\	-brém	.	8c#\	.	8e\	-brém	.	.	.	.
.	16bb\JJ	.	.	.	.	.	.	.	.	.	.	.	.	.	.	.
8AA\ 8C# 8E 8G	16aa\LL	.	8AA/	.	.	8A\	w do-	.	8c#\	.	8e\	w do-	.	.	.	.
.	16bb\	.	.	.	.	.	.	.	.	.	.	.	.	.	.	.
8AA\J 8C# 8E 8G	16aa\	.	8AA/	.	.	8A\	-brém	.	8c#\	.	8e\	-brém	.	.	.	.
.	16bb\JJ	.	.	.	.	.	.	.	.	.	.	.	.	.	.	.
=44	=44	=44	=44	=44	=44	=44	=44	=44	=44	=44	=44	=44	=44	=44	=44	=44
8D\L 8F#	8aa\L	.	4D\	.	.	4A\	wi-	.	4d\	.	4f#\	wi-	.	2ryy	.	.
8D\J 8F# 8A	8ddd\J	.	.	.	.	.	.	.	.	.	.	.	.	.	.	.
4D\ 4F# 4A	4fff#\	.	4D\	.	.	4A\	-nie	.	4d\	.	4f#\	-nie	.	.	.	.
=45	=45	=45	=45	=45	=45	=45	=45	=45	=45	=45	=45	=45	=45	=45	=45	=45
!	!	!	!	!	!LO:DY:a	!	!	!	!	!LO:DY:a	!	!	!	!	!	!
16AA\LL 16C# 16E	4.gg\ 4.ggg	ff	4.A\	.	ff	4.A\	Niech	.	4.c#\	ff	4.e\	Niech	.	2ryy	.	.
16G\	.	.	.	.	.	.	.	.	.	.	.	.	.	.	.	.
16AA\ 16C# 16E	.	.	.	.	.	.	.	.	.	.	.	.	.	.	.	.
16G\JJ	.	.	.	.	.	.	.	.	.	.	.	.	.	.	.	.
4AA/ 4C# 4E	.	.	.	.	.	.	.	.	.	.	.	.	.	.	.	.
.	(16fff#\LL	.	8A\	.	.	8A\	nam	.	8c#\	.	8e\	nam	.	.	.	.
.	16eee\JJ	.	.	.	.	.	.	.	.	.	.	.	.	.	.	.
=46	=46	=46	=46	=46	=46	=46	=46	=46	=46	=46	=46	=46	=46	=46	=46	=46
16D\LL 16F#	4.ddd\)	.	4.D\	.	.	4.A\	ros-	.	4.d\	.	4.f#\	ros-	.	2ryy	.	.
16A\	.	.	.	.	.	.	.	.	.	.	.	.	.	.	.	.
16D\ 16F#	.	.	.	.	.	.	.	.	.	.	.	.	.	.	.	.
16A\JJ	.	.	.	.	.	.	.	.	.	.	.	.	.	.	.	.
4D\ 4F#	.	.	.	.	.	.	.	.	.	.	.	.	.	.	.	.
.	(16ccc#\LL	.	8D\	.	.	8A\	-kosz	.	8d\	.	8f#\	-kosz	.	.	.	.
.	16bb\JJ	.	.	.	.	.	.	.	.	.	.	.	.	.	.	.
=47	=47	=47	=47	=47	=47	=47	=47	=47	=47	=47	=47	=47	=47	=47	=47	=47
8AA\L 8C# 8E 8G	16aa\LL)	.	8AA/	.	.	8A\	ros-	.	8c#\	.	8e\	ros-	.	2ryy	.	.
.	16bb\	.	.	.	.	.	.	.	.	.	.	.	.	.	.	.
8AA\ 8C# 8E 8G	16aa\	.	8AA/	.	.	8A\	-kosz	.	8c#\	.	8e\	-kosz	.	.	.	.
.	16bb\JJ	.	.	.	.	.	.	.	.	.	.	.	.	.	.	.
8AA\ 8C# 8E 8G	16aa\LL	.	8AA/	.	.	8A\	ży-	.	8c#\	.	8e\	ży-	.	.	.	.
.	16gg\	.	.	.	.	.	.	.	.	.	.	.	.	.	.	.
8AA\J 8C# 8E 8G	16ee\	.	8AA/	.	.	8A\	-cia	.	8c#\	.	8e\	-cia	.	.	.	.
.	16ff#\JJ	.	.	.	.	.	.	.	.	.	.	.	.	.	.	.
!LO:LB:g=original	!LO:LB:g=original	!	!	!LO:LB:g=original	!	!	!LO:LB:g=original	!	!	!LO:LB:g=original	!	!LO:LB:g=original	!	!	!	!
=48	=48	=48	=48	=48	=48	=48	=48	=48	=48	=48	=48	=48	=48	=48	=48	=48
8D\L 8F#	8dd\L	.	8D\	.	.	8F#\	pły-	.	8A/	.	8d\	pły-	.	2ryy	.	.
8D\J 8F# 8A	8ff#\J	.	8D\	.	.	8F#\	-nie	.	8A/	.	8d\	-nie	.	.	.	.
4D\ 4F# 4A	4dd\	.	4r	.	.	4r	.	.	4r	.	4r	.	.	.	.	.
=49	=49	=49	=49	=49	=49	=49	=49	=49	=49	=49	=49	=49	=49	=49	=49	=49
*	*8va	*	*	*	*	*	*	*	*	*	*	*	*	*	*	*
4AAA/ 4AA	4.aa\ 4.ccc# 4.eee 4.ggg	ff	(4AA/	.	.	4.A\	z peł-	.	4.c#\	.	4.e\	z peł-	.	2ryy	.	.
8BBB/L 8BB	.	.	8BB/)	.	.	.	.	.	.	.	.	.	.	.	.	.
8CC#/J 8C#	16fff#\LL	.	8C#/	.	.	8A\	-néj	.	8A/	.	8e\	-néj	.	.	.	.
.	16eee\JJ	.	.	.	.	.	.	.	.	.	.	.	.	.	.	.
=50	=50	=50	=50	=50	=50	=50	=50	=50	=50	=50	=50	=50	=50	=50	=50	=50
8DD/L 8D	4.ff#/ 4.aa 4.ddd	.	(8D\L	.	.	4.A\	cza-	.	4.d\	.	4.f#\	cza-	.	2ryy	.	.
8EE/ 8E	.	.	8E\	.	.	.	.	.	.	.	.	.	.	.	.	.
8FF#/ 8F#	.	.	8F#\J)	.	.	.	.	.	.	.	.	.	.	.	.	.
8GG/J 8G	16ccc#\LL	.	8G\	.	.	8A\	-ry	.	8d\	.	8f#\	-ry	.	.	.	.
.	16bb\JJ	.	.	.	.	.	.	.	.	.	.	.	.	.	.	.
=51	=51	=51	=51	=51	=51	=51	=51	=51	=51	=51	=51	=51	=51	=51	=51	=51
8AA\ 8A	16aa/LL	.	8A\	.	.	8A\	w do-	.	8c#\	.	8e\	w do-	.	2ryy	.	.
.	16bb/	.	.	.	.	.	.	.	.	.	.	.	.	.	.	.
8AA\L 8C# 8E 8G	16aa/	.	8AA/	.	.	8A\	-brém	.	8c#\	.	8e\	-brém	.	.	.	.
.	16bb/JJ	.	.	.	.	.	.	.	.	.	.	.	.	.	.	.
8AA\ 8C# 8E 8G	16aa/LL	.	8AA/	.	.	8A\	w do-	.	8c#\	.	8e\	w do-	.	.	.	.
.	16bb/	.	.	.	.	.	.	.	.	.	.	.	.	.	.	.
8AA\J 8C# 8E 8G	16aa/	.	8AA/	.	.	8A\	-brém	.	8c#\	.	8e\	-brém	.	.	.	.
.	16bb/JJ	.	.	.	.	.	.	.	.	.	.	.	.	.	.	.
=52	=52	=52	=52	=52	=52	=52	=52	=52	=52	=52	=52	=52	=52	=52	=52	=52
8D\L 8F#	8aa\L	.	4D\	.	.	4A\	wi-	.	4d\	.	4f#\	wi-	.	2ryy	.	.
8D\J 8F# 8A	8ddd\J	.	.	.	.	.	.	.	.	.	.	.	.	.	.	.
4D\ 4F# 4A	4fff#\	.	4D\	.	.	4A\	-nie	.	4d\	.	4f#\	-nie	.	.	.	.
=53	=53	=53	=53	=53	=53	=53	=53	=53	=53	=53	=53	=53	=53	=53	=53	=53
4AAA/ 4AA	4.aa\ 4.ccc# 4.eee 4.ggg	.	(4AA/	.	.	4.A\	Niech	.	4.c#\	.	4.e\	Niech	.	2ryy	.	.
8BBB/L 8BB	.	.	8BB/)	.	.	.	.	.	.	.	.	.	.	.	.	.
8CC#/J 8C#	16fff#\LL	.	8C#/	.	.	8A\	nam	.	8A/	.	8e\	nam	.	.	.	.
.	16eee\JJ	.	.	.	.	.	.	.	.	.	.	.	.	.	.	.
=54	=54	=54	=54	=54	=54	=54	=54	=54	=54	=54	=54	=54	=54	=54	=54	=54
8DD/L 8D	4.ff#/ 4.aa 4.ddd	.	(8D\L	.	.	4.A\	ros-	.	4.d\	.	4.f#\	ros-	.	2ryy	.	.
8EE/ 8E	.	.	8E\	.	.	.	.	.	.	.	.	.	.	.	.	.
8FF#/ 8F#	.	.	8F#\J)	.	.	.	.	.	.	.	.	.	.	.	.	.
8GG/J 8G	16ccc#\LL	.	8G\	.	.	8A\	-kosz	.	8d\	.	8f#\	-kosz	.	.	.	.
.	16bb\JJ	.	.	.	.	.	.	.	.	.	.	.	.	.	.	.
*	*X8va	*	*	*	*	*	*	*	*	*	*	*	*	*	*	*
=55	=55	=55	=55	=55	=55	=55	=55	=55	=55	=55	=55	=55	=55	=55	=55	=55
8AA\ 8A	16aa\LL	.	8A\	.	.	8A\	ros-	.	8c#\	.	8e\	ros-	.	2ryy	.	.
.	16bb\	.	.	.	.	.	.	.	.	.	.	.	.	.	.	.
8AA\L 8C# 8E 8G	16aa\	.	8AA/	.	.	8A\	-kosz	.	8c#\	.	8e\	-kosz	.	.	.	.
.	16bb\JJ	.	.	.	.	.	.	.	.	.	.	.	.	.	.	.
8AA\ 8C# 8E 8G	16aa\LL	.	8AA/	.	.	8A\	ży-	.	8c#\	.	8e\	ży-	.	.	.	.
.	16gg\	.	.	.	.	.	.	.	.	.	.	.	.	.	.	.
8AA\J 8C# 8E 8G	16ee\	.	8AA/	.	.	8A\	-cia	.	8c#\	.	8e\	-cia	.	.	.	.
.	16ff#\JJ	.	.	.	.	.	.	.	.	.	.	.	.	.	.	.
!LO:LB:g=original	!LO:LB:g=original	!	!	!LO:LB:g=original	!	!	!LO:LB:g=original	!	!	!LO:LB:g=original	!	!LO:LB:g=original	!	!	!	!
=56	=56	=56	=56	=56	=56	=56	=56	=56	=56	=56	=56	=56	=56	=56	=56	=56
8D\L 8F#	8dd\L	.	8D\	.	.	8F#\	pły-	.	8A/	.	8d\	pły-	.	2ryy	.	.
8D\J	8a\J 8ff#	.	8D\	.	.	8F#\	-nie	.	8A/	.	8d\	-nie	.	.	.	.
4DD/	4f#/ 4dd	.	4r	.	.	4r	.	.	4r	.	4r	.	.	.	.	.
=57	=57	=57	=57	=57	=57	=57	=57	=57	=57	=57	=57	=57	=57	=57	=57	=57
2r	2r	.	4d\	.	.	4d\	Da-	f	4d\	.	4d\	Da-	f	2ryy	.	.
.	.	.	(8c#\L	.	.	(8c#\L	-léj	.	(8c#\L	.	(8c#\L	-léj	.	.	.	.
.	.	.	8B\J)	.	.	8B\J)	.	.	8B\J)	.	8B\J)	.	.	.	.	.
=58	=58	=58	=58	=58	=58	=58	=58	=58	=58	=58	=58	=58	=58	=58	=58	=58
2r	2r	.	8.A\L	.	.	8.A\L	bra-	.	8.A/L	.	8.A/L	bra-	.	2ryy	.	.
.	.	.	16F#\Jk	.	.	16F#\Jk	.	.	16F#/Jk	.	16F#/Jk	.	.	.	.	.
.	.	.	4D\	.	.	4D\	-cia	.	4D/	.	4D/	-cia	.	.	.	.
=59	=59	=59	=59	=59	=59	=59	=59	=59	=59	=59	=59	=59	=59	=59	=59	=59
*	*8va	*	*	*	*	*	*	*	*	*	*	*	*	*	*	*
!	!LO:TX:a:t=†	!	!	!	!	!	!	!	!	!	!	!	!	!	!	!
8AA\L 8C# 8E 8G	16eee'\LL	p	2r	.	.	2r	.	.	2r	.	2r	.	.	2ryy	.	.
.	16fff#'\	.	.	.	.	.	.	.	.	.	.	.	.	.	.	.
8AA\ 8C# 8E 8G	16eee'\	.	.	.	.	.	.	.	.	.	.	.	.	.	.	.
.	16fff#'\JJ	.	.	.	.	.	.	.	.	.	.	.	.	.	.	.
!	!LO:TX:a:t=†	!	!	!	!	!	!	!	!	!	!	!	!	!	!	!
8AA\ 8C# 8E 8G	16eee'\LL	.	.	.	.	.	.	.	.	.	.	.	.	.	.	.
.	16ccc#'\	.	.	.	.	.	.	.	.	.	.	.	.	.	.	.
8AA\J 8C# 8E 8G	16aa'\	.	.	.	.	.	.	.	.	.	.	.	.	.	.	.
.	16ccc#'\JJ	.	.	.	.	.	.	.	.	.	.	.	.	.	.	.
=60	=60	=60	=60	=60	=60	=60	=60	=60	=60	=60	=60	=60	=60	=60	=60	=60
!	!LO:TX:a:t=†	!	!	!	!	!	!	!	!	!	!	!	!	!	!	!
8D\L 8F#	8ddd\L	.	2r	.	.	2r	.	.	2r	.	2r	.	.	2ryy	.	.
8D\J 8F# 8A	8fff#\J	.	.	.	.	.	.	.	.	.	.	.	.	.	.	.
!	!LO:TX:a:t=†	!	!	!	!	!	!	!	!	!	!	!	!	!	!	!
4D\ 4F# 4A	4aaa\	.	.	.	.	.	.	.	.	.	.	.	.	.	.	.
*	*X8va	*	*	*	*	*	*	*	*	*	*	*	*	*	*	*
=61	=61	=61	=61	=61	=61	=61	=61	=61	=61	=61	=61	=61	=61	=61	=61	=61
2r	2r	.	4d\	.	.	4d\	Do	f	4d\	.	4d\	Do	f	2ryy	.	.
.	.	.	(8c#\L	.	.	(8c#\L	kie-	.	(8c#\L	.	(8c#\L	kie-	.	.	.	.
.	.	.	8B\J)	.	.	8B\J)	.	.	8B\J)	.	8B\J)	.	.	.	.	.
=62	=62	=62	=62	=62	=62	=62	=62	=62	=62	=62	=62	=62	=62	=62	=62	=62
2r	2r	.	8.A\L	.	.	8.A\L	-li-	.	8.A/L	.	8.A/L	-li-	.	2ryy	.	.
.	.	.	16F#\Jk	.	.	16F#\Jk	.	.	16F#/Jk	.	16F#/Jk	.	.	.	.	.
.	.	.	4D\	.	.	4D\	-cha	.	4D/	.	4D/	-cha	.	.	.	.
=63	=63	=63	=63	=63	=63	=63	=63	=63	=63	=63	=63	=63	=63	=63	=63	=63
*	*8va	*	*	*	*	*	*	*	*	*	*	*	*	*	*	*
!	!LO:TX:a:t=†	!	!	!	!	!	!	!	!	!	!	!	!	!	!	!
8AA\L 8C# 8E 8G	16eee'\LL	p	2r	.	.	2r	.	.	2r	.	2r	.	.	2ryy	.	.
.	16fff#'\	.	.	.	.	.	.	.	.	.	.	.	.	.	.	.
8AA\ 8C# 8E 8G	16eee'\	.	.	.	.	.	.	.	.	.	.	.	.	.	.	.
.	16fff#'\JJ	.	.	.	.	.	.	.	.	.	.	.	.	.	.	.
!	!LO:TX:a:t=†	!	!	!	!	!	!	!	!	!	!	!	!	!	!	!
8AA\ 8C# 8E 8G	16eee'\LL	.	.	.	.	.	.	.	.	.	.	.	.	.	.	.
.	16ccc#'\	.	.	.	.	.	.	.	.	.	.	.	.	.	.	.
8AA\J 8C# 8E 8G	16aa'\	.	.	.	.	.	.	.	.	.	.	.	.	.	.	.
.	16ccc#'\JJ	.	.	.	.	.	.	.	.	.	.	.	.	.	.	.
!LO:LB:g=original	!LO:LB:g=original	!	!	!LO:LB:g=original	!	!	!LO:LB:g=original	!	!	!LO:LB:g=original	!	!LO:LB:g=original	!	!	!LO:LB:g=original	!
=64	=64	=64	=64	=64	=64	=64	=64	=64	=64	=64	=64	=64	=64	=64	=64	=64
4D\ 4F#	4ddd\	.	4r	.	.	4r	.	mf	4r	.	4r	.	mf	2ryy	.	.
*	*X8va	*	*	*	*	*	*	*	*	*	*	*	*	*	*	*
8d\L	8dd\L	mf	8d\	.	.	8d\	dla	.	8d\	.	8d\	dla	.	.	.	.
16c#\L	16cc#\L	.	(16c#\LL	.	.	(16c#\LL	ni-	.	(16c#\LL	.	(16c#\LL	ni-	.	.	.	.
16B\JJ	16b\JJ	.	16B\JJ)	.	.	16B\JJ)	.	.	16B\JJ)	.	16B\JJ)	.	.	.	.	.
=65	=65	=65	=65	=65	=65	=65	=65	=65	=65	=65	=65	=65	=65	=65	=65	=65
8A\L	8a/L	.	8A\	.	.	8A\	-kcze-	.	8A/	.	8A/	-kcze-	.	2ryy	.	.
8F#\J	8f#/J	.	8F#\	.	.	8F#\	-mnych	.	8F#/	.	8F#/	-mnych	.	.	.	.
8B\L	8b/L	.	8B\	.	.	8B\	lu-	.	8B\	.	8B\	lu-	.	.	.	.
16A\L	16a/L	.	(16A\LL	.	.	(16A\LL	-bość	.	(16A/LL	.	(16A/LL	-bość	.	.	.	.
16G\JJ	16g/JJ	.	16G\JJ)	.	.	16G\JJ)	.	.	16G/JJ)	.	16G/JJ)	.	.	.	.	.
=66	=66	=66	=66	=66	=66	=66	=66	=66	=66	=66	=66	=66	=66	=66	=66	=66
8F#\L	8f#/L	.	8F#\	.	.	8F#\	ci-	.	8F#/	.	8F#/	ci-	.	2ryy	.	.
8D\J	8d/J	.	8D\	.	.	8D\	-cha	.	8D/	.	8D/	-cha	.	.	.	.
!	!	!	!	!	!LO:DY:a	!	!	!	!	!LO:DY:a	!	!	!	!	!	!
8F#\L	8ff#\L	ff	8F#\	.	ff	8F#\	Męz-	.	8f#\	ff	8f#\	Męz-	.	.	.	.
8E\J	8ee\J	.	8E\	.	.	8E\	-two	.	8e\	.	8e\	-two	.	.	.	.
=67	=67	=67	=67	=67	=67	=67	=67	=67	=67	=67	=67	=67	=67	=67	=67	=67
8D/L	8dd\L	.	8D\	.	.	8D\	sła-	.	8d\	.	8d\	sła-	.	2ryy	.	.
(16C#/L	(16cc#\L	.	(16C#/LL	.	.	(16C#/LL	-wa	.	(16c#\LL	.	(16c#\LL	-wa	.	.	.	.
16D/JJ)	16dd\JJ)	.	16D/JJ)	.	.	16D/JJ)	.	.	16d\JJ)	.	16d\JJ)	.	.	.	.	.
(16E/LL	(16ee\LL	.	(16E/LL	.	.	(16E/LL	dla	.	(16e\LL	.	(16e\LL	dla	.	.	.	.
16D/	16dd\	.	16D/JJ)	.	.	16D/JJ)	.	.	16d\JJ)	.	16d\JJ)	.	.	.	.	.
16C#/	16cc#\	.	(16C#/LL	.	.	(16C#/LL	kor-	.	(16c#\LL	.	(16c#\LL	kor-	.	.	.	.
16BB/JJ)	16b\JJ)	.	16BB/JJ)	.	.	16BB/JJ)	.	.	16B\JJ)	.	16B\JJ)	.	.	.	.	.
=68	=68	=68	=68	=68	=68	=68	=68	=68	=68	=68	=68	=68	=68	=68	=68	=68
2AA/	2a/	.	[2AA/	.	.	[2AA/	-sa-	.	[2A/	.	[2A/	-sa-	.	2ryy	.	.
(8qBB^/	(8qb^>/	.	8qBB/	.	.	8qBB/	.	.	8qB/	.	8qB/	.	.	.	.	.
=69	=69	=69	=69	=69	=69	=69	=69	=69	=69	=69	=69	=69	=69	=69	=69	=69
2AA/)	2a/)	.	2AA/]	.	.	2AA/]	-rzy	.	2A/]	.	2A/]	-rzy	.	2ryy	.	.
!LO:PB:g=original	!LO:PB:g=original	!	!LO:PB:g=original	!	!	!LO:PB:g=original	!	!	!LO:PB:g=original	!	!LO:PB:g=original	!	!	!LO:PB:g=original	!	!
=70	=70	=70	=70	=70	=70	=70	=70	=70	=70	=70	=70	=70	=70	=70	=70	=70
*	*8va	*	*	*	*	*	*	*	*	*	*	*	*	*	*	*
!	!LO:TX:a:t=†	!	!	!	!	!	!	!	!	!	!	!	!	!	!	!
8AA\L 8C# 8E 8G	16eee\LL	p	2ryy	.	.	2ryy	.	.	2ryy	.	2ryy	.	.	2ryy	.	.
.	16fff#\	.	.	.	.	.	.	.	.	.	.	.	.	.	.	.
8AA\ 8C# 8E 8G	16eee\	.	.	.	.	.	.	.	.	.	.	.	.	.	.	.
.	16fff#\JJ	.	.	.	.	.	.	.	.	.	.	.	.	.	.	.
!	!LO:TX:a:t=†	!	!	!	!	!	!	!	!	!	!	!	!	!	!	!
8AA\ 8C# 8E 8G	16eee\LL	.	.	.	.	.	.	.	.	.	.	.	.	.	.	.
.	16ccc#\	.	.	.	.	.	.	.	.	.	.	.	.	.	.	.
8AA\J 8C# 8E 8G	16aa\	.	.	.	.	.	.	.	.	.	.	.	.	.	.	.
.	16ccc#\JJ	.	.	.	.	.	.	.	.	.	.	.	.	.	.	.
=71	=71	=71	=71	=71	=71	=71	=71	=71	=71	=71	=71	=71	=71	=71	=71	=71
8D\L	8ddd\L	.	2ryy	.	.	2ryy	.	.	2ryy	.	2ryy	.	.	2ryy	.	.
8F#\J 8A	8fff#\J	.	.	.	.	.	.	.	.	.	.	.	.	.	.	.
8D\L	8.aaa\L	.	.	.	.	.	.	.	.	.	.	.	.	.	.	.
8F#\J 8A	.	.	.	.	.	.	.	.	.	.	.	.	.	.	.	.
.	16fff#\Jk	.	.	.	.	.	.	.	.	.	.	.	.	.	.	.
=72	=72	=72	=72	=72	=72	=72	=72	=72	=72	=72	=72	=72	=72	=72	=72	=72
!	!LO:TX:a:t=†	!	!	!	!	!	!	!	!	!	!	!	!	!	!	!
8AA\L	16eee\LL	.	2ryy	.	.	2ryy	.	.	2ryy	.	2ryy	.	.	2ryy	.	.
.	16fff#\	.	.	.	.	.	.	.	.	.	.	.	.	.	.	.
8C#\J 8E 8G	16eee\	.	.	.	.	.	.	.	.	.	.	.	.	.	.	.
.	16fff#\JJ	.	.	.	.	.	.	.	.	.	.	.	.	.	.	.
!	!LO:TX:a:t=†	!	!	!	!	!	!	!	!	!	!	!	!	!	!	!
8AA\L	16eee\LL	.	.	.	.	.	.	.	.	.	.	.	.	.	.	.
.	16ccc#\	.	.	.	.	.	.	.	.	.	.	.	.	.	.	.
8C#\J 8E 8G	16aa\	.	.	.	.	.	.	.	.	.	.	.	.	.	.	.
.	16ccc#\JJ	.	.	.	.	.	.	.	.	.	.	.	.	.	.	.
=73	=73	=73	=73	=73	=73	=73	=73	=73	=73	=73	=73	=73	=73	=73	=73	=73
8D\L	4ddd\	.	2ryy	.	.	2ryy	.	.	2ryy	.	2ryy	.	.	2ryy	.	.
8F#\J 8A	.	.	.	.	.	.	.	.	.	.	.	.	.	.	.	.
8D\L	4r	.	.	.	.	.	.	.	.	.	.	.	.	.	.	.
8F#\J 8A	.	.	.	.	.	.	.	.	.	.	.	.	.	.	.	.
=74	=74	=74	=74	=74	=74	=74	=74	=74	=74	=74	=74	=74	=74	=74	=74	=74
!	!LO:TX:a:t=†	!	!	!	!	!	!	!	!	!	!	!	!	!	!	!
8AA\L	16eee\LL	.	2ryy	.	.	2ryy	.	.	2ryy	.	2ryy	.	.	2ryy	.	.
.	16fff#\	.	.	.	.	.	.	.	.	.	.	.	.	.	.	.
8C#\J 8E 8G	16eee\	.	.	.	.	.	.	.	.	.	.	.	.	.	.	.
.	16fff#\JJ	.	.	.	.	.	.	.	.	.	.	.	.	.	.	.
!	!LO:TX:a:t=†	!	!	!	!	!	!	!	!	!	!	!	!	!	!	!
8AA\L	16eee\LL	.	.	.	.	.	.	.	.	.	.	.	.	.	.	.
.	16ccc#\	.	.	.	.	.	.	.	.	.	.	.	.	.	.	.
8C#\J 8E 8G	16aa\	.	.	.	.	.	.	.	.	.	.	.	.	.	.	.
.	16ccc#\JJ	.	.	.	.	.	.	.	.	.	.	.	.	.	.	.
=75	=75	=75	=75	=75	=75	=75	=75	=75	=75	=75	=75	=75	=75	=75	=75	=75
8D\L	8ddd\L	.	2ryy	.	.	2ryy	.	.	2ryy	.	2ryy	.	.	2ryy	.	.
8F#\J 8A	8fff#\J	.	.	.	.	.	.	.	.	.	.	.	.	.	.	.
8D\L	8.aaa\L	.	.	.	.	.	.	.	.	.	.	.	.	.	.	.
8F#\J 8A	.	.	.	.	.	.	.	.	.	.	.	.	.	.	.	.
.	16fff#\Jk	.	.	.	.	.	.	.	.	.	.	.	.	.	.	.
=76	=76	=76	=76	=76	=76	=76	=76	=76	=76	=76	=76	=76	=76	=76	=76	=76
!	!LO:TX:a:t=†	!	!	!	!	!	!	!	!	!	!	!	!	!	!	!
8AA\L	16eee\LL	.	2ryy	.	.	2ryy	.	.	2ryy	.	2ryy	.	.	2ryy	.	.
.	16fff#\	.	.	.	.	.	.	.	.	.	.	.	.	.	.	.
8C#\J 8E 8G	16eee\	.	.	.	.	.	.	.	.	.	.	.	.	.	.	.
.	16fff#\JJ	.	.	.	.	.	.	.	.	.	.	.	.	.	.	.
!	!LO:TX:a:t=†	!	!	!	!	!	!	!	!	!	!	!	!	!	!	!
8AA\L	16eee\LL	.	.	.	.	.	.	.	.	.	.	.	.	.	.	.
.	16ccc#\	.	.	.	.	.	.	.	.	.	.	.	.	.	.	.
8C#\J 8E 8G	16aa\	.	.	.	.	.	.	.	.	.	.	.	.	.	.	.
.	16ccc#\JJ	.	.	.	.	.	.	.	.	.	.	.	.	.	.	.
!LO:LB:g=original	!LO:LB:g=original	!	!LO:LB:g=original	!	!	!LO:LB:g=original	!	!	!LO:LB:g=original	!	!LO:LB:g=original	!	!	!LO:LB:g=original	!	!
=77	=77	=77	=77	=77	=77	=77	=77	=77	=77	=77	=77	=77	=77	=77	=77	=77
!	!LO:TX:a:t=†	!	!	!	!	!	!	!	!	!	!	!	!	!	!	!
8D\ 8F#	8ddd\	.	4r	.	.	4r	.	.	4r	.	4r	.	.	2ryy	.	.
*	*X8va	*	*	*	*	*	*	*	*	*	*	*	*	*	*	*
16D\LL 16F# 16A	16f#/LL 16a 16dd	f	.	.	.	.	.	.	.	.	.	.	.	.	.	.
16D\JJ 16F# 16A	16f#/JJ 16a 16dd	.	.	.	.	.	.	.	.	.	.	.	.	.	.	.
8D\ 8F# 8A	8f#/ 8a 8dd	.	8r	.	.	8r	.	.	8r	.	8r	.	.	.	.	.
!	!	!	!	!	!	!	!	!LO:DY:a	!	!	!	!	!LO:DY:a	!	!	!
8r	8r	.	16D\	.	.	16F#\	Z peł-	f	16A/	.	16d\	Z peł-	f	.	.	.
.	.	.	16D\	.	.	16F#\	-néj	.	16A/	.	16d\	-néj	.	.	.	.
=78	=78	=78	=78	=78	=78	=78	=78	=78	=78	=78	=78	=78	=78	=78	=78	=78
8r	8r	.	8D\	.	.	8F#\	cza-	.	8A/	.	8d\	cza-	.	2ryy	.	.
16D\LL 16F# 16A	16f#/LL 16a 16dd	.	8D\	.	.	8F#\	-ry	.	8A/	.	8d\	-ry	.	.	.	.
16D\JJ 16F# 16A	16f#/JJ 16a 16dd	.	.	.	.	.	.	.	.	.	.	.	.	.	.	.
8D\ 8F# 8A	8f#/ 8a 8dd	.	8r	.	.	8r	.	.	8r	.	8r	.	.	.	.	.
8r	8r	.	16D\	.	.	16A\	w do-	.	16d\	.	16f#\	w do-	.	.	.	.
.	.	.	16D\	.	.	16A\	-brém	.	16d\	.	16f#\	-brém	.	.	.	.
=79	=79	=79	=79	=79	=79	=79	=79	=79	=79	=79	=79	=79	=79	=79	=79	=79
8r	8r	.	8D\	.	.	8A\	wi-	.	8d\	.	8f#\	wi-	.	2ryy	.	.
16D\LL 16F# 16A	16a\LL 16dd 16ff#	.	8D\	.	.	8A\	-nie	.	8d\	.	8f#\	-nie	.	.	.	.
16D\JJ 16F# 16A	16a\JJ 16dd 16ff#	.	.	.	.	.	.	.	.	.	.	.	.	.	.	.
8D\ 8F# 8A	8a\ 8dd 8ff#	.	8r	.	.	8r	.	.	8r	.	8r	.	.	.	.	.
8r	8r	.	16D\	.	.	16A\	Niech	.	16d\	.	16f#\	Niech	.	.	.	.
.	.	.	16D\	.	.	16A\	nam	.	16d\	.	16f#\	nam	.	.	.	.
=80	=80	=80	=80	=80	=80	=80	=80	=80	=80	=80	=80	=80	=80	=80	=80	=80
8D\L 8F# 8A	8a\L 8dd 8ff#	ff	8D\	.	.	8A\	ros-	.	8d\	.	8f#\	ros-	.	2ryy	.	.
8D\ 8F# 8A	(16dd\L	.	8D\	.	.	8A\	-kosz	.	8d\	.	8f#\	-kosz	.	.	.	.
.	16ff#\JJ	.	.	.	.	.	.	.	.	.	.	.	.	.	.	.
8D\ 8F# 8A	8aa^<\L)	.	8D\	.	.	8A\	ży-	.	8d\	.	8f#\	ży-	.	.	.	.
8D\J 8F# 8A	(16ff#\L	.	8D\	.	.	8A\	-cia	.	8d\	.	8f#\	-cia	.	.	.	.
.	16aa\JJ	.	.	.	.	.	.	.	.	.	.	.	.	.	.	.
=81	=81	=81	=81	=81	=81	=81	=81	=81	=81	=81	=81	=81	=81	=81	=81	=81
8D\L 8F# 8A	8ddd\L)	.	8D\	.	.	8A\	pły-	.	8d\	.	8f#\	pły-	.	2ryy	.	.
8D\ 8F# 8A	(16aa\L	.	8D\	.	.	8A\	-nie	.	8d\	.	8f#\	-nie	.	.	.	.
.	16ddd\JJ	.	.	.	.	.	.	.	.	.	.	.	.	.	.	.
8D\ 8F# 8A	8fff#\L)	.	8D\	.	.	8A\	niech	.	8d\	.	8f#\	niech	.	.	.	.
8D\J 8F# 8A	(16ddd\L	.	8D\	.	.	8A\	nam	.	8d\	.	8f#\	nam	.	.	.	.
.	16fff#\JJ	.	.	.	.	.	.	.	.	.	.	.	.	.	.	.
!LO:LB:g=original	!LO:LB:g=original	!	!LO:LB:g=original	!	!	!LO:LB:g=original	!	!	!LO:LB:g=original	!	!LO:LB:g=original	!	!	!LO:LB:g=original	!	!
=82	=82	=82	=82	=82	=82	=82	=82	=82	=82	=82	=82	=82	=82	=82	=82	=82
!	!	!	!	!	!	!	!	!	!	!	!	!	!LO:DY:a	!	!	!
2AA/ 2D 2F#	8aaa\L)	ff	(2A\	.	.	(2A\	pły-	ff	(2d\	.	(2f#\	pły-	ff	2ryy	.	.
.	16a\L	<	.	.	.	.	.	.	.	.	.	.	.	.	.	.
.	16b\JJ	.	.	.	.	.	.	.	.	.	.	.	.	.	.	.
.	16cc#\LL	.	.	.	.	.	.	.	.	.	.	.	.	.	.	.
.	16dd\	.	.	.	.	.	.	.	.	.	.	.	.	.	.	.
.	16ee\	.	.	.	.	.	.	.	.	.	.	.	.	.	.	.
.	16ff#\JJ	[[	.	.	.	.	.	.	.	.	.	.	.	.	.	.
=83	=83	=83	=83	=83	=83	=83	=83	=83	=83	=83	=83	=83	=83	=83	=83	=83
4AA\ 4E 4G	16gg\LL	.	2AA/	.	.	2A\	.	.	2c#\	.	2e\	.	.	2ryy	.	.
.	16ff#\	.	.	.	.	.	.	.	.	.	.	.	.	.	.	.
.	16ee\	.	.	.	.	.	.	.	.	.	.	.	.	.	.	.
.	16ff#\JJ	.	.	.	.	.	.	.	.	.	.	.	.	.	.	.
4AA\ 4E 4G	16gg\LL	.	.	.	.	.	.	.	.	.	.	.	.	.	.	.
.	16aa\	.	.	.	.	.	.	.	.	.	.	.	.	.	.	.
.	16bb\	.	.	.	.	.	.	.	.	.	.	.	.	.	.	.
.	16ccc#\JJ	.	.	.	.	.	.	.	.	.	.	.	.	.	.	.
=84	=84	=84	=84	=84	=84	=84	=84	=84	=84	=84	=84	=84	=84	=84	=84	=84
*above	*above	*	*above	*	*	*above	*	*	*above	*	*above	*	*	*	*	*
*Xped	*Xped	*	*Xped	*	*	*Xped	*	*	*Xped	*	*Xped	*	*	*	*	*
4D\ 4F#	4ddd\	.	4D\)	.	.	4F#\)	-nie	.	4A/)	.	4d\)	-nie	.	2ryy	.	.
((4GG#X/ [4D 4E#X	8dd\L 8ddd	sf	4r	.	.	4r	.	.	4r	.	4r	.	.	.	.	.
.	(16ccc#\L	.	.	.	.	.	.	.	.	.	.	.	.	.	.	.
.	16bb\JJ	.	.	.	.	.	.	.	.	.	.	.	.	.	.	.
=85	=85	=85	=85	=85	=85	=85	=85	=85	=85	=85	=85	=85	=85	=85	=85	=85
4AA/)) 4D] 4F#	8aa\L)	.	2r	.	.	2r	.	.	2r	.	2r	.	.	2ryy	.	.
.	(16ff#\L	.	.	.	.	.	.	.	.	.	.	.	.	.	.	.
.	16dd\JJ	.	.	.	.	.	.	.	.	.	.	.	.	.	.	.
4AA\ 4E 4G	8ee\L)	.	.	.	.	.	.	.	.	.	.	.	.	.	.	.
.	(16a\L	.	.	.	.	.	.	.	.	.	.	.	.	.	.	.
.	16cc#\JJ	.	.	.	.	.	.	.	.	.	.	.	.	.	.	.
=86	=86	=86	=86	=86	=86	=86	=86	=86	=86	=86	=86	=86	=86	=86	=86	=86
4D\ 4F#	4dd\)	.	2r	.	.	2r	.	.	2r	.	2r	.	.	2ryy	.	.
((4GG#X/ [4D 4E#X	8dd\L 8ddd	sf	.	.	.	.	.	.	.	.	.	.	.	.	.	.
.	(16ccc#\L	.	.	.	.	.	.	.	.	.	.	.	.	.	.	.
.	16bb\JJ	.	.	.	.	.	.	.	.	.	.	.	.	.	.	.
=87	=87	=87	=87	=87	=87	=87	=87	=87	=87	=87	=87	=87	=87	=87	=87	=87
4AA/)) 4D] 4F#	8aa\L)	.	2r	.	.	2r	.	.	2r	.	2r	.	.	2ryy	.	.
.	(16ff#\L	.	.	.	.	.	.	.	.	.	.	.	.	.	.	.
.	16dd\JJ	.	.	.	.	.	.	.	.	.	.	.	.	.	.	.
4AA\ 4E 4G	8ee\L)	.	.	.	.	.	.	.	.	.	.	.	.	.	.	.
.	16cc#\L	.	.	.	.	.	.	.	.	.	.	.	.	.	.	.
.	16a\JJ	.	.	.	.	.	.	.	.	.	.	.	.	.	.	.
=88	=88	=88	=88	=88	=88	=88	=88	=88	=88	=88	=88	=88	=88	=88	=88	=88
4D\ 4F#	4dd\	.	2r	.	.	2r	.	.	2r	.	2r	.	.	2ryy	.	.
(16qqBB/LL	(16qqA/LL	.	.	.	.	.	.	.	.	.	.	.	.	.	.	.
16qqC#/	16qqB/	.	.	.	.	.	.	.	.	.	.	.	.	.	.	.
16qqD/JJ	16qqc#/JJ	.	.	.	.	.	.	.	.	.	.	.	.	.	.	.
4D\)	4d/)	.	.	.	.	.	.	.	.	.	.	.	.	.	.	.
=89	=89	=89	=89	=89	=89	=89	=89	=89	=89	=89	=89	=89	=89	=89	=89	=89
(16qqAA/LL	(16qqA/LL	.	.	.	.	.	.	.	.	.	.	.	.	.	.	.
16qqBB/	16qqB/	.	.	.	.	.	.	.	.	.	.	.	.	.	.	.
16qqC#/JJ	16qqc#/JJ	.	.	.	.	.	.	.	.	.	.	.	.	.	.	.
4D\)	4d/)	.	2r	.	.	2r	.	.	2r	.	2r	.	.	2ryy	.	.
4r	4r	.	.	.	.	.	.	.	.	.	.	.	.	.	.	.
!LO:LB:g=original	!LO:LB:g=original	!	!LO:LB:g=original	!	!	!LO:LB:g=original	!	!	!LO:LB:g=original	!	!LO:LB:g=original	!	!	!LO:LB:g=original	!	!
=90	=90	=90	=90	=90	=90	=90	=90	=90	=90	=90	=90	=90	=90	=90	=90	=90
!	!	!	!	!	!	!	!	!	!	!	!	!	!	!LO:TX:a:B:t=Poco più moderato.	!	!
!	!	!	!	!	!	!	!	!	!	!	!	!	!	!LO:TX:a:t=TENORE SOLO.	!	!
!	!LO:TX:a:B:t=Poco più moderato.	!	!	!	!	!	!	!	!	!	!	!	!	!LO:TX:a:B:t=Moderato	!	!
2r	2r	.	4.GG/	.	.	4.G\	A	.	4.B\	.	4.d\	A	.	4.d\	A	.
.	.	.	8GG/	.	.	8G\	gdy	.	8B\	.	8d\	gdy	.	8d\	gdy	.
=91	=91	=91	=91	=91	=91	=91	=91	=91	=91	=91	=91	=91	=91	=91	=91	=91
2r	2r	.	4.Cn/	.	.	4.G\	kie-	.	4.cn\	.	4.e\	kie-	.	4.e\	kie-	.
.	.	.	8GG/	.	.	8G\	-lich	.	8B\	.	8d\	-lich	.	8d\	-lich	.
=92	=92	=92	=92	=92	=92	=92	=92	=92	=92	=92	=92	=92	=92	=92	=92	=92
2r	2r	.	8Cn/L	.	.	4G\	chmu-	.	(8cn\L	.	(8e\L	chmu-	.	(8e\L	chmu-	.
.	.	.	8GG/J	.	.	.	.	.	8B\J)	.	8d\J)	.	.	8d\J)	.	.
.	.	.	8C/L	.	.	8G\L	-ry	.	4c\	.	(8e\L	-ry	.	(8e\L	-ry	.
.	.	.	8AA/J	.	.	8D\J	.	.	.	.	8f#\J)	.	.	8f#\J)	.	.
=93	=93	=93	=93	=93	=93	=93	=93	=93	=93	=93	=93	=93	=93	=93	=93	=93
2r	2r	.	4GG/	.	.	4D\	spło-	.	4B\	.	4g\	spło-	.	4g\	spło-	.
.	.	.	4GG/	.	.	4D\	-szy	.	4B\	.	4d\	-szy	.	4d\	-szy	.
=94	=94	=94	=94	=94	=94	=94	=94	=94	=94	=94	=94	=94	=94	=94	=94	=94
2r	2r	.	4.GG/	.	.	4.G\	pierś	.	4.B\	.	4.d\	pierś	.	4.d\	pierś	.
.	.	.	8GG/	.	.	8G\	roz-	.	8B\	.	8d\	roz-	.	8d\	roz-	.
=95	=95	=95	=95	=95	=95	=95	=95	=95	=95	=95	=95	=95	=95	=95	=95	=95
2r	2r	.	4.Cn/	.	.	4.G\	-ża-	.	4.cn\	.	4.e\	-ża-	.	4.e\	-ża-	.
.	.	.	8GG/	.	.	8G\	-rzy	.	8B\	.	8d\	-rzy	.	8d\	-rzy	.
=96	=96	=96	=96	=96	=96	=96	=96	=96	=96	=96	=96	=96	=96	=96	=96	=96
2r	2r	.	4AA/	.	.	4G\	skrze-	.	4A/	.	(8c#X\L	skrze-	.	(8c#X\L	skrze-	.
.	.	.	.	.	.	.	.	.	.	.	8B\J)	.	.	8B\J)	.	.
.	.	.	4AA/	.	.	4G\	-płą	.	4A/	.	(8A\L	-płą	.	(8A\L	-płą	.
.	.	.	.	.	.	.	.	.	.	.	8c#\J)	.	.	8c#\J)	.	.
=97	=97	=97	=97	=97	=97	=97	=97	=97	=97	=97	=97	=97	=97	=97	=97	=97
4r	4r	.	4D\	.	.	4F#\	w lód	.	4A/	.	4d\	w lód	.	4d\	w lód	.
4DD/ 4FF# 4AA 4D	4dd\ 4ff# 4aa 4ddd	sf	4r	.	.	4r	.	.	4r	.	4r	.	.	4r	.	.
!LO:LB:g=original	!LO:LB:g=original	!	!LO:LB:g=original	!	!LO:LB:g=original	!	!LO:LB:g=original	!LO:LB:g=original	!	!LO:LB:g=original	!	!	!	!LO:LB:g=original	!	!
=98	=98	=98	=98	=98	=98	=98	=98	=98	=98	=98	=98	=98	=98	=98	=98	=98
2r	2r	.	4.GG/	.	.	4.G\	Ah!	.	4.B\	.	4.d\	Ah!	.	4.d\	Ah!	.
.	.	.	8GG/	.	.	8G\	jest	.	8B\	.	8d\	jest	.	8d\	jest	.
=99	=99	=99	=99	=99	=99	=99	=99	=99	=99	=99	=99	=99	=99	=99	=99	=99
2r	2r	.	4.Cn/	.	.	4.G\	no-	.	4.cn\	.	4.e\	no-	.	4.e\	no-	.
.	.	.	8GG/	.	.	8G\	-wy	.	8B\	.	8d\	-wy	.	8d\	-wy	.
=100	=100	=100	=100	=100	=100	=100	=100	=100	=100	=100	=100	=100	=100	=100	=100	=100
!	!	!	!	!	!LO:DY:a	!	!	!	!	!	!	!	!	!	!	!LO:DY:a
2r	2r	.	4Cn/	.	<	4G\	świat	.	(8cn\L	.	(8e\L	świat	.	(8e\L	świat	<
.	.	.	.	.	.	.	.	.	8B\J)	.	8d\J)	.	.	8d\J)	.	.
.	.	.	8C/L	.	.	(8G\L	ros-	.	(8c\L	.	(8e\L	ros-	.	(8e\L	ros-	.
.	.	.	8BB/J	.	[[	8B\J)	.	.	8d#X\J)	.	8f#\J)	.	.	8f#\J)	.	[[
=101	=101	=101	=101	=101	=101	=101	=101	=101	=101	=101	=101	=101	=101	=101	=101	=101
!	!	!	!	!	!LO:DY:a	!	!	!	!	!	!	!	!	!	!	!LO:DY:a
2r	2r	.	4E\	.	>	4B\	-ko-	.	4e\	.	4g\	-ko-	.	4g\	-ko-	>
.	.	.	4E\	.	]]	4B\	-szy	.	4e\	.	4g\	-szy	.	4g\	-szy	]]
=102	=102	=102	=102	=102	=102	=102	=102	=102	=102	=102	=102	=102	=102	=102	=102	=102
!	!	!	!	!	!	!	!	!LO:DY:a	!	!	!	!	!	!	!	!
2r	2r	.	4C#X/	.	.	4G\	Cza-	p	4A#X/	.	4g\	Cza-	.	4g\	Cza-	.
.	.	.	4C#/	.	.	4G\	-ro-	.	4A#/	.	(8f#\L	-ro-	.	(8f#\L	-ro-	.
.	.	.	.	.	.	.	.	.	.	.	8e\J)	.	.	8e\J)	.	.
=103	=103	=103	=103	=103	=103	=103	=103	=103	=103	=103	=103	=103	=103	=103	=103	=103
2r	2r	.	4D\	.	.	4D\	-dziéj-	.	4B\	.	4d\	-dziéj-	.	4d\	-dziéj-	.
.	.	.	4D\	.	.	4D\	-skie	.	8An/L	.	8cn\L	-skie	.	8cn\L	-skie	.
.	.	.	.	.	.	.	.	.	8G/J	.	8B\J	.	.	8B\J	.	.
=104	=104	=104	=104	=104	=104	=104	=104	=104	=104	=104	=104	=104	=104	=104	=104	=104
2r	2r	.	4D\	.	.	4D\	pas-	.	4G/	.	4A/	pas-	.	4A/	pas-	.
.	.	.	4D\	.	.	4D\	-mo	.	4F#/	.	4d\	-mo	.	4d\	-mo	.
=105	=105	=105	=105	=105	=105	=105	=105	=105	=105	=105	=105	=105	=105	=105	=105	=105
2r	2r	.	4G\	.	.	4G\	złud	.	4G/	.	4G/	złud	.	4G/	złud	.
.	.	.	4r	.	.	4r	.	.	4r	.	4r	.	.	4r	.	.
!LO:PB:g=original	!LO:PB:g=original	!	!LO:PB:g=original	!	!	!LO:PB:g=original	!	!	!LO:PB:g=original	!	!LO:PB:g=original	!	!	!LO:PB:g=original	!	!
=106	=106	=106	=106	=106	=106	=106	=106	=106	=106	=106	=106	=106	=106	=106	=106	=106
!	!	!	!	!	!	!	!	!LO:DY:a	!	!	!	!	!	!LO:TX:a:t=SOLO.	!	!LO:DY:a
2r	2r	.	4.E\	.	.	4.G#X\	Wte-	<	4.d\	.	4.e\	Wte-	.	4.e\	Wte-	<
.	.	.	8E\	.	.	8G#\	-dy	[[	8d\	.	8e\	-dy	.	8e\	-dy	[[
=107	=107	=107	=107	=107	=107	=107	=107	=107	=107	=107	=107	=107	=107	=107	=107	=107
!	!	!	!	!	!	!	!	!LO:DY:a	!	!	!	!	!	!	!	!LO:DY:a
2r	2r	.	4AA/	.	.	4A\	ser-	>	4cn\	.	4e\	ser-	.	(4e\	ser-	>
.	.	.	4AA/	.	.	4Gn\	-ca	]]	4c\	.	4e-X\	-ca	.	4a\)	-ca	]]
=108	=108	=108	=108	=108	=108	=108	=108	=108	=108	=108	=108	=108	=108	=108	=108	=108
2r	2r	.	4.D\	.	.	4.F#\	niech	.	4.cn\	.	4.d\	niech	.	4.d\	niech	.
.	.	.	8D\	.	.	8F#\	o-	.	8c\	.	8d\	o-	.	8d\	o-	.
=109	=109	=109	=109	=109	=109	=109	=109	=109	=109	=109	=109	=109	=109	=109	=109	=109
2r	2r	.	4GG/	.	.	4G\	-mo-	.	4B\	.	4d\	-mo-	.	(4d\	-mo-	.
.	.	.	4GG/	.	.	4G\	-ta	.	4B\	.	4d\	-ta	.	4g\)	-ta	.
=110	=110	=110	=110	=110	=110	=110	=110	=110	=110	=110	=110	=110	=110	=110	=110	=110
2r	2r	.	4.GG^>/	.	.	4.Fn\	nić	.	4.B^\	.	4.g\	nić	.	4.g^\	nić	.
.	.	.	8GG/	.	.	8F\	mi-	.	8B\	.	8g\	mi-	.	8g\	mi-	.
=111	=111	=111	=111	=111	=111	=111	=111	=111	=111	=111	=111	=111	=111	=111	=111	=111
2r	2r	.	4.Cn/	.	.	4.E\	-ło-	.	4.cn\	.	4.g\	-ło-	.	4.g\	-ło-	.
.	.	.	8C/	.	.	8G\	-ści	.	8c\	.	8e\	-ści	.	8e\	-ści	.
=112	=112	=112	=112	=112	=112	=112	=112	=112	=112	=112	=112	=112	=112	=112	=112	=112
2r	2r	.	4D\	.	.	4G\	szcze-	.	(8B/L	.	(8d\L	szcze-	.	(8d\L	szcze-	.
.	.	.	.	.	.	.	.	.	8G/J)	.	8B\J)	.	.	8B\J)	.	.
.	.	.	4D\	.	.	4F#\	-ro-	.	(8A/L	.	(8cn\L	-ro-	.	(8cn\L	-ro-	.
.	.	.	.	.	.	.	.	.	8F#/J)	.	8A\J)	.	.	8A\J)	.	.
=113	=113	=113	=113	=113	=113	=113	=113	=113	=113	=113	=113	=113	=113	=113	=113	=113
2r	2r	.	4D\	.	.	4F#\	-zło-	.	4A/	.	4cn\	-zło-	.	4cn\	-zło-	.
.	.	.	8G\	.	.	8G\	-ta	.	8G/	.	8B\	-ta	.	8B\	-ta	.
.	.	.	8r	.	.	8r	.	.	8r	.	8r	.	.	8r	.	.
!LO:LB:g=original	!LO:LB:g=original	!	!LO:LB:g=original	!	!	!LO:LB:g=original	!	!	!LO:LB:g=original	!	!LO:LB:g=original	!	!	!LO:LB:g=original	!	!
=114	=114	=114	=114	=114	=114	=114	=114	=114	=114	=114	=114	=114	=114	=114	=114	=114
!	!LO:TX:a:t=Vno	!	!	!	!LO:DY:a	!	!	!	!	!LO:DY:a	!	!	!	!LO:TX:a:t=SOLO.	!	!LO:DY:a
4.E\ 4.G#X 4.d	16ee\LL	p	4.E\	.	<	4.G#X\	Wte-	.	4.d\	<	4.e\	Wte-	.	4.e\	Wte-	<
.	16ffn\	.	.	.	.	.	.	.	.	.	.	.	.	.	.	.
.	16ee\	.	.	.	.	.	.	.	.	.	.	.	.	.	.	.
.	16ff\JJ	.	.	.	.	.	.	.	.	.	.	.	.	.	.	.
.	16ee\LL	.	.	.	.	.	.	.	.	.	.	.	.	.	.	.
.	16ff\	.	.	.	.	.	.	.	.	.	.	.	.	.	.	.
8E\ 8G# 8d	16ee\	.	8E\	.	[[	8G#\	-dy	.	8d\	[[	8e\	-dy	.	8e\	-dy	[[
.	16ff\JJ	.	.	.	.	.	.	.	.	.	.	.	.	.	.	.
=115	=115	=115	=115	=115	=115	=115	=115	=115	=115	=115	=115	=115	=115	=115	=115	=115
!	!	!	!	!	!LO:DY:a	!	!	!	!	!LO:DY:a	!	!	!	!	!	!LO:DY:a
4A\ 4cn	8ee\L	.	4AA/	.	>	4A\	ser-	.	4cn\	>	4e\	ser-	.	(4e\	ser-	>
.	8aa\J	.	.	.	.	.	.	.	.	.	.	.	.	.	.	.
4AA\ 4A	4cccn\	.	4AA/	.	]]	4Gn\	-ca	.	4c\	]]	4e-X\	-ca	.	4a\)	-ca	]]
=116	=116	=116	=116	=116	=116	=116	=116	=116	=116	=116	=116	=116	=116	=116	=116	=116
4.D\ 4.F# 4.cn	16dd\LL	.	4.D\	.	.	4.F#\	niech	.	4.cn\	.	4.d\	niech	.	4.d\	niech	.
.	16ee\	.	.	.	.	.	.	.	.	.	.	.	.	.	.	.
.	16dd\	.	.	.	.	.	.	.	.	.	.	.	.	.	.	.
.	16ee\JJ	.	.	.	.	.	.	.	.	.	.	.	.	.	.	.
.	16dd\LL	.	.	.	.	.	.	.	.	.	.	.	.	.	.	.
.	16ee\	.	.	.	.	.	.	.	.	.	.	.	.	.	.	.
8D\ 8F# 8c	16dd\	.	8D\	.	.	8F#\	o-	.	8c\	.	8d\	o-	.	8d\	o-	.
.	16ee\JJ	.	.	.	.	.	.	.	.	.	.	.	.	.	.	.
=117	=117	=117	=117	=117	=117	=117	=117	=117	=117	=117	=117	=117	=117	=117	=117	=117
4G\ 4B	8dd\L	.	4.GG/	.	.	4G\	-mo-	.	4B\	.	4d\	-mo-	.	(4d\	-mo-	.
.	8gg\J	.	.	.	.	.	.	.	.	.	.	.	.	.	.	.
4GG/ 4G	4bb\	.	.	.	.	4G\	-ta	.	4B\	.	4d\	-ta	.	4g\)	-ta	.
.	.	.	8GG/	.	.	.	.	.	.	.	.	.	.	.	.	.
=118	=118	=118	=118	=118	=118	=118	=118	=118	=118	=118	=118	=118	=118	=118	=118	=118
4.GG/ 4.D 4.Fn	16gg\LL	.	4.GG/	.	.	4.Fn\	nić	.	4.B\	.	4.g\	nić	.	4.g\	Nić	.
.	16aa\	.	.	.	.	.	.	.	.	.	.	.	.	.	.	.
.	16gg\	.	.	.	.	.	.	.	.	.	.	.	.	.	.	.
.	16aa\JJ	.	.	.	.	.	.	.	.	.	.	.	.	.	.	.
.	16gg\LL	.	.	.	.	.	.	.	.	.	.	.	.	.	.	.
.	16aa\	.	.	.	.	.	.	.	.	.	.	.	.	.	.	.
8GG/ 8D 8F	16gg\	.	8GG/	.	.	8F\	mi-	.	8B\	.	8g\	mi-	.	8g\	mi-	.
.	16aa\JJ	.	.	.	.	.	.	.	.	.	.	.	.	.	.	.
=119	=119	=119	=119	=119	=119	=119	=119	=119	=119	=119	=119	=119	=119	=119	=119	=119
4.Cn\ 4.E	16gg\LL	.	4.Cn/	.	.	4.E\	-ło-	.	4.cn\	.	4.g\	-ło-	.	4.g\	-ło-	.
.	16aa\	.	.	.	.	.	.	.	.	.	.	.	.	.	.	.
.	16gg\	.	.	.	.	.	.	.	.	.	.	.	.	.	.	.
.	16ee\JJ	.	.	.	.	.	.	.	.	.	.	.	.	.	.	.
.	16gg\LL	.	.	.	.	.	.	.	.	.	.	.	.	.	.	.
.	16aa\	.	.	.	.	.	.	.	.	.	.	.	.	.	.	.
8C\ 8E 8G 8c#	16gg\	.	8C/	.	.	8G\	-ści	.	8c\	.	8e\	-ści	.	8e\	-ści	.
.	16ee\JJ	.	.	.	.	.	.	.	.	.	.	.	.	.	.	.
=120	=120	=120	=120	=120	=120	=120	=120	=120	=120	=120	=120	=120	=120	=120	=120	=120
8D\L 8G 8B	16dd\LL	.	8D\	.	.	8G\	szcze-	.	8B\	.	8d\	szcze-	.	8d\	szcze-	.
.	16ee\	.	.	.	.	.	.	.	.	.	.	.	.	.	.	.
8D\J 8G 8B	16dd\	.	8D\	.	.	8G\	-ro-	.	8G/	.	8B\	-ro-	.	8B\	-ro-	.
.	16b\JJ	.	.	.	.	.	.	.	.	.	.	.	.	.	.	.
8D\L 8F# 8cn	16ccn\LL	.	4D\	.	.	4D\	-zło-	.	8A/L	.	8cn\L	-zło-	.	(8cn\L	-zło-	.
.	16dd\	.	.	.	.	.	.	.	.	.	.	.	.	.	.	.
8D\J 8F# 8c	16cc\	.	.	.	.	.	.	.	8F#/J	.	8A\J	.	.	8A\J)	.	.
.	16a\JJ	.	.	.	.	.	.	.	.	.	.	.	.	.	.	.
=121	=121	=121	=121	=121	=121	=121	=121	=121	=121	=121	=121	=121	=121	=121	=121	=121
4G\ 4B	4g/	.	4GG/	.	.	4GG/	-ta	.	4G/	.	4G/	-ta	.	4G/	-ta	.
4r	4r	.	4r	.	.	4r	.	.	4r	.	4r	.	.	4r	.	.
!LO:LB:g=original	!LO:LB:g=original	!	!LO:LB:g=original	!	!	!LO:LB:g=original	!	!	!LO:LB:g=original	!	!LO:LB:g=original	!	!	!LO:LB:g=original	!	!
=122	=122	=122	=122	=122	=122	=122	=122	=122	=122	=122	=122	=122	=122	=122	=122	=122
!	!	!	!	!	!	!	!	!	!	!	!	!	!	!LO:TX:a:B:t=Vivace	!	!
!	!LO:TX:a:B:t=Tempo Io	!	!	!	!	!	!	!	!	!	!	!	!	!LO:TX:a:B:t=Tempo Io	!	!
4EE-X/ 4E-X	4e-X/ 4ee-X	f	4E-X\	.	.	4E-X\	Ach!	f	4e-X\	.	4e-X\	Ach!	f	2r	.	.
8DD/L 8D	8d/L 8dd	.	8D/L	.	.	8D/L	jest	.	8d\L	.	8d\L	jest	.	.	.	.
8CCn/J 8Cn	8cn/J 8ccn	.	8Cn/J	.	.	8Cn/J	.	.	8cn\J	.	8cn\J	.	.	.	.	.
=123	=123	=123	=123	=123	=123	=123	=123	=123	=123	=123	=123	=123	=123	=123	=123	=123
8.BBB-X/L 8.BB-X	8.B-X/L 8.b-X	.	8.BB-X/L	.	.	8.BB-X/L	no-	.	8.B-X\L	.	8.B-X\L	no-	.	2r	.	.
16CCn/Jk 16Cn	16cn/Jk 16ccn	.	16Cn/Jk	.	.	16Cn/Jk	.	.	16cn\Jk	.	16cn\Jk	.	.	.	.	.
4BBB-/ 4BB-	4B-/ 4b-	.	4BB-/	.	.	4BB-/	-wy	.	4B-\	.	4B-\	-wy	.	.	.	.
=124	=124	=124	=124	=124	=124	=124	=124	=124	=124	=124	=124	=124	=124	=124	=124	=124
!	!	!	!	!	!	!	!	!	!	!	!	!	!	!LO:TX:a:t=SOLO	!	!
!	!	!	!	!	!	!	!	!	!	!	!	!	!	!LO:TX:a:i:t=dolce	!	!
8BB-X\L	16ffn'\LL	p	2r	.	.	2r	.	.	2r	.	2r	.	.	4.fn\	Ah!	.
.	16gg'\	.	.	.	.	.	.	.	.	.	.	.	.	.	.	.
8Fn\J 8A-X	16ff'\	.	.	.	.	.	.	.	.	.	.	.	.	.	.	.
.	16gg'\JJ	.	.	.	.	.	.	.	.	.	.	.	.	.	.	.
8BB-\L	16ff'\LL	.	.	.	.	.	.	.	.	.	.	.	.	.	.	.
.	16dd'\	.	.	.	.	.	.	.	.	.	.	.	.	.	.	.
8F\J 8A-	16b-X'\	.	.	.	.	.	.	.	.	.	.	.	.	8B-X\	jest	.
.	16dd'\JJ	.	.	.	.	.	.	.	.	.	.	.	.	.	.	.
=125	=125	=125	=125	=125	=125	=125	=125	=125	=125	=125	=125	=125	=125	=125	=125	=125
8E-X\L 8G	8ee-X'\L	.	2r	.	.	2r	.	.	2r	.	2r	.	.	(8.B-X\L	no-	.
8E-\J 8G 8B-X	8gg'\J	.	.	.	.	.	.	.	.	.	.	.	.	.	.	.
.	.	.	.	.	.	.	.	.	.	.	.	.	.	16e-X\Jk)	.	.
4E-\ 4G 4B-	4bb-X'\	.	.	.	.	.	.	.	.	.	.	.	.	4e-\	-wy	.
=126	=126	=126	=126	=126	=126	=126	=126	=126	=126	=126	=126	=126	=126	=126	=126	=126
4EE-X/ 4E-X	4e-X/ 4ee-X	f	4E-X\	.	.	4E-X\	Świat	f	4e-X\	.	4e-X\	Świat	f	2r	.	.
8DD/L 8D	8d/L 8dd	.	(8D/L	.	.	(8D/L	ros-	.	(8d\L	.	(8d\L	ros-	.	.	.	.
8CCn/J 8Cn	8cn/J 8ccn	.	8Cn/J)	.	.	8Cn/J)	.	.	8cn\J)	.	8cn\J)	.	.	.	.	.
=127	=127	=127	=127	=127	=127	=127	=127	=127	=127	=127	=127	=127	=127	=127	=127	=127
8.BBB-X/L 8.BB-X	8.B-X/L 8.b-X	>	8.BB-X/L	.	.	8.BB-X/L	-ko-	.	8.B-X\L	.	8.B-X\L	-ko-	.	4B-X\	Świat	.
16CCn/Jk 16Cn	16cn/Jk 16ccn	.	16Cn/Jk	.	.	16Cn/Jk	.	.	16cn\Jk	.	16cn\Jk	.	.	.	.	.
4BBB-/ 4BB-	4B-/ 4b-	]]	4BB-/	.	.	4BB-/	-szy	.	4B-\	.	4B-\	-szy	.	4B-\	ros-	.
!LO:LB:g=original	!LO:LB:g=original	!	!LO:LB:g=original	!	!	!LO:LB:g=original	!	!	!LO:LB:g=original	!	!LO:LB:g=original	!	!	!LO:LB:g=original	!	!
=128	=128	=128	=128	=128	=128	=128	=128	=128	=128	=128	=128	=128	=128	=128	=128	=128
!	!	!	!	!	!LO:DY:a	!	!	!	!	!LO:DY:a	!	!	!LO:DY:a	!	!	!
8BB-X\L	16ffn'\LL	p	8D\	.	p	8D\	Ah!	.	8Fn/	p	8A-X/	Ah!	p	2B-X\	-ko-	.
.	16gg'\	.	.	.	.	.	.	.	.	.	.	.	.	.	.	.
8D\J 8Fn 8A-X	16ff'\	.	8r	.	.	8r	.	.	8r	.	8r	.	.	.	.	.
.	16gg'\JJ	.	.	.	.	.	.	.	.	.	.	.	.	.	.	.
8BB-\L	16ff'\LL	.	8D\	.	.	8D\	jest	.	8F/	.	8A-/	jest	.	.	.	.
.	16dd'\	.	.	.	.	.	.	.	.	.	.	.	.	.	.	.
8D\J 8F 8A-	16b-X'\	.	8r	.	.	8r	.	.	8r	.	8r	.	.	.	.	.
.	16dd'\JJ	.	.	.	.	.	.	.	.	.	.	.	.	.	.	.
=129	=129	=129	=129	=129	=129	=129	=129	=129	=129	=129	=129	=129	=129	=129	=129	=129
8E-X\L	8ee-X'\L	.	8E-X\	.	.	8E-X\	no-	.	8E-X/	.	8G/	no-	.	2B-X\	-szy	.
8G\J 8B-X	8gg'\J	.	8r	.	.	8r	.	.	8r	.	8r	.	.	.	.	.
8E-\L	8.bb-X\L	.	8E-\	.	.	8E-\	-wy	.	8E-/	.	8G/	-wy	.	.	.	.
8G\J 8B-	.	.	8r	.	.	8r	.	.	8r	.	8r	.	.	.	.	.
.	16gg\Jk	.	.	.	.	.	.	.	.	.	.	.	.	.	.	.
=130	=130	=130	=130	=130	=130	=130	=130	=130	=130	=130	=130	=130	=130	=130	=130	=130
8BB-X\L	16ffn'\LL	.	8BB-X/	.	.	8D\	świat	.	8Fn/	.	8A-X/	świat	.	4B-X\	cza-	.
.	16gg'\	.	.	.	.	.	.	.	.	.	.	.	.	.	.	.
8D\J 8Fn 8A-X	16ff'\	.	8r	.	.	8r	.	.	8r	.	8r	.	.	.	.	.
.	16gg'\JJ	.	.	.	.	.	.	.	.	.	.	.	.	.	.	.
8BB-\L	16ff'\LL	.	8BB-/	.	.	8D\	ros-	.	8F/	.	8A-/	ros-	.	4B-\	-ro-	.
.	16dd'\	.	.	.	.	.	.	.	.	.	.	.	.	.	.	.
8D\J 8F 8A-	16b-X'\	.	8r	.	.	8r	.	.	8r	.	8r	.	.	.	.	.
.	16dd'\JJ	.	.	.	.	.	.	.	.	.	.	.	.	.	.	.
=131	=131	=131	=131	=131	=131	=131	=131	=131	=131	=131	=131	=131	=131	=131	=131	=131
*	*	*	*	*	*	*	*	*	*	*	*	*	*	*	*	*below
4E-X\ 4G	4ee-X\	.	8E-X\	.	.	8E-X\	-ko-	.	8E-X/	.	8G/	-ko-	.	4B-X\	-dziéj-	<
.	.	.	8E-\	.	.	8E-\	-szy	.	8E-/	.	8G/	-szy	.	.	.	.
4r	4r	.	4r	.	.	4r	.	.	4r	.	4r	.	.	(8cn\L	-skie	.
.	.	.	.	.	.	.	.	.	.	.	.	.	.	8c#X\J)	.	[[
=132	=132	=132	=132	=132	=132	=132	=132	=132	=132	=132	=132	=132	=132	=132	=132	=132
8D\L	16aan'\LL	.	8D\	.	.	8F#X\	cza-	.	8An/	.	8cn\	cza-	.	[2d\	pa-	>]
.	16bbn'\	.	.	.	.	.	.	.	.	.	.	.	.	.	.	.
8F#X\J 8An 8cn	16aa'\	.	8r	.	.	8r	.	.	8r	.	8r	.	.	.	.	.
.	16bb'\JJ	.	.	.	.	.	.	.	.	.	.	.	.	.	.	.
8D\L	16aa'\LL	.	8D\	.	.	8F#\	-ro-	.	8A/	.	8c\	-ro-	.	.	.	.
.	16ff#X'\	.	.	.	.	.	.	.	.	.	.	.	.	.	.	.
8F#\J 8A 8c	16dd'\	.	8r	.	.	8r	.	.	8r	.	8r	.	.	.	.	.
.	16ff#'\JJ	.	.	.	.	.	.	.	.	.	.	.	.	.	.	.
=133	=133	=133	=133	=133	=133	=133	=133	=133	=133	=133	=133	=133	=133	=133	=133	=133
8G\L	8gg\L	.	8G\	.	.	8G\	-dziej-	.	8G/	.	8Bn\	-dziej-	.	2d\]	.	.
8B\J 8d	8bb\J	.	8r	.	.	8r	.	.	8r	.	8r	.	.	.	.	.
8G\L	8.ddd\L	.	8G\	.	.	8G\	-skie	.	8G/	.	8B\	-skie	.	.	.	.
8B\J 8d	.	.	8r	.	.	8r	.	.	8r	.	8r	.	.	.	.	.
.	16bb\Jk	.	.	.	.	.	.	.	.	.	.	.	.	.	.	.
!LO:PB:g=original	!LO:PB:g=original	!	!LO:PB:g=original	!	!	!LO:PB:g=original	!	!	!LO:PB:g=original	!	!LO:PB:g=original	!	!	!LO:PB:g=original	!	!
=134	=134	=134	=134	=134	=134	=134	=134	=134	=134	=134	=134	=134	=134	=134	=134	=134
!	!LO:TX:a:t=†	!	!	!	!	!	!	!	!	!	!	!	!	!	!	!
8D\L	16aa\LL	.	8D\	.	.	8F#\	pa-	.	8A/	.	8cn\	pa-	.	(2d\	-smo	.
.	16bb\	.	.	.	.	.	.	.	.	.	.	.	.	.	.	.
8F#\J 8A 8cn	16aa\	.	8r	.	.	8r	.	.	8r	.	8r	.	.	.	.	.
.	16bb\JJ	.	.	.	.	.	.	.	.	.	.	.	.	.	.	.
8D\L	16aa\LL	.	8D\	.	.	8F#\	-smo	.	8A/	.	8c\	-smo	.	.	.	.
.	16ff#\	.	.	.	.	.	.	.	.	.	.	.	.	.	.	.
8F#\J 8A 8c	16dd\	.	8r	.	.	8r	.	.	8r	.	8r	.	.	.	.	.
.	16ff#\JJ	.	.	.	.	.	.	.	.	.	.	.	.	.	.	.
=135	=135	=135	=135	=135	=135	=135	=135	=135	=135	=135	=135	=135	=135	=135	=135	=135
!	!LO:TX:a:t=†	!	!	!	!	!	!	!	!	!	!	!	!	!	!	!
8G\L 8B	8gg\L	.	4G\	.	.	4G\	złud	.	4F#/	.	4B\	złud	.	4G/)	złud	.
16G\L 16B	16d/L 16g	mf	.	.	.	.	.	.	.	.	.	.	.	.	.	.
16G\JJ 16B	16d/JJ 16g	.	.	.	.	.	.	.	.	.	.	.	.	.	.	.
8G\L 8B	8d\L 8g	.	4r	.	.	4r	.	.	4r	.	4r	.	.	4r	.	.
(8qF#/	(8qff#/	.	.	.	.	.	.	.	.	.	.	.	.	.	.	.
8G\J)	8gg\J)	.	.	.	.	.	.	.	.	.	.	.	.	.	.	.
=136	=136	=136	=136	=136	=136	=136	=136	=136	=136	=136	=136	=136	=136	=136	=136	=136
!	!LO:TX:a:t=†	!	!	!	!	!	!	!	!	!	!	!	!	!	!	!
8GG\L	8g/L	.	2r	.	.	2r	.	.	2r	.	2r	.	.	2r	.	.
16G\L 16B	16d/L 16g	.	.	.	.	.	.	.	.	.	.	.	.	.	.	.
16G\JJ 16B	16d/JJ 16g	.	.	.	.	.	.	.	.	.	.	.	.	.	.	.
8G\L 8B	8d\L 8g	.	.	.	.	.	.	.	.	.	.	.	.	.	.	.
(8qF#/	(8qff#/	.	.	.	.	.	.	.	.	.	.	.	.	.	.	.
8G\J)	8gg\J)	.	.	.	.	.	.	.	.	.	.	.	.	.	.	.
=137	=137	=137	=137	=137	=137	=137	=137	=137	=137	=137	=137	=137	=137	=137	=137	=137
!	!LO:TX:a:t=†	!	!	!	!	!	!	!	!	!	!	!	!	!	!	!
8GG\L	8g\L	.	2r	.	.	2r	.	.	2r	.	2r	.	.	2r	.	.
(8qF#/	(8qff#/	.	.	.	.	.	.	.	.	.	.	.	.	.	.	.
8G\)	8gg\)	.	.	.	.	.	.	.	.	.	.	.	.	.	.	.
!	!LO:TX:a:t=†	!	!	!	!	!	!	!	!	!	!	!	!	!	!	!
8GG\	8g\	.	.	.	.	.	.	.	.	.	.	.	.	.	.	.
(8qF#/	(8qff#/	.	.	.	.	.	.	.	.	.	.	.	.	.	.	.
8G\J)	8gg\J)	.	.	.	.	.	.	.	.	.	.	.	.	.	.	.
=138	=138	=138	=138	=138	=138	=138	=138	=138	=138	=138	=138	=138	=138	=138	=138	=138
4GG/	4g/	.	2r	.	.	2r	.	.	2r	.	2r	.	.	2r	.	.
((((4BB-X\ 4D 4Fn 4A-X	4bb-Xt\	sf	.	.	.	.	.	.	.	.	.	.	.	.	.	.
.	(16qqaa/LL	.	.	.	.	.	.	.	.	.	.	.	.	.	.	.
.	16qqbb-/JJ)	.	.	.	.	.	.	.	.	.	.	.	.	.	.	.
=139	=139	=139	=139	=139	=139	=139	=139	=139	=139	=139	=139	=139	=139	=139	=139	=139
4E-X\)))) 4G	4gg\ 4eee-X	.	4E-X\	.	.	4E-X\	Wte-	f	4e-X\	.	4e-X\	Wte-	f	2r	.	.
8DD/L 8D	8d/L 8dd	.	8D/L	.	.	8D/L	-dy	.	8d\L	.	8d\L	-dy	.	.	.	.
8CCn/J 8Cn	8cn/J 8ccn	.	8Cn/J	.	.	8Cn/J	.	.	8cn\J	.	8cn\J	.	.	.	.	.
=140	=140	=140	=140	=140	=140	=140	=140	=140	=140	=140	=140	=140	=140	=140	=140	=140
8.BBB-X/L 8.BB-X	8.B-X/L 8.b-X	.	8.BB-X/L	.	.	8.BB-X/L	ser-	.	8.B-X\L	.	8.B-X\L	ser-	.	2r	.	.
16CCn/Jk 16Cn	16cn/Jk 16ccn	.	16Cn/Jk	.	.	16C#/Jk	.	.	16cn\Jk	.	16cn\Jk	.	.	.	.	.
4BBB-/ 4BB-	4B-/ 4b-	.	4BB-/	.	.	4BB-/	-ca	.	4B-\	.	4B-\	-ca	.	.	.	.
=141	=141	=141	=141	=141	=141	=141	=141	=141	=141	=141	=141	=141	=141	=141	=141	=141
8BB-X\L	16ffn'\LL	p	2r	.	.	2r	.	.	2r	.	2r	.	.	(4.f#\	Wte-	.
.	16gg'\	.	.	.	.	.	.	.	.	.	.	.	.	.	.	.
8D\J 8Fn 8A-X	16ff'\	.	.	.	.	.	.	.	.	.	.	.	.	.	.	.
.	16gg'\JJ	.	.	.	.	.	.	.	.	.	.	.	.	.	.	.
8BB-\L	16ff'\LL	.	.	.	.	.	.	.	.	.	.	.	.	.	.	.
.	16dd'\	.	.	.	.	.	.	.	.	.	.	.	.	.	.	.
8D\J 8F 8A-	16b-X'\	.	.	.	.	.	.	.	.	.	.	.	.	8B-X\)	-dy	.
.	16dd'\JJ	.	.	.	.	.	.	.	.	.	.	.	.	.	.	.
!LO:LB:g=original	!LO:LB:g=original	!	!LO:LB:g=original	!	!	!LO:LB:g=original	!	!	!LO:LB:g=original	!	!LO:LB:g=original	!	!	!LO:LB:g=original	!	!
=142	=142	=142	=142	=142	=142	=142	=142	=142	=142	=142	=142	=142	=142	=142	=142	=142
8E-X\L 8G	8ee-X'\L	.	2r	.	.	2r	.	.	2r	.	2r	.	.	(8B-X\L	ser-	.
8E-\J 8G 8B-X	8gg'\J	.	.	.	.	.	.	.	.	.	.	.	.	8e-X\J)	.	.
4E-\ 4G 4B-	4bb-X'\	.	.	.	.	.	.	.	.	.	.	.	.	4e-\	-ca	.
=143	=143	=143	=143	=143	=143	=143	=143	=143	=143	=143	=143	=143	=143	=143	=143	=143
4EE-X/ 4E-X	4e-X/ 4ee-X	f	4E-X\	.	.	4E-X\	niech	f	4e-X\	.	4e-X\	niech	f	2r	.	.
8DD/L 8D	8d/L 8dd	.	8D/L	.	.	8D/L	o-	.	8d\L	.	8d\L	o-	.	.	.	.
8CCn/J 8Cn	8cn/J 8ccn	.	8Cn/J	.	.	8Cn/J	.	.	8cn\J	.	8cn\J	.	.	.	.	.
=144	=144	=144	=144	=144	=144	=144	=144	=144	=144	=144	=144	=144	=144	=144	=144	=144
8.BBB-X/L 8.BB-X	8.B-X/L 8.b-X	.	8.BB-X/L	.	.	8.BB-X/L	-mo-	.	8.B-X\L	.	8.B-X\L	-mo-	.	2r	.	.
16CCn/Jk 16Cn	16cn/Jk 16ccn	.	16Cn/Jk	.	.	16Cn/Jk	.	.	16cn\Jk	.	16cn\Jk	.	.	.	.	.
4BBB-/ 4BB-	4B-/ 4b-	.	4BB-/	.	.	4BB-/	-ta	.	4B-\	.	4B-\	-ta	.	.	.	.
=145	=145	=145	=145	=145	=145	=145	=145	=145	=145	=145	=145	=145	=145	=145	=145	=145
!	!LO:TX:a:t=†	!	!	!	!	!	!	!	!	!	!	!	!	!	!	!
8BB-X\L	16ffn\LL	p	8BB-X/	.	.	8D\	nić	p	8Fn/	.	8A-X/	nić	p	2B-X\	Niech	p
.	16gg\	.	.	.	.	.	.	.	.	.	.	.	.	.	.	.
8D\J 8Fn 8A-X	16ff\	.	8r	.	.	8r	.	.	8r	.	8r	.	.	.	.	.
.	16gg\JJ	.	.	.	.	.	.	.	.	.	.	.	.	.	.	.
!	!LO:TX:a:t=†	!	!	!	!	!	!	!	!	!	!	!	!	!	!	!
8BB-\L	16ff\LL	.	8BB-/	.	.	8D\	mi-	.	8F/	.	8A-/	mi-	.	.	.	.
.	16dd\	.	.	.	.	.	.	.	.	.	.	.	.	.	.	.
8D\J 8F 8A-	16b-X\	.	8r	.	.	8r	.	.	8r	.	8r	.	.	.	.	.
.	16dd\JJ	.	.	.	.	.	.	.	.	.	.	.	.	.	.	.
=146	=146	=146	=146	=146	=146	=146	=146	=146	=146	=146	=146	=146	=146	=146	=146	=146
!	!LO:TX:a:t=†	!	!	!	!	!	!	!	!	!	!	!	!	!	!	!
8E-X\L	8ee-X\L	.	8E-X\	.	.	8E-X\	-ło-	.	8E-X/	.	8G/	-ło-	.	2B-X\	o-	.
8G\J 8B-X	8gg\J	.	8r	.	.	8r	.	.	8r	.	8r	.	.	.	.	.
!	!LO:TX:a:t=†	!	!	!	!	!	!	!	!	!	!	!	!	!	!	!
8E-\L	8.bb-X\L	.	8E-\	.	.	8E-\	-ści	.	8E-/	.	8G/	-ści	.	.	.	.
8G\J 8B-	.	.	8r	.	.	8r	.	.	8r	.	8r	.	.	.	.	.
.	16gg\Jk	.	.	.	.	.	.	.	.	.	.	.	.	.	.	.
=147	=147	=147	=147	=147	=147	=147	=147	=147	=147	=147	=147	=147	=147	=147	=147	=147
!	!LO:TX:a:t=†	!	!	!	!	!	!	!	!	!	!	!	!	!	!	!
8BB-X\L	16ffn\LL	.	8BB-X/	.	.	8D\	szcze-	.	8Fn/	.	8A-X/	szcze-	.	4B-X\	-mo-	.
.	16gg\	.	.	.	.	.	.	.	.	.	.	.	.	.	.	.
8D\J 8Fn 8A-X	16ff\	.	8r	.	.	8r	.	.	8r	.	8r	.	.	.	.	.
.	16gg\JJ	.	.	.	.	.	.	.	.	.	.	.	.	.	.	.
!	!LO:TX:a:t=†	!	!	!	!	!	!	!	!	!	!	!	!	!	!	!
8BB-\L	16ff\LL	.	8BB-/	.	.	8D\	-ro-	.	8F/	.	8A-/	-ro-	.	4B-\	-ta	.
.	16dd\	.	.	.	.	.	.	.	.	.	.	.	.	.	.	.
8D\J 8F 8A-	16b-X\	.	8r	.	.	8r	.	.	8r	.	8r	.	.	.	.	.
.	16dd\JJ	.	.	.	.	.	.	.	.	.	.	.	.	.	.	.
=148	=148	=148	=148	=148	=148	=148	=148	=148	=148	=148	=148	=148	=148	=148	=148	=148
!	!LO:TX:a:t=†	!	!	!	!	!	!	!	!	!	!	!	!	!	!	!
*	*	*	*	*	*	*	*	*	*	*	*	*	*	*	*	*above
4E-X\ 4G	4ee-X\	.	8E-X\	.	.	8E-X\	-zło-	.	8E-X/	.	8G/	-zło-	.	4B-X\	nić	<
.	.	.	8E-\	.	.	8E-\	-ta	.	8E-/	.	8G/	-ta	.	.	.	.
4r	4r	.	4r	.	.	4r	.	.	4r	.	4r	.	.	8c#\L	mi-	.
.	.	.	.	.	.	.	.	.	.	.	.	.	.	8c#X\J	.	[[
!LO:LB:g=original	!LO:LB:g=original	!	!LO:LB:g=original	!	!	!LO:LB:g=original	!	!	!LO:LB:g=original	!	!LO:LB:g=original	!	!	!LO:LB:g=original	!	!
=149	=149	=149	=149	=149	=149	=149	=149	=149	=149	=149	=149	=149	=149	=149	=149	=149
!	!LO:TX:a:t=†	!	!	!	!	!	!	!	!	!	!	!	!	!	!	!LO:DY:a
8D\L	16aan\LL	.	8D\	.	.	8F#\	Nić	.	8An/	.	8cn\	Nić	.	2d\	-ło-	>]
.	16bbn\	.	.	.	.	.	.	.	.	.	.	.	.	.	.	.
8F#X\J 8A 8cn	16aa\	.	8r	.	.	8r	.	.	8r	.	8r	.	.	.	.	.
.	16bb\JJ	.	.	.	.	.	.	.	.	.	.	.	.	.	.	.
!	!LO:TX:a:t=†	!	!	!	!	!	!	!	!	!	!	!	!	!	!	!
8D\L	16aa\LL	.	8D\	.	.	8F#\	mi-	.	8A/	.	8c\	mi-	.	.	.	.
.	16ff#X\	.	.	.	.	.	.	.	.	.	.	.	.	.	.	.
8F#X\J 8A 8c	16dd\	.	8r	.	.	8r	.	.	8r	.	8r	.	.	.	.	.
.	16ff#\JJ	.	.	.	.	.	.	.	.	.	.	.	.	.	.	.
=150	=150	=150	=150	=150	=150	=150	=150	=150	=150	=150	=150	=150	=150	=150	=150	=150
!	!LO:TX:a:t=†	!	!	!	!	!	!	!	!	!	!	!	!	!	!	!
8G\L	8gg\L	.	8G\	.	.	8G\	-ło-	.	8G/	.	8B\	-ło-	.	2d\	-ści	.
8B\J 8d	8bb\J	.	8r	.	.	8r	.	.	8r	.	8r	.	.	.	.	.
!	!LO:TX:a:t=†	!	!	!	!	!	!	!	!	!	!	!	!	!	!	!
8G\L	8.ddd\L	.	8G\	.	.	8G\	-ści	.	8G/	.	8B\	-ści	.	.	.	.
8B\J 8d	.	.	8r	.	.	8r	.	.	8r	.	8r	.	.	.	.	.
.	16bb\Jk	.	.	.	.	.	.	.	.	.	.	.	.	.	.	.
=151	=151	=151	=151	=151	=151	=151	=151	=151	=151	=151	=151	=151	=151	=151	=151	=151
!	!LO:TX:a:t=†	!	!	!	!	!	!	!	!	!	!	!	!	!	!	!
8D\L	16aa\LL	.	8D\	.	.	8F#\	szcze-	.	8A/	.	8cn\	szcze-	.	2d\	szcze-	.
.	16bb\	.	.	.	.	.	.	.	.	.	.	.	.	.	.	.
8F#\J 8A 8cn	16aa\	.	8D\	.	.	8F#\	-ro-	.	8A/	.	8c\	-ro-	.	.	.	.
.	16bb\JJ	.	.	.	.	.	.	.	.	.	.	.	.	.	.	.
!	!LO:TX:a:t=†	!	!	!	!	!	!	!	!	!	!	!	!	!	!	!
8D\L	16aa\LL	.	4D\	.	.	4F#\	-zło-	.	4A/	.	4c\	-zło-	.	.	.	.
.	16ff#\	.	.	.	.	.	.	.	.	.	.	.	.	.	.	.
8F#\J 8A 8c	16dd\	.	.	.	.	.	.	.	.	.	.	.	.	.	.	.
.	16ff#\JJ	.	.	.	.	.	.	.	.	.	.	.	.	.	.	.
=152	=152	=152	=152	=152	=152	=152	=152	=152	=152	=152	=152	=152	=152	=152	=152	=152
!	!LO:TX:a:t=†	!	!	!	!	!	!	!	!	!	!	!	!	!	!	!
8G\L	4gg\	.	4G\	.	.	4G\	-ta	.	4G/	.	4B\	-ta	.	2d\	-ro-	.
8B\J 8d	.	.	.	.	.	.	.	.	.	.	.	.	.	.	.	.
8G\L	4r	.	4r	.	.	4r	.	.	4r	.	4r	.	.	.	.	.
8B\J 8d	.	.	.	.	.	.	.	.	.	.	.	.	.	.	.	.
=153	=153	=153	=153	=153	=153	=153	=153	=153	=153	=153	=153	=153	=153	=153	=153	=153
*	*8va	*	*	*	*	*	*	*	*	*	*	*	*	*	*	*
!	!LO:TX:a:t=†	!	!	!	!	!	!	!	!	!	!	!	!	!	!	!
8D\L	16aaa\LL	.	8D\	.	.	8F#\	Nić	.	8A/	.	8cn\	Nić	.	2d\	-zło-	.
.	16bbb\	.	.	.	.	.	.	.	.	.	.	.	.	.	.	.
8F#\J 8A 8cn	16aaa\	.	8r	.	.	8r	.	.	8r	.	8r	.	.	.	.	.
.	16bbb\JJ	.	.	.	.	.	.	.	.	.	.	.	.	.	.	.
!	!LO:TX:a:t=†	!	!	!	!	!	!	!	!	!	!	!	!	!	!	!
8D\L	16aaa\LL	.	8D\	.	.	8F#\	mi-	.	8A/	.	8c\	mi-	.	.	.	.
.	16fff#\	.	.	.	.	.	.	.	.	.	.	.	.	.	.	.
8F#\J 8A 8c	16ddd\	.	8r	.	.	8r	.	.	8r	.	8r	.	.	.	.	.
.	16fff#\JJ	.	.	.	.	.	.	.	.	.	.	.	.	.	.	.
=154	=154	=154	=154	=154	=154	=154	=154	=154	=154	=154	=154	=154	=154	=154	=154	=154
!	!LO:TX:a:t=†	!	!	!	!	!	!	!	!	!	!	!	!	!	!	!
8G\L	8ggg\L	.	8G\	.	.	8G\	-ło-	.	8G/	.	8B\	-ło-	.	2d\	-ta	.
8B\J 8d	8bbb\J	.	8r	.	.	8r	.	.	8r	.	8r	.	.	.	.	.
!	!LO:TX:a:t=†	!	!	!	!	!	!	!	!	!	!	!	!	!	!	!
8G\L	8.ffff#\L	.	8G\	.	.	8G\	-ści	.	8G/	.	8B\	-ści	.	.	.	.
8B\J 8d	.	.	8r	.	.	8r	.	.	8r	.	8r	.	.	.	.	.
.	16bbb\Jk	.	.	.	.	.	.	.	.	.	.	.	.	.	.	.
.	.	.	.	.	.	.	.	.	.	.	.	.	.	8qe/	.	.
=155	=155	=155	=155	=155	=155	=155	=155	=155	=155	=155	=155	=155	=155	=155	=155	=155
!	!LO:TX:a:t=†	!	!	!	!	!	!	!	!	!	!	!	!	!	!	!
8D\L	16aaa\LL	.	8D\	.	.	8F#\	szcze-	.	8A/	.	8cn\	szcze-	.	8d\	szcze-	.
.	16bbb\	.	.	.	.	.	.	.	.	.	.	.	.	.	.	.
8F#\J 8A 8cn	16aaa\	.	8D\	.	.	8F#\	-ro-	.	8A/	.	8c\	-ro-	.	8d\	-ro-	.
.	16bbb\JJ	.	.	.	.	.	.	.	.	.	.	.	.	.	.	.
!	!LO:TX:a:t=†	!	!	!	!	!	!	!	!	!	!	!	!	!	!	!
8D\L	16aaa\LL	.	4D\	.	.	4F#\	-zło-	.	4A/	.	4c\	-zło-	.	(8cn\L	-zło-	.
.	16fff#\	.	.	.	.	.	.	.	.	.	.	.	.	.	.	.
8F#\J 8A 8c	16ddd\	.	.	.	.	.	.	.	.	.	.	.	.	8A\J)	.	.
.	16fff#\JJ	.	.	.	.	.	.	.	.	.	.	.	.	.	.	.
=156	=156	=156	=156	=156	=156	=156	=156	=156	=156	=156	=156	=156	=156	=156	=156	=156
!	!LO:TX:a:t=†	!	!	!	!	!	!	!	!	!	!	!	!	!	!	!
4G\ 4B	4ggg\	.	4GG/	.	.	4G\	-ta	.	4G/	.	4B\	-ta	.	4G/	-ta	.
*	*X8va	*	*	*	*	*	*	*	*	*	*	*	*	*	*	*
!	!	!	!	!	!	!	!	!	!	!	!	!	!	!LO:TX:t=P:problem:Znaki Segno nad podwójnymi kreskami taktowymi	!	!
4r	4r	.	8r	.	.	8r	.	.	8r	.	8r	.	.	4r	.	.
!	!	!	!	!	!	!	!	!	!	!	!	!	!LO:DY:a	!	!	!
.	.	.	16D\	.	.	16D\	Da-	f	16F#/	.	16A/	Da-	f	.	.	.
.	.	.	16D\	.	.	16D\	-léj	.	16F#/	.	16A/	-léj	.	.	.	.
!LO:LB:g=original	!LO:LB:g=original	!	!LO:LB:g=original	!	!	!LO:LB:g=original	!	!	!LO:LB:g=original	!	!LO:LB:g=original	!	!	!LO:LB:g=original	!	!
=157||	=157||	=157||	=157||	=157||	=157||	=157||	=157||	=157||	=157||	=157||	=157||	=157||	=157||	=157||	=157||	=157||
!	!	!	!	!	!	!	!	!	!	!	!	!	!	!LO:TX:a:t=D`al Segno  al Segno * e poi Segue	!	!
!	!LO:TX:a:B:t=Più vivace	!	!	!	!	!	!	!	!	!	!LO:TX:a:B:t=Più vivace	!	!	!LO:TX:a:B:t=Vivace	!	!
4D\ 4F#	4ddd\	ff	4D\	.	.	4F#\	nie	.	4A/	.	4d\	nie	.	2r	.	.
4BB\ 4D#X 4F# 4B	4b\ 4dd#X 4ff# 4bb	sf	8BB/	.	.	8B\	z peł-	.	8d#X\	.	8f#\	z peł-	.	.	.	.
.	.	.	8BB/	.	.	8B\	-néj	.	8d#\	.	8f#\	-néj	.	.	.	.
=158	=158	=158	=158	=158	=158	=158	=158	=158	=158	=158	=158	=158	=158	=158	=158	=158
4E\ 4G 4B	4b\ 4ee 4gg	sf	4E\	.	.	4B\	cza-	.	4e\	.	4g\	cza-	.	2r	.	.
4AA\ 4C# 4E 4A	4a\ 4cc# 4ee 4aa	sf	4AA/	.	.	4A\	-ry	.	4c#\	.	4e\	-ry	.	.	.	.
=159	=159	=159	=159	=159	=159	=159	=159	=159	=159	=159	=159	=159	=159	=159	=159	=159
4D\ 4F# 4A	4a\ 4dd 4ff#	.	4D\	.	.	4A\	w do-	.	4d\	.	4f#\	w do-	.	2r	.	.
4BB\ 4D#X 4F# 4B	4b\ 4dd#X 4ff# 4bb	.	4BB/	.	.	4B\	-brém	.	4d#X\	.	4f#\	-brém	.	.	.	.
=160	=160	=160	=160	=160	=160	=160	=160	=160	=160	=160	=160	=160	=160	=160	=160	=160
4E\ 4G 4B	4b\ 4ee 4gg	.	4E\	.	.	4B\	wi-	.	4e\	.	4g\	wi-	.	2r	.	.
4AA\ 4C# 4E 4A	4a\ 4cc# 4ee 4aa	.	4AA/	.	.	4A\	-nie	.	4c#\	.	4e\	-nie	.	.	.	.
=161	=161	=161	=161	=161	=161	=161	=161	=161	=161	=161	=161	=161	=161	=161	=161	=161
4D\ 4F# 4A	8a\L 8cc# 8ff#	.	4D\	.	.	4A\	Niech	.	4d\	.	4f#\	Niech	.	2r	.	.
.	(32d\LL	.	.	.	.	.	.	.	.	.	.	.	.	.	.	.
.	32e\	.	.	.	.	.	.	.	.	.	.	.	.	.	.	.
.	32f#\	.	.	.	.	.	.	.	.	.	.	.	.	.	.	.
.	32g\JJJ	.	.	.	.	.	.	.	.	.	.	.	.	.	.	.
4AA\ 4C# 4E 4A	8a\L)	.	4AA/	.	.	4A\	nam	.	4c#\	.	4e\	nam	.	.	.	.
.	32r	.	.	.	.	.	.	.	.	.	.	.	.	.	.	.
.	(32a\LL	.	.	.	.	.	.	.	.	.	.	.	.	.	.	.
.	32b\	.	.	.	.	.	.	.	.	.	.	.	.	.	.	.
.	32cc#\JJJ	.	.	.	.	.	.	.	.	.	.	.	.	.	.	.
=162	=162	=162	=162	=162	=162	=162	=162	=162	=162	=162	=162	=162	=162	=162	=162	=162
4D\ 4F# 4A	8dd\L)	.	4D\	.	.	4A\	ros-	.	4d\	.	4f#\	ros-	.	2r	.	.
.	(32dd\LL	.	.	.	.	.	.	.	.	.	.	.	.	.	.	.
.	32ee\	.	.	.	.	.	.	.	.	.	.	.	.	.	.	.
.	32ff#\	.	.	.	.	.	.	.	.	.	.	.	.	.	.	.
.	32gg\JJJ	.	.	.	.	.	.	.	.	.	.	.	.	.	.	.
4AA\ 4C# 4E 4A	8aa\L)	.	4AA/	.	.	4A\	-kosz	.	4c#\	.	4e\	-kosz	.	.	.	.
.	32r	.	.	.	.	.	.	.	.	.	.	.	.	.	.	.
.	(32aa\LL	.	.	.	.	.	.	.	.	.	.	.	.	.	.	.
.	32bb\	.	.	.	.	.	.	.	.	.	.	.	.	.	.	.
.	32ccc#\JJJ	.	.	.	.	.	.	.	.	.	.	.	.	.	.	.
=163	=163	=163	=163	=163	=163	=163	=163	=163	=163	=163	=163	=163	=163	=163	=163	=163
4D\ 4F# 4A	8ddd\L)	.	4D\	.	.	4A\	ży-	.	4d\	.	4f#\	ży-	.	2r	.	.
.	(32d\LL	.	.	.	.	.	.	.	.	.	.	.	.	.	.	.
.	32e\	.	.	.	.	.	.	.	.	.	.	.	.	.	.	.
.	32f#\	.	.	.	.	.	.	.	.	.	.	.	.	.	.	.
.	32g\JJJ	.	.	.	.	.	.	.	.	.	.	.	.	.	.	.
4AA\ 4C# 4E 4A	8a\L)	.	4AA/	.	.	4A\	-cia	.	4c#\	.	4e\	-cia	.	.	.	.
.	32r	.	.	.	.	.	.	.	.	.	.	.	.	.	.	.
.	(32a\LL	.	.	.	.	.	.	.	.	.	.	.	.	.	.	.
.	32b\	.	.	.	.	.	.	.	.	.	.	.	.	.	.	.
.	32cc#\JJJ	.	.	.	.	.	.	.	.	.	.	.	.	.	.	.
!LO:PB:g=original	!LO:PB:g=original	!	!	!LO:PB:g=original	!	!	!LO:PB:g=original	!	!	!LO:PB:g=original	!	!LO:PB:g=original	!	!LO:PB:g=original	!	!
=164	=164	=164	=164	=164	=164	=164	=164	=164	=164	=164	=164	=164	=164	=164	=164	=164
4D\ 4F# 4A	8dd\L)	.	4D\	.	.	4A\	pły-	.	4d\	.	4f#\	pły-	.	2r	.	.
.	(32dd\LL	.	.	.	.	.	.	.	.	.	.	.	.	.	.	.
.	32ee\	.	.	.	.	.	.	.	.	.	.	.	.	.	.	.
.	32ff#\	.	.	.	.	.	.	.	.	.	.	.	.	.	.	.
.	32gg\JJJ	.	.	.	.	.	.	.	.	.	.	.	.	.	.	.
4AA\ 4C# 4E 4A	8aa\L)	.	4AA/	.	.	4A\	-nie	.	4c#\	.	4e\	-nie	.	.	.	.
.	32r	.	.	.	.	.	.	.	.	.	.	.	.	.	.	.
.	(32aa\LL	.	.	.	.	.	.	.	.	.	.	.	.	.	.	.
.	32bb\	.	.	.	.	.	.	.	.	.	.	.	.	.	.	.
.	32ccc#\JJJ	.	.	.	.	.	.	.	.	.	.	.	.	.	.	.
=165	=165	=165	=165	=165	=165	=165	=165	=165	=165	=165	=165	=165	=165	=165	=165	=165
4D\ 4F# 4A	4ddd\)	ff	[2D\	.	.	[2A\	pły-	.	[2d\	.	[2f#\	pły-	.	2r	.	.
!LO:TX:a:t=MONBAR,D.ALONZO,D.MARJA,D.ŻUAN,PEREZ i ROZALIA	!	!	!	!	!	!	!	!	!	!	!	!	!	!	!	!
[4DD/ [4FF# [4AA [4D	4r	.	.	.	.	.	.	.	.	.	.	.	.	.	.	.
=166	=166	=166	=166	=166	=166	=166	=166	=166	=166	=166	=166	=166	=166	=166	=166	=166
2DD/_ 2FF#_ 2AA_ 2D_	16ddd\LL	.	2D\_	.	.	2A\_	.	.	2d\_	.	2f#\_	.	.	2r	.	.
.	16eee\	.	.	.	.	.	.	.	.	.	.	.	.	.	.	.
.	16ddd\	.	.	.	.	.	.	.	.	.	.	.	.	.	.	.
.	16eee\JJ	.	.	.	.	.	.	.	.	.	.	.	.	.	.	.
.	16ddd\LL	.	.	.	.	.	.	.	.	.	.	.	.	.	.	.
!	!LO:TX:b:t=wchodzą	!	!	!	!	!	!	!	!	!	!	!	!	!	!	!
.	16aa\	.	.	.	.	.	.	.	.	.	.	.	.	.	.	.
.	16ff#\	.	.	.	.	.	.	.	.	.	.	.	.	.	.	.
.	16aa\JJ	.	.	.	.	.	.	.	.	.	.	.	.	.	.	.
=167	=167	=167	=167	=167	=167	=167	=167	=167	=167	=167	=167	=167	=167	=167	=167	=167
4DD/] 4FF#] 4AA] 4D]	4dd\	.	2D\_	.	.	2A\_	.	.	2d\_	.	2f#\_	.	.	2r	.	.
[4DD/ [4FF# [4AA [4D	4r	.	.	.	.	.	.	.	.	.	.	.	.	.	.	.
=168	=168	=168	=168	=168	=168	=168	=168	=168	=168	=168	=168	=168	=168	=168	=168	=168
2DD/_ 2FF#_ 2AA_ 2D_	16aa\LL	.	2D\]	.	.	2A\]	.	.	2d\]	.	2f#\]	.	.	2r	.	.
.	16bb\	.	.	.	.	.	.	.	.	.	.	.	.	.	.	.
.	16aa\	.	.	.	.	.	.	.	.	.	.	.	.	.	.	.
.	16bb\JJ	.	.	.	.	.	.	.	.	.	.	.	.	.	.	.
.	16aa\LL	.	.	.	.	.	.	.	.	.	.	.	.	.	.	.
.	16ff#\	.	.	.	.	.	.	.	.	.	.	.	.	.	.	.
.	16dd\	.	.	.	.	.	.	.	.	.	.	.	.	.	.	.
.	16ff#\JJ	.	.	.	.	.	.	.	.	.	.	.	.	.	.	.
=169	=169	=169	=169	=169	=169	=169	=169	=169	=169	=169	=169	=169	=169	=169	=169	=169
4DD/] 4FF#] 4AA] 4D]	4a/	.	4D\	.	.	4F#\	-nie	.	4A/	.	4d\	-nie	.	2r	.	.
[4DD/ [4FF# [4AA [4D	4r	.	4r	.	.	4r	.	.	4r	.	4r	.	.	.	.	.
=170	=170	=170	=170	=170	=170	=170	=170	=170	=170	=170	=170	=170	=170	=170	=170	=170
2DD/] 2FF#] 2AA] 2D]	16ff#\LL	.	2r	.	.	2r	.	.	2r	.	2r	.	.	2r	.	.
.	16gg\	.	.	.	.	.	.	.	.	.	.	.	.	.	.	.
.	16ff#\	.	.	.	.	.	.	.	.	.	.	.	.	.	.	.
.	16gg\JJ	.	.	.	.	.	.	.	.	.	.	.	.	.	.	.
.	16ff#\LL	.	.	.	.	.	.	.	.	.	.	.	.	.	.	.
.	16dd\	.	.	.	.	.	.	.	.	.	.	.	.	.	.	.
.	16a\	.	.	.	.	.	.	.	.	.	.	.	.	.	.	.
.	16dd\JJ	.	.	.	.	.	.	.	.	.	.	.	.	.	.	.
=171	=171	=171	=171	=171	=171	=171	=171	=171	=171	=171	=171	=171	=171	=171	=171	=171
4DD/ 4FF# 4AA 4D	4f#/	.	2r	.	.	2r	.	.	2r	.	2r	.	.	2r	.	.
[4DD/ [4FF# [4AA [4D	4r	.	.	.	.	.	.	.	.	.	.	.	.	.	.	.
!LO:LB:g=original	!LO:LB:g=original	!	!	!LO:LB:g=original	!	!	!LO:LB:g=original	!	!	!LO:LB:g=original	!	!LO:LB:g=original	!	!	!LO:LB:g=original	!
=172	=172	=172	=172	=172	=172	=172	=172	=172	=172	=172	=172	=172	=172	=172	=172	=172
!	!	!	!	!	!	!	!	!	!	!	!	!	!	!LO:TX:a:B:t=MONBAR ( do biesiadujących )	!	!
2DD/] 2FF#] 2AA] 2D]	16dd\LL	.	2ryy	.	.	2ryy	.	.	2ryy	.	2ryy	.	.	2r	.	.
.	16ee\	.	.	.	.	.	.	.	.	.	.	.	.	.	.	.
.	16dd\	.	.	.	.	.	.	.	.	.	.	.	.	.	.	.
.	16ee\JJ	.	.	.	.	.	.	.	.	.	.	.	.	.	.	.
.	16dd\LL	.	.	.	.	.	.	.	.	.	.	.	.	.	.	.
.	16a\	.	.	.	.	.	.	.	.	.	.	.	.	.	.	.
.	16f#\	.	.	.	.	.	.	.	.	.	.	.	.	.	.	.
.	16a\JJ	.	.	.	.	.	.	.	.	.	.	.	.	.	.	.
=173	=173	=173	=173	=173	=173	=173	=173	=173	=173	=173	=173	=173	=173	=173	=173	=173
4DD/ 4FF# 4AA 4D	8d/L	>	2ryy	.	.	2ryy	.	.	2ryy	.	2ryy	.	.	2r	.	.
.	8d/	.	.	.	.	.	.	.	.	.	.	.	.	.	.	.
4r	8d/	.	.	.	.	.	.	.	.	.	.	.	.	.	.	.
.	8d/J	]]	.	.	.	.	.	.	.	.	.	.	.	.	.	.
=174	=174	=174	=174	=174	=174	=174	=174	=174	=174	=174	=174	=174	=174	=174	=174	=174
*	*tremolo	*	*	*	*	*	*	*	*	*	*	*	*	*	*	*
2r	8d/L	p	2ryy	.	.	2ryy	.	.	2ryy	.	2ryy	.	.	4.d\	Wi-	.
.	8d/	.	.	.	.	.	.	.	.	.	.	.	.	.	.	.
.	8d/	.	.	.	.	.	.	.	.	.	.	.	.	.	.	.
.	8d/J	.	.	.	.	.	.	.	.	.	.	.	.	8d\	-taj	.
*	*Xtremolo	*	*	*	*	*	*	*	*	*	*	*	*	*	*	*
=175	=175	=175	=175	=175	=175	=175	=175	=175	=175	=175	=175	=175	=175	=175	=175	=175
8D\L	2r	.	2ryy	.	.	2ryy	.	.	2ryy	.	2ryy	.	.	4.e\	wier-	.
8A\J 8cn	.	.	.	.	.	.	.	.	.	.	.	.	.	.	.	.
8A\L 8c	.	.	.	.	.	.	.	.	.	.	.	.	.	.	.	.
8A\J 8c	.	.	.	.	.	.	.	.	.	.	.	.	.	8d\	-na	.
=176	=176	=176	=176	=176	=176	=176	=176	=176	=176	=176	=176	=176	=176	=176	=176	=176
*tremolo	*	*	*	*	*	*	*	*	*	*	*	*	*	*	*	*
8A\L 8c#	2r	.	2ryy	.	.	2ryy	.	.	2ryy	.	2ryy	.	.	4c#\	mi	.
8A\ 8c#	.	.	.	.	.	.	.	.	.	.	.	.	.	.	.	.
8A\ 8c#	.	.	.	.	.	.	.	.	.	.	.	.	.	4A/	dru-	.
8A\J 8c#	.	.	.	.	.	.	.	.	.	.	.	.	.	.	.	.
*Xtremolo	*	*	*	*	*	*	*	*	*	*	*	*	*	*	*	*
=177	=177	=177	=177	=177	=177	=177	=177	=177	=177	=177	=177	=177	=177	=177	=177	=177
!	!LO:TX:a:t=Ob.	!	!	!	!	!	!	!	!	!	!	!	!	!	!	!
8GG/	16gg\LL	.	2ryy	.	.	2ryy	.	.	2ryy	.	2ryy	.	.	4A/	-ży-	.
.	16aa\	.	.	.	.	.	.	.	.	.	.	.	.	.	.	.
8D\L 8G 8B	16gg\	.	.	.	.	.	.	.	.	.	.	.	.	.	.	.
.	16aa\JJ	.	.	.	.	.	.	.	.	.	.	.	.	.	.	.
8D\ 8G 8B	16gg\LL	.	.	.	.	.	.	.	.	.	.	.	.	4G/	-no	.
.	16dd\	.	.	.	.	.	.	.	.	.	.	.	.	.	.	.
8D\J 8G 8B	16b\	.	.	.	.	.	.	.	.	.	.	.	.	.	.	.
.	16dd\JJ	.	.	.	.	.	.	.	.	.	.	.	.	.	.	.
=178	=178	=178	=178	=178	=178	=178	=178	=178	=178	=178	=178	=178	=178	=178	=178	=178
*tremolo	*	*	*	*	*	*	*	*	*	*	*	*	*	*	*	*
8D\L 8G 8B	4g/	f	2ryy	.	.	2ryy	.	.	2ryy	.	2ryy	.	.	4.B\	peł-	.
8D\ 8G 8B	.	.	.	.	.	.	.	.	.	.	.	.	.	.	.	.
8D\ 8G 8B	4r	.	.	.	.	.	.	.	.	.	.	.	.	.	.	.
8D\J 8G 8B	.	.	.	.	.	.	.	.	.	.	.	.	.	8B\	-ną	.
*Xtremolo	*	*	*	*	*	*	*	*	*	*	*	*	*	*	*	*
=179	=179	=179	=179	=179	=179	=179	=179	=179	=179	=179	=179	=179	=179	=179	=179	=179
!	!LO:TX:a:t=Fl.	!	!	!	!	!	!	!	!	!	!	!	!	!	!	!
8BB/	16bb\LL	.	2ryy	.	.	2ryy	.	.	2ryy	.	2ryy	.	.	4.d#X\	cza-	.
.	16cccn\	.	.	.	.	.	.	.	.	.	.	.	.	.	.	.
8A\L 8B 8d#X	16bb\	.	.	.	.	.	.	.	.	.	.	.	.	.	.	.
.	16ccc\JJ	.	.	.	.	.	.	.	.	.	.	.	.	.	.	.
8A\ 8B 8d#	4bb\	.	.	.	.	.	.	.	.	.	.	.	.	.	.	.
8A\J 8B 8d#	.	.	.	.	.	.	.	.	.	.	.	.	.	8B\	-rą	.
!LO:LB:g=original	!LO:LB:g=original	!	!LO:LB:g=original	!	!	!LO:LB:g=original	!	!	!LO:LB:g=original	!	!LO:LB:g=original	!	!	!LO:LB:g=original	!	!
=180	=180	=180	=180	=180	=180	=180	=180	=180	=180	=180	=180	=180	=180	=180	=180	=180
!	!LO:TX:a:t=Clar.	!	!	!	!	!	!	!	!	!	!	!	!	!	!	!
8E\L	16b\LL	.	2ryy	.	.	2ryy	.	.	2ryy	.	2ryy	.	.	4.e\	ser-	.
.	16ccn\	.	.	.	.	.	.	.	.	.	.	.	.	.	.	.
8G\J 8B 8e	16b\	.	.	.	.	.	.	.	.	.	.	.	.	.	.	.
.	16cc\JJ	.	.	.	.	.	.	.	.	.	.	.	.	.	.	.
8G\L 8B 8e	4b\	.	.	.	.	.	.	.	.	.	.	.	.	.	.	.
8G\J 8B 8e	.	.	.	.	.	.	.	.	.	.	.	.	.	8g\	-ce	.
=181	=181	=181	=181	=181	=181	=181	=181	=181	=181	=181	=181	=181	=181	=181	=181	=181
8BB/	16bb\LL	.	2ryy	.	.	2ryy	.	.	2ryy	.	2ryy	.	.	4f#\	pój	.
.	16cccn\	.	.	.	.	.	.	.	.	.	.	.	.	.	.	.
8F#\L 8B 8d#X	16bb\	>	.	.	.	.	.	.	.	.	.	.	.	.	.	.
.	16ccc\JJ	.	.	.	.	.	.	.	.	.	.	.	.	.	.	.
8F#\ 8B 8d#	16bb\LL	.	.	.	.	.	.	.	.	.	.	.	.	4r	.	.
.	16ff#\	.	.	.	.	.	.	.	.	.	.	.	.	.	.	.
8F#\J 8B 8d#	16dd#X\	.	.	.	.	.	.	.	.	.	.	.	.	.	.	.
.	16ff#\JJ	]]	.	.	.	.	.	.	.	.	.	.	.	.	.	.
=182	=182	=182	=182	=182	=182	=182	=182	=182	=182	=182	=182	=182	=182	=182	=182	=182
*tremolo	*	*	*	*	*	*	*	*	*	*	*	*	*	*	*	*
8F#\L 8B 8d#X	4b\	p	2ryy	.	.	2ryy	.	.	2ryy	.	2ryy	.	.	4.B\	dni	.
8F#\ 8B 8d#	.	.	.	.	.	.	.	.	.	.	.	.	.	.	.	.
8F#\ 8B 8d#	4r	.	.	.	.	.	.	.	.	.	.	.	.	.	.	.
8F#\J 8B 8d#	.	.	.	.	.	.	.	.	.	.	.	.	.	8B\	ra-	.
=183	=183	=183	=183	=183	=183	=183	=183	=183	=183	=183	=183	=183	=183	=183	=183	=183
8D#X\	2r	.	2ryy	.	.	2ryy	.	.	2ryy	.	2ryy	.	.	4.f#\	-do-	.
8A\L 8B 8f#	.	.	.	.	.	.	.	.	.	.	.	.	.	.	.	.
8A\ 8B 8f#	.	.	.	.	.	.	.	.	.	.	.	.	.	.	.	.
8A\J 8B 8f#	.	.	.	.	.	.	.	.	.	.	.	.	.	8d#X\	-ści	.
=184	=184	=184	=184	=184	=184	=184	=184	=184	=184	=184	=184	=184	=184	=184	=184	=184
8A\L 8B 8f#	2r	.	2ryy	.	.	2ryy	.	.	2ryy	.	2ryy	.	.	4B\	niech	.
8A\ 8B 8f#	.	.	.	.	.	.	.	.	.	.	.	.	.	.	.	.
8A\ 8B 8f#	.	.	.	.	.	.	.	.	.	.	.	.	.	4A/	nam	.
8A\J 8B 8f#	.	.	.	.	.	.	.	.	.	.	.	.	.	.	.	.
=185	=185	=185	=185	=185	=185	=185	=185	=185	=185	=185	=185	=185	=185	=185	=185	=185
!	!LO:TX:a:t=Ob.	!	!	!	!	!	!	!	!	!	!	!	!	!	!	!
8E\	16ee\LL	.	2ryy	.	.	2ryy	.	.	2ryy	.	2ryy	.	.	4A/	pły-	.
.	16ff#\	.	.	.	.	.	.	.	.	.	.	.	.	.	.	.
*Xtremolo	*	*	*	*	*	*	*	*	*	*	*	*	*	*	*	*
8G\L 8B 8e	16ee\	.	.	.	.	.	.	.	.	.	.	.	.	.	.	.
.	16ff#\JJ	.	.	.	.	.	.	.	.	.	.	.	.	.	.	.
8G\ 8B 8e	16ee\LL	.	.	.	.	.	.	.	.	.	.	.	.	4G/	-ną	.
.	16b\	.	.	.	.	.	.	.	.	.	.	.	.	.	.	.
8G\J 8B 8e	16g\	.	.	.	.	.	.	.	.	.	.	.	.	.	.	.
.	16b\JJ	.	.	.	.	.	.	.	.	.	.	.	.	.	.	.
=186	=186	=186	=186	=186	=186	=186	=186	=186	=186	=186	=186	=186	=186	=186	=186	=186
*tremolo	*	*	*	*	*	*	*	*	*	*	*	*	*	*	*	*
8G\L 8B	4e/	f	2ryy	.	.	2ryy	.	.	2ryy	.	2ryy	.	.	4.e\	jak	.
8G\ 8B	.	.	.	.	.	.	.	.	.	.	.	.	.	.	.	.
8G\ 8B	4r	.	.	.	.	.	.	.	.	.	.	.	.	.	.	.
8G\J 8B	.	.	.	.	.	.	.	.	.	.	.	.	.	8e\	ten	.
=187	=187	=187	=187	=187	=187	=187	=187	=187	=187	=187	=187	=187	=187	=187	=187	=187
!	!LO:TX:a:t=Fl.	!	!	!	!	!	!	!	!	!	!	!	!	!	!	!
8AA/	16aa\LL	.	2ryy	.	.	2ryy	.	.	2ryy	.	2ryy	.	.	4.e\	wi-	.
.	16bb\	.	.	.	.	.	.	.	.	.	.	.	.	.	.	.
*Xtremolo	*	*	*	*	*	*	*	*	*	*	*	*	*	*	*	*
8E\L 8A 8c#X	16aa\	.	.	.	.	.	.	.	.	.	.	.	.	.	.	.
.	16bb\JJ	.	.	.	.	.	.	.	.	.	.	.	.	.	.	.
8E\ 8A 8c#	4aa\	.	.	.	.	.	.	.	.	.	.	.	.	.	.	.
8E\J 8A 8c#	.	.	.	.	.	.	.	.	.	.	.	.	.	8c#\	-na	.
!LO:LB:g=original	!LO:LB:g=original	!	!LO:LB:g=original	!	!	!LO:LB:g=original	!	!	!LO:LB:g=original	!	!LO:LB:g=original	!	!	!LO:LB:g=original	!	!
=188	=188	=188	=188	=188	=188	=188	=188	=188	=188	=188	=188	=188	=188	=188	=188	=188
!	!LO:TX:a:t=Clar	!	!	!	!	!	!	!	!	!	!	!	!	!	!	!
8D\	16a/LL	.	2ryy	.	.	2ryy	.	.	2ryy	.	2ryy	.	.	4d\	pły-	.
.	16b/	.	.	.	.	.	.	.	.	.	.	.	.	.	.	.
8E\L 8A 8c#	16a/	.	.	.	.	.	.	.	.	.	.	.	.	.	.	.
.	16b/JJ	.	.	.	.	.	.	.	.	.	.	.	.	.	.	.
8E\ 8A 8c#	4a/	.	.	.	.	.	.	.	.	.	.	.	.	4f#\	-nie	.
8E\J 8A 8c#	.	.	.	.	.	.	.	.	.	.	.	.	.	.	.	.
=189	=189	=189	=189	=189	=189	=189	=189	=189	=189	=189	=189	=189	=189	=189	=189	=189
!	!LO:TX:a:t=Vno	!	!	!	!	!	!	!	!	!	!	!	!	!	!	!
8AA/	16aa\LL	.	2ryy	.	.	2ryy	.	.	2ryy	.	2ryy	.	.	4e\	zdrój	.
.	16bb\	.	.	.	.	.	.	.	.	.	.	.	.	.	.	.
8E\L 8A 8c#	16aa\	.	.	.	.	.	.	.	.	.	.	.	.	.	.	.
.	16bb\JJ	.	.	.	.	.	.	.	.	.	.	.	.	.	.	.
8E\ 8A 8c#	16aa\LL	.	.	.	.	.	.	.	.	.	.	.	.	4r	.	.
.	16ee\	.	.	.	.	.	.	.	.	.	.	.	.	.	.	.
8E\J 8A 8c#	16cc#\	.	.	.	.	.	.	.	.	.	.	.	.	.	.	.
.	16ee\JJ	.	.	.	.	.	.	.	.	.	.	.	.	.	.	.
=190	=190	=190	=190	=190	=190	=190	=190	=190	=190	=190	=190	=190	=190	=190	=190	=190
*tremolo	*	*	*	*	*	*	*	*	*	*	*	*	*	*	*	*
8E\L 8A 8c#	4a/	p	2ryy	.	.	2ryy	.	.	2ryy	.	2ryy	.	.	4e\	Wi-	.
8E\ 8A 8c#	.	.	.	.	.	.	.	.	.	.	.	.	.	.	.	.
8E\ 8A 8c#	4r	.	.	.	.	.	.	.	.	.	.	.	.	4e\	-taj	.
8E\J 8A 8c#	.	.	.	.	.	.	.	.	.	.	.	.	.	.	.	.
*Xtremolo	*	*	*	*	*	*	*	*	*	*	*	*	*	*	*	*
=191	=191	=191	=191	=191	=191	=191	=191	=191	=191	=191	=191	=191	=191	=191	=191	=191
8EE/	2r	.	2ryy	.	.	2ryy	.	.	2ryy	.	2ryy	.	.	4f#\	wier-	.
8E\L 8G#X 8d	.	.	.	.	.	.	.	.	.	.	.	.	.	.	.	.
8E\ 8G# 8d	.	.	.	.	.	.	.	.	.	.	.	.	.	4e\	-na	.
8E\J 8G# 8d	.	.	.	.	.	.	.	.	.	.	.	.	.	.	.	.
=192	=192	=192	=192	=192	=192	=192	=192	=192	=192	=192	=192	=192	=192	=192	=192	=192
*tremolo	*	*	*	*	*	*	*	*	*	*	*	*	*	*	*	*
8E\L 8G#X 8d	2r	.	2ryy	.	.	2ryy	.	.	2ryy	.	2ryy	.	.	4d\	mi	.
8E\ 8G# 8d	.	.	.	.	.	.	.	.	.	.	.	.	.	.	.	.
8E\ 8G# 8d	.	.	.	.	.	.	.	.	.	.	.	.	.	4B\	dru-	.
8E\J 8G# 8d	.	.	.	.	.	.	.	.	.	.	.	.	.	.	.	.
*Xtremolo	*	*	*	*	*	*	*	*	*	*	*	*	*	*	*	*
=193	=193	=193	=193	=193	=193	=193	=193	=193	=193	=193	=193	=193	=193	=193	=193	=193
!	!LO:TX:a:t=Clar	!	!	!	!	!	!	!	!	!	!	!	!	!	!	!
8AA/	16ee\LL	.	2ryy	.	.	2ryy	.	.	2ryy	.	2ryy	.	.	4B\	-ży-	.
.	16ff#\	.	.	.	.	.	.	.	.	.	.	.	.	.	.	.
8E\L 8A 8c#	16ee\	.	.	.	.	.	.	.	.	.	.	.	.	.	.	.
.	16ff#\JJ	.	.	.	.	.	.	.	.	.	.	.	.	.	.	.
8E\ 8A 8c#	16ee\LL	.	.	.	.	.	.	.	.	.	.	.	.	4A/	-no	.
.	16cc#\	.	.	.	.	.	.	.	.	.	.	.	.	.	.	.
8E\J 8A 8c#	16a\	.	.	.	.	.	.	.	.	.	.	.	.	.	.	.
.	16cc#\JJ	.	.	.	.	.	.	.	.	.	.	.	.	.	.	.
=194	=194	=194	=194	=194	=194	=194	=194	=194	=194	=194	=194	=194	=194	=194	=194	=194
*tremolo	*	*	*	*	*	*	*	*	*	*	*	*	*	*	*	*
8E\L 8A 8c#	4e/	.	2ryy	.	.	2ryy	.	.	2ryy	.	2ryy	.	.	4e\	peł-	.
8E\ 8A 8c#	.	.	.	.	.	.	.	.	.	.	.	.	.	.	.	.
8E\ 8A 8c#	4r	.	.	.	.	.	.	.	.	.	.	.	.	4e\	-ną	.
8E\J 8A 8c#	.	.	.	.	.	.	.	.	.	.	.	.	.	.	.	.
*Xtremolo	*	*	*	*	*	*	*	*	*	*	*	*	*	*	*	*
=195	=195	=195	=195	=195	=195	=195	=195	=195	=195	=195	=195	=195	=195	=195	=195	=195
8EE/	2r	.	2ryy	.	.	2ryy	.	.	2ryy	.	2ryy	.	.	4f#\	cza-	.
8E\L 8G#X 8d	.	.	.	.	.	.	.	.	.	.	.	.	.	.	.	.
8E\ 8G# 8d	.	.	.	.	.	.	.	.	.	.	.	.	.	4e\	-rą	.
8E\J 8G# 8d	.	.	.	.	.	.	.	.	.	.	.	.	.	.	.	.
=196	=196	=196	=196	=196	=196	=196	=196	=196	=196	=196	=196	=196	=196	=196	=196	=196
*tremolo	*	*	*	*	*	*	*	*	*	*	*	*	*	*	*	*
8E\L 8G#X 8d	2r	.	2ryy	.	.	2ryy	.	.	2ryy	.	2ryy	.	.	4d\	ser-	.
8E\ 8G# 8d	.	.	.	.	.	.	.	.	.	.	.	.	.	.	.	.
8E\ 8G# 8d	.	.	.	.	.	.	.	.	.	.	.	.	.	4B\	-ce	.
8E\J 8G# 8d	.	.	.	.	.	.	.	.	.	.	.	.	.	.	.	.
*Xtremolo	*	*	*	*	*	*	*	*	*	*	*	*	*	*	*	*
!LO:LB:g=original	!	!LO:LB:g=original	!	!LO:LB:g=original	!	!	!LO:LB:g=original	!	!	!LO:LB:g=original	!	!LO:LB:g=original	!	!LO:LB:g=original	!	!
=197	=197	=197	=197	=197	=197	=197	=197	=197	=197	=197	=197	=197	=197	=197	=197	=197
!	!LO:TX:a:t=Vno	!	!	!	!	!	!	!	!	!	!	!	!	!	!	!
8AA/	16a\LL	.	2ryy	.	.	2ryy	.	.	2ryy	.	2ryy	.	.	4A/	pój	.
.	16b\	.	.	.	.	.	.	.	.	.	.	.	.	.	.	.
8E\L 8A 8c#	16a\	.	.	.	.	.	.	.	.	.	.	.	.	.	.	.
.	16b\JJ	.	.	.	.	.	.	.	.	.	.	.	.	.	.	.
8E\ 8A 8c#	16a\LL	.	.	.	.	.	.	.	.	.	.	.	.	4r	.	.
.	16a\	.	.	.	.	.	.	.	.	.	.	.	.	.	.	.
8E\J 8A 8c#	16cc#\	.	.	.	.	.	.	.	.	.	.	.	.	.	.	.
.	16ee\JJ	.	.	.	.	.	.	.	.	.	.	.	.	.	.	.
=198	=198	=198	=198	=198	=198	=198	=198	=198	=198	=198	=198	=198	=198	=198	=198	=198
*tremolo	*	*	*	*	*	*	*	*	*	*	*	*	*	*	*	*
8E\L 8A 8c#	4aa\	.	2ryy	.	.	2ryy	.	.	2ryy	.	2ryy	.	.	4.A/	Dni	.
8E\ 8A 8c#	.	.	.	.	.	.	.	.	.	.	.	.	.	.	.	.
8E\ 8A 8c#	4r	.	.	.	.	.	.	.	.	.	.	.	.	.	.	.
8E\J 8A 8c#	.	.	.	.	.	.	.	.	.	.	.	.	.	8A/	ra-	.
*Xtremolo	*	*	*	*	*	*	*	*	*	*	*	*	*	*	*	*
=199	=199	=199	=199	=199	=199	=199	=199	=199	=199	=199	=199	=199	=199	=199	=199	=199
8AA/	16gg#X\LL	.	2ryy	.	.	2ryy	.	.	2ryy	.	2ryy	.	.	4c#\	-do-	.
!	!	!LO:HP:t=cres---	!	!	!	!	!	!	!	!	!	!	!	!	!	!
.	16aa\	<	.	.	.	.	.	.	.	.	.	.	.	.	.	.
8B\L 8d	16gg#\	.	.	.	.	.	.	.	.	.	.	.	.	.	.	.
.	16aa\JJ	.	.	.	.	.	.	.	.	.	.	.	.	.	.	.
8B\ 8d	16gg#\LL	.	.	.	.	.	.	.	.	.	.	.	.	4B\	-ści	.
.	16aa\	.	.	.	.	.	.	.	.	.	.	.	.	.	.	.
8B\J 8d	16gg#\	.	.	.	.	.	.	.	.	.	.	.	.	.	.	.
.	16aa\JJ	.	.	.	.	.	.	.	.	.	.	.	.	.	.	.
=200	=200	=200	=200	=200	=200	=200	=200	=200	=200	=200	=200	=200	=200	=200	=200	=200
*tremolo	*	*	*	*	*	*	*	*	*	*	*	*	*	*	*	*
8B\L 8d	8gg#X\L	.	2ryy	.	.	2ryy	.	.	2ryy	.	2ryy	.	.	4.B\	niech	.
8B\ 8d	8gg#\	.	.	.	.	.	.	.	.	.	.	.	.	.	.	.
8B\ 8d	8gg#\	.	.	.	.	.	.	.	.	.	.	.	.	.	.	.
8B\J 8d	8gg#\J	.	.	.	.	.	.	.	.	.	.	.	.	8B\	nam	.
*Xtremolo	*	*	*	*	*	*	*	*	*	*	*	*	*	*	*	*
=201	=201	=201	=201	=201	=201	=201	=201	=201	=201	=201	=201	=201	=201	=201	=201	=201
8AA/	16ggn\LL	.	2ryy	.	.	2ryy	.	.	2ryy	.	2ryy	.	.	4d\	pły-	.
.	16aa\	.	.	.	.	.	.	.	.	.	.	.	.	.	.	.
8A\L 8c# 8e	16gg\	.	.	.	.	.	.	.	.	.	.	.	.	.	.	.
.	16aa\JJ	.	.	.	.	.	.	.	.	.	.	.	.	.	.	.
8A\ 8c# 8e	16gg\LL	.	.	.	.	.	.	.	.	.	.	.	.	4c#\	-ną	.
.	16aa\	.	.	.	.	.	.	.	.	.	.	.	.	.	.	.
8A\J 8c# 8e	16gg\	.	.	.	.	.	.	.	.	.	.	.	.	.	.	.
.	16aa\JJ	.	.	.	.	.	.	.	.	.	.	.	.	.	.	.
=202	=202	=202	=202	=202	=202	=202	=202	=202	=202	=202	=202	=202	=202	=202	=202	=202
*tremolo	*tremolo	*	*	*	*	*	*	*	*	*	*	*	*	*	*	*
8A\L 8c# 8e	8ggn\L	.	2ryy	.	.	2ryy	.	.	2ryy	.	2ryy	.	.	4.c#\	jak	.
8A\ 8c# 8e	8gg\	.	.	.	.	.	.	.	.	.	.	.	.	.	.	.
8A\ 8c# 8e	8gg\	.	.	.	.	.	.	.	.	.	.	.	.	.	.	.
8A\J 8c# 8e	8gg\J	.	.	.	.	.	.	.	.	.	.	.	.	8c#\	ten	.
*Xtremolo	*Xtremolo	*	*	*	*	*	*	*	*	*	*	*	*	*	*	*
=203	=203	=203	=203	=203	=203	=203	=203	=203	=203	=203	=203	=203	=203	=203	=203	=203
8AA/	16ff#\LL	.	2ryy	.	.	2ryy	.	.	2ryy	.	2ryy	.	.	4e\	wi-	.
.	16gg\	.	.	.	.	.	.	.	.	.	.	.	.	.	.	.
8A\L 8d 8f#	16ff#\	.	.	.	.	.	.	.	.	.	.	.	.	.	.	.
.	16gg\JJ	.	.	.	.	.	.	.	.	.	.	.	.	.	.	.
8A\ 8d 8f#	16ff#\LL	.	.	.	.	.	.	.	.	.	.	.	.	4d\	-na	.
.	16gg\	.	.	.	.	.	.	.	.	.	.	.	.	.	.	.
8A\J 8d 8f#	16ff#\	.	.	.	.	.	.	.	.	.	.	.	.	.	.	.
.	16gg\JJ	.	.	.	.	.	.	.	.	.	.	.	.	.	.	.
*	*	*	*	*	*	*clefGv2	*	*	*clefG2	*	*clefG2	*	*	*	*	*
!LO:LB:g=original	!LO:LB:g=original	!	!LO:LB:g=original	!	!	!LO:LB:g=original	!	!	!LO:LB:g=original	!	!LO:LB:g=original	!	!	!LO:LB:g=original	!	!
=204	=204	=204	=204	=204	=204	=204	=204	=204	=204	=204	=204	=204	=204	=204	=204	=204
!	!	!	!	!	!	!LO:TX:a:B:t=Tenori.	!	!	!	!	!	!	!	!	!	!
!	!	!	!LO:TX:a:B:t=Bassi.	!	!	!LO:TX:t=P:problem:partia zapisana bez przenośnika oktawowego	!	!	!LO:TX:a:B:t=Soprano II.o	!	!LO:TX:a:B:t=Soprano I.o	!	!	!LO:TX:a:t=MONBAR.	!	!
8A\L 8d 8f#	16ff#\LL	.	2r	.	.	2r	.	.	2r	.	2r	.	.	4d\	pły-	.
.	16gg\	.	.	.	.	.	.	.	.	.	.	.	.	.	.	.
8A\ 8d 8f#	16ff#\	.	.	.	.	.	.	.	.	.	.	.	.	.	.	.
.	16ee\JJ	.	.	.	.	.	.	.	.	.	.	.	.	.	.	.
8A\ 8d 8f#	16dd\LL	.	.	.	.	.	.	.	.	.	.	.	.	4f#\	-nie	.
.	16cc#\	.	.	.	.	.	.	.	.	.	.	.	.	.	.	.
8A\J 8d 8f#	16dd\	.	.	.	.	.	.	.	.	.	.	.	.	.	.	.
.	16ff#\JJ	.	.	.	.	.	.	.	.	.	.	.	.	.	.	.
=205	=205	=205	=205	=205	=205	=205	=205	=205	=205	=205	=205	=205	=205	=205	=205	=205
!	!	!	!	!	!LO:DY:a	!	!	!	!	!LO:DY:a	!	!	!	!	!	!LO:DY:a
4A\ 4c# 4e	8aa\L	ff	4.A\	.	ff	4.d\ 4.f#	Wi-	.	[2a/	ff	[2gg\	Wi-	.	[2a\	pły-	ff
.	16a\L	.	.	.	.	.	.	.	.	.	.	.	.	.	.	.
.	16a\JJ	.	.	.	.	.	.	.	.	.	.	.	.	.	.	.
8r	8a\L	.	.	.	.	.	.	.	.	.	.	.	.	.	.	.
8AA\ 8A	16a\L 16cc# 16ee	.	8A\	.	.	8d\ 8f#	-wat	.	.	.	.	.	.	.	.	.
.	16a\JJ 16cc# 16ee	.	.	.	.	.	.	.	.	.	.	.	.	.	.	.
=206	=206	=206	=206	=206	=206	=206	=206	=206	=206	=206	=206	=206	=206	=206	=206	=206
4D\ 4A	8a\L 8dd 8ff#	.	4.d\	.	.	4.e\ 4.g	wi-	.	2a/_	.	2gg\_	.	.	2a\_	.	.
.	16a\L	.	.	.	.	.	.	.	.	.	.	.	.	.	.	.
.	16a\JJ	.	.	.	.	.	.	.	.	.	.	.	.	.	.	.
8r	8a\L	.	.	.	.	.	.	.	.	.	.	.	.	.	.	.
8D\ 8A	16a\L 16dd 16ff#	.	8D\	.	.	8e\ 8g	-wat	.	.	.	.	.	.	.	.	.
.	16a\JJ 16dd 16ff#	.	.	.	.	.	.	.	.	.	.	.	.	.	.	.
=207	=207	=207	=207	=207	=207	=207	=207	=207	=207	=207	=207	=207	=207	=207	=207	=207
4AA\ 4A	8a\L 8cc# 8ee	.	4.A\	.	.	4.d\ 4.f#	wi-	.	2a/_	.	2gg\_	.	.	2a\_	.	.
.	16a\L	.	.	.	.	.	.	.	.	.	.	.	.	.	.	.
.	16a\JJ	.	.	.	.	.	.	.	.	.	.	.	.	.	.	.
8r	8a\L	.	.	.	.	.	.	.	.	.	.	.	.	.	.	.
8AA\ 8A	16a\L 16cc# 16ee	.	8A\	.	.	8d\ 8f#	-wat	.	.	.	.	.	.	.	.	.
.	16a\JJ 16cc# 16ee	.	.	.	.	.	.	.	.	.	.	.	.	.	.	.
=208	=208	=208	=208	=208	=208	=208	=208	=208	=208	=208	=208	=208	=208	=208	=208	=208
4D\ 4A	8a\L 8dd 8ff#	.	2d\	.	.	2e\ 2g	wi-	.	2a/]	.	2gg\]	.	.	4.a\]	.	.
.	16a\L	.	.	.	.	.	.	.	.	.	.	.	.	.	.	.
.	16a\JJ	.	.	.	.	.	.	.	.	.	.	.	.	.	.	.
8r	8a\L	.	.	.	.	.	.	.	.	.	.	.	.	.	.	.
8D\ 8A	16a\L 16dd 16ff#	.	.	.	.	.	.	.	.	.	.	.	.	8A/	nie	.
.	16a\JJ 16dd 16ff#	.	.	.	.	.	.	.	.	.	.	.	.	.	.	.
=209	=209	=209	=209	=209	=209	=209	=209	=209	=209	=209	=209	=209	=209	=209	=209	=209
4AA\ 4A	4a\ 4cc# 4ee	.	4A\	.	.	4d\ 4f#	-wat	.	4a/	.	4g/	-wat	.	4A/	zdrój	.
*	*8va	*	*	*	*	*	*	*	*	*	*	*	*	*	*	*
4AA\ 4A	4aa\ 4ccc# 4eee 4aaa	.	4r	.	.	4r	.	.	4r	.	4r	.	.	4r	.	.
*	*X8va	*	*	*	*	*	*	*	*	*	*	*	*	*	*	*
!LO:PB:g=original	!LO:PB:g=original	!	!	!LO:PB:g=original	!	!	!LO:PB:g=original	!	!	!LO:PB:g=original	!	!LO:PB:g=original	!	!	!LO:PB:g=original	!
=210	=210	=210	=210	=210	=210	=210	=210	=210	=210	=210	=210	=210	=210	=210	=210	=210
!	!	!	!LO:TX:a:t=Bas&colon;	!	!	!LO:TX:a:t=Ten&colon;	!	!	!LO:TX:a:t=Sopr.IIo	!	!LO:TX:a:t=Sopr.Io	!	!	!	!	!
4AAA/ 4AA	4A/	.	4r	.	.	4r	.	.	4r	.	4r	.	.	2ryy	.	.
4r	4r	.	8r	.	.	8r	.	.	8r	.	8r	.	.	.	.	.
!	!	!	!	!	!	!	!	!	!	!	!LO:TX:t=P:problem:LO:N:vis=8	!	!	!	!	!
.	.	.	16d\	.	f	16d\	Przy-	.	16f#/	f	16a/	Przy-	.	.	.	.
!	!	!	!	!	!	!	!	!	!	!	!LO:TX:t=P:problem:LO:N:vis=8	!	!	!	!	!
.	.	.	16d\	.	.	16d\	-go-	.	16f#/	.	16a/	-go-	.	.	.	.
=211	=211	=211	=211	=211	=211	=211	=211	=211	=211	=211	=211	=211	=211	=211	=211	=211
8r	8r	.	8d\	.	.	8d\	-do-	.	8f#/	.	8a/	-do-	.	2ryy	.	.
16D\LL 16F# 16A	16d/LL 16f# 16a	f	8D\	.	.	8d\	-wéj	.	8f#/	.	8a/	-wéj	.	.	.	.
16D\JJ 16F# 16A	16d/JJ 16f# 16a	.	.	.	.	.	.	.	.	.	.	.	.	.	.	.
8D\ 8F# 8A	8d/ 8f# 8a	.	8r	.	.	8r	.	.	8r	.	8r	.	.	.	.	.
8r	8r	.	16d\	.	.	16f#\	dziś	.	16a/	.	16dd\	dziś	.	.	.	.
.	.	.	16d\	.	.	16f#\	za-	.	16a/	.	16dd\	za-	.	.	.	.
=212	=212	=212	=212	=212	=212	=212	=212	=212	=212	=212	=212	=212	=212	=212	=212	=212
8r	8r	.	8d\	.	.	8f#\	-ba-	.	8a/	.	8dd\	-ba-	.	2ryy	.	.
16D\LL 16F# 16A	16f#/LL 16a 16dd	.	8D\	.	.	8f#\	-wie	.	8a/	.	8dd\	-wie	.	.	.	.
16D\JJ 16F# 16A	16f#/JJ 16a 16dd	.	.	.	.	.	.	.	.	.	.	.	.	.	.	.
8D\ 8F# 8A	8f#/ 8a 8dd	.	8r	.	.	8r	.	.	8r	.	8r	.	.	.	.	.
8r	16ddd\LL	.	16d\	.	.	16f#\	bra-	.	16a/	.	16dd\	bra-	.	.	.	.
.	16eee\JJ	.	16d\	.	.	16f#\	-tnich	.	16a/	.	16ee\	-tnich	.	.	.	.
=213	=213	=213	=213	=213	=213	=213	=213	=213	=213	=213	=213	=213	=213	=213	=213	=213
4D\ 4F# 4A 4d	8.fff#\L	ff	8.d\	.	.	8.f#\	ży-	.	8.a/	.	8.ff#\	ży-	.	2ryy	.	.
.	16fff#\Jk	.	16D\	.	.	16d\	-czeń	.	16a/	.	16ff#\	-czeń	.	.	.	.
4D\ 4F# 4A 4d	16ggg\LL	.	8D\	.	.	8d\	wnieś-	.	8a/	.	8ff#\	wnieś-	.	.	.	.
.	16fff#\	.	.	.	.	.	.	.	.	.	.	.	.	.	.	.
.	16eee\	.	8D\	.	.	8d\	-my	.	8a/	.	8ff#\	-my	.	.	.	.
.	16ddd\JJ	.	.	.	.	.	.	.	.	.	.	.	.	.	.	.
=214	=214	=214	=214	=214	=214	=214	=214	=214	=214	=214	=214	=214	=214	=214	=214	=214
8AA\L 8C# 8E 8A	8eee\L	.	4A\	.	.	4c#\	głos	.	4a/	.	4ee\	głos	.	2ryy	.	.
*	*8va	*	*	*	*	*	*	*	*	*	*	*	*	*	*	*
8AA\J 8C# 8E 8A	8aa\J 8ccc# 8eee 8aaa	sf	.	.	.	.	.	.	.	.	.	.	.	.	.	.
*	*X8va	*	*	*	*	*	*	*	*	*	*	*	*	*	*	*
4r	4r	.	4r	.	.	4r	.	.	4r	.	4r	.	.	.	.	.
!LO:LB:g=original	!LO:LB:g=original	!	!LO:LB:g=original	!	!	!LO:LB:g=original	!	!	!LO:LB:g=original	!	!LO:LB:g=original	!	!	!	!	!
=215	=215	=215	=215	=215	=215	=215	=215	=215	=215	=215	=215	=215	=215	=215	=215	=215
4.FF#/ 4.AA#X 4.C# 4.F#	4.ff#\ 4.fff#	.	4.F#\	.	.	4.c#\	Zyj-	.	4.a#X/	.	4.ff#\	Zyj-	.	2ryy	.	.
8FF#/ 8AA# 8C# 8F#	8ee\ 8eee	.	8F#\	.	.	8c#\	-cie	.	8a#/	.	8ee\	-cie	.	.	.	.
=216	=216	=216	=216	=216	=216	=216	=216	=216	=216	=216	=216	=216	=216	=216	=216	=216
4.BB\ 4.D 4.F# 4.B	4.dd\ 4.ddd	.	4.B\	.	.	4.d\	w zdro-	.	4.b\	.	4.dd\	w zdro-	.	2ryy	.	.
8G\ 8B 8e	8ee\ 8eee	.	8G\	.	.	8g\	-wiu	.	8b\	.	8ee\	-wiu	.	.	.	.
=217	=217	=217	=217	=217	=217	=217	=217	=217	=217	=217	=217	=217	=217	=217	=217	=217
8A\L 8d 8f#	8a\L 8aa	.	8A\	.	.	8f#\	w szczęś-	.	8a/	.	8dd\	w szczęś-	.	2ryy	.	.
8AA\J 8D 8F#	8aa\J	.	8A\	.	.	8f#\	-ciu	.	8a/	.	8dd\	-ciu	.	.	.	.
8AA\L 8E 8G	8aa\L	.	4A\	.	.	4e\	w sła-	.	4a/	.	4cc#\	w sła-	.	.	.	.
8AA\J 8E 8G	16bb\L	.	.	.	.	.	.	.	.	.	.	.	.	.	.	.
.	16ccc#\JJ	.	.	.	.	.	.	.	.	.	.	.	.	.	.	.
=218	=218	=218	=218	=218	=218	=218	=218	=218	=218	=218	=218	=218	=218	=218	=218	=218
4D\ 4F#	(16ddd\LL	.	4D\	.	.	4f#\	-wie.	.	4a/	.	4dd\	-wie.	.	2ryy	.	.
.	16eee\	.	.	.	.	.	.	.	.	.	.	.	.	.	.	.
.	16fff#\	.	.	.	.	.	.	.	.	.	.	.	.	.	.	.
.	16ggg\JJ	.	.	.	.	.	.	.	.	.	.	.	.	.	.	.
8r	8aaa\)	.	4r	.	.	4r	.	.	4r	.	4r	.	.	.	.	.
8D\ 8d	8r	.	.	.	.	.	.	.	.	.	.	.	.	.	.	.
=219	=219	=219	=219	=219	=219	=219	=219	=219	=219	=219	=219	=219	=219	=219	=219	=219
4.FF#/ 4.AA#X 4.C# 4.F#	4.ff#\ 4.fff#	.	4.F#\	.	.	4.c#\	Niech	.	4.a#X/	.	4.ff#\	Niech	.	2ryy	.	.
8FF#/ 8AA# 8C# 8F#	8ee\ 8eee	.	8F#\	.	.	8c#\	wam	.	8a#/	.	8ee\	wam	.	.	.	.
=220	=220	=220	=220	=220	=220	=220	=220	=220	=220	=220	=220	=220	=220	=220	=220	=220
4.BB\ 4.D 4.F# 4.B	4.dd\ 4.ddd	.	4.B\	.	.	4.d\	sprzy-	.	4.b\	.	4.dd\	sprzy-	.	2ryy	.	.
8G\ 8B 8e	8ee\ 8eee	.	8G\	.	.	8g\	-ja	.	8b\	.	8ee\	-ja	.	.	.	.
=221	=221	=221	=221	=221	=221	=221	=221	=221	=221	=221	=221	=221	=221	=221	=221	=221
8A\L 8d 8f#	8a\L 8aa	.	4A\	.	.	4f#\	wier-	.	4a/	.	4dd\	wier-	.	2ryy	.	.
8AA\J 8D 8F#	8aa\J	.	.	.	.	.	.	.	.	.	.	.	.	.	.	.
8AA/L 8E 8G	8aa\L	.	4A\	.	.	4e\	-nie	.	4g/	.	4cc#\	-nie	.	.	.	.
8AA/J 8E 8G	16bb\L	.	.	.	.	.	.	.	.	.	.	.	.	.	.	.
.	16ccc#\JJ	.	.	.	.	.	.	.	.	.	.	.	.	.	.	.
=222	=222	=222	=222	=222	=222	=222	=222	=222	=222	=222	=222	=222	=222	=222	=222	=222
8D\L 8F#	8ddd\L	ff	4D\	.	.	4d\	los	.	4f#/	.	4dd\	los	.	2ryy	.	.
16D\L 16F# 16A 16d	16a\L 16dd 16ff#	.	.	.	.	.	.	.	.	.	.	.	.	.	.	.
16D\JJ 16F# 16A 16d	16a\JJ 16dd 16ff#	.	.	.	.	.	.	.	.	.	.	.	.	.	.	.
8D\L 8F# 8A 8d	8a\L 8dd 8ff#	.	8d\	.	.	8d\ 8f#	Żyj-	ff	8a/	.	8ff#\	Żyj-	ff	.	.	.
8D\J 8F# 8A 8d	8a\J 8dd 8ff#	.	8d\	.	.	8d\ 8f#	-cie	.	8a/	.	8ff#\	-cie	.	.	.	.
!LO:LB:g=original	!LO:LB:g=original	!	!	!	!LO:LB:g=original	!	!	!LO:LB:g=original	!	!	!LO:LB:g=original	!	!LO:LB:g=original	!	!	!
=223	=223	=223	=223	=223	=223	=223	=223	=223	=223	=223	=223	=223	=223	=223	=223	=223
8D\L 8F# 8A 8d	8a\L 8dd 8ff#	.	8d\	.	.	8d\ 8f#	w zdro-	.	8a/	.	8ff#\	w zdro-	.	2ryy	.	.
8AA\J 8A	8a\ 8dd 8ff#	.	8A\	.	.	8d\ 8f#	-wiu	.	8a/	.	8ff#\	-wiu	.	.	.	.
8FF#/L 8F#	8a\ 8dd 8ff#	.	8F#\	.	.	8d\ 8f#	w szczęś-	.	8a/	.	8ff#\	w szczęś-	.	.	.	.
8DD/J 8D	8a\J 8dd 8ff#	.	8D\	.	.	8d\ 8f#	-ciu	.	8a/	.	8ff#\	-ciu	.	.	.	.
=224	=224	=224	=224	=224	=224	=224	=224	=224	=224	=224	=224	=224	=224	=224	=224	=224
2AA/ 2D 2F#	8a\L 8dd 8ff#	.	2A\	.	.	2d\ 2f#	w sła-	.	2a/	.	2ff#\	w sła-	.	2ryy	.	.
.	16a\L	.	.	.	.	.	.	.	.	.	.	.	.	.	.	.
.	16b\JJ	.	.	.	.	.	.	.	.	.	.	.	.	.	.	.
.	16cc#\LL	.	.	.	.	.	.	.	.	.	.	.	.	.	.	.
.	16dd\	.	.	.	.	.	.	.	.	.	.	.	.	.	.	.
.	16ee\	.	.	.	.	.	.	.	.	.	.	.	.	.	.	.
.	16ff#\JJ	.	.	.	.	.	.	.	.	.	.	.	.	.	.	.
=225	=225	=225	=225	=225	=225	=225	=225	=225	=225	=225	=225	=225	=225	=225	=225	=225
2AA/ 2E 2G	16gg\LL	.	2A\	.	.	2c#\ 2e	.	.	2a/	.	2ee\	.	.	2ryy	.	.
.	16ff#\	.	.	.	.	.	.	.	.	.	.	.	.	.	.	.
.	16ee\	.	.	.	.	.	.	.	.	.	.	.	.	.	.	.
.	16ff#\JJ	.	.	.	.	.	.	.	.	.	.	.	.	.	.	.
.	16gg\LL	.	.	.	.	.	.	.	.	.	.	.	.	.	.	.
.	16aa\	.	.	.	.	.	.	.	.	.	.	.	.	.	.	.
.	16bb\	.	.	.	.	.	.	.	.	.	.	.	.	.	.	.
.	16ccc#\JJ	.	.	.	.	.	.	.	.	.	.	.	.	.	.	.
=226	=226	=226	=226	=226	=226	=226	=226	=226	=226	=226	=226	=226	=226	=226	=226	=226
8D\ 8F#	8ddd\L	.	4D\	.	.	4d\ 4f#	-wie	.	4a/	.	4dd\	-wie	.	2ryy	.	.
16D\LL 16F# 16A 16d	16a\L 16dd 16ff#	.	.	.	.	.	.	.	.	.	.	.	.	.	.	.
16D\JJ 16F# 16A 16d	16a\JJ 16dd 16ff#	.	.	.	.	.	.	.	.	.	.	.	.	.	.	.
8D\L 8F# 8A 8d	8a\L 8dd 8ff#	.	8d\	Niech	.	8d\ 8f#	Niech	.	8a/	.	8dd\ 8ff#	Niech	.	.	.	.
8D\J 8F# 8A 8d	8a\J 8dd 8ff#	.	8d\	wam	.	8d\ 8f#	wam	.	8a/	.	8dd\ 8ff#	wam	.	.	.	.
=227	=227	=227	=227	=227	=227	=227	=227	=227	=227	=227	=227	=227	=227	=227	=227	=227
8D\ 8F# 8A 8d	8a\L 8dd 8ff#	.	8d\	sprzy-	.	4d\ 4f#	sprzy-	.	4a/	.	4dd\ 4ff#	sprzy-	.	2ryy	.	.
8AA/L 8A	8a\ 8dd 8ff#	.	8A\	-ja	.	.	.	.	.	.	.	.	.	.	.	.
8FF#/ 8F#	8a\ 8dd 8ff#	.	8F#\	wier-	.	4d\ 4f#	-ja	.	4a/	.	4dd\ 4ff#	-ja	.	.	.	.
8DD/J 8D	8a\J 8dd 8ff#	.	8D\	-nie	.	.	.	.	.	.	.	.	.	.	.	.
=228	=228	=228	=228	=228	=228	=228	=228	=228	=228	=228	=228	=228	=228	=228	=228	=228
2AA/ 2D 2F#	8a\L 8dd 8ff#	.	2A\	wier-	.	2d\ 2f#	wier-	.	2a/	.	2dd\ 2ff#	wier-	.	2ryy	.	.
.	16a\L	.	.	.	.	.	.	.	.	.	.	.	.	.	.	.
.	16b\JJ	.	.	.	.	.	.	.	.	.	.	.	.	.	.	.
.	16cc#\LL	.	.	.	.	.	.	.	.	.	.	.	.	.	.	.
.	16dd\	.	.	.	.	.	.	.	.	.	.	.	.	.	.	.
.	16ee\	.	.	.	.	.	.	.	.	.	.	.	.	.	.	.
.	16ff#\JJ	.	.	.	.	.	.	.	.	.	.	.	.	.	.	.
!LO:LB:g=original	!LO:LB:g=original	!	!	!LO:LB:g=original	!	!	!LO:LB:g=original	!	!	!LO:LB:g=original	!	!LO:LB:g=original	!	!	!LO:LB:g=original	!
=229	=229	=229	=229	=229	=229	=229	=229	=229	=229	=229	=229	=229	=229	=229	=229	=229
2AA/ 2E 2G	16gg\LL	.	2A\	-nie	.	2c#\ 2e	-nie	.	2a/	.	2cc#\ 2ee	-nie	.	2ryy	.	.
.	16ff#\	.	.	.	.	.	.	.	.	.	.	.	.	.	.	.
.	16ee\	.	.	.	.	.	.	.	.	.	.	.	.	.	.	.
.	16ff#\JJ	.	.	.	.	.	.	.	.	.	.	.	.	.	.	.
.	16gg\LL	.	.	.	.	.	.	.	.	.	.	.	.	.	.	.
.	16aa\	.	.	.	.	.	.	.	.	.	.	.	.	.	.	.
.	16bb\	.	.	.	.	.	.	.	.	.	.	.	.	.	.	.
.	16ccc#\JJ	.	.	.	.	.	.	.	.	.	.	.	.	.	.	.
=230	=230	=230	=230	=230	=230	=230	=230	=230	=230	=230	=230	=230	=230	=230	=230	=230
4D\ 4F#	8ddd\L	.	4D\	los	.	4d\ 4f#	los	.	4a/	.	4dd\	los	.	2ryy	.	.
*	*	*above	*	*	*	*	*	*	*	*	*	*	*	*	*	*
.	(32d\LL	<	.	.	.	.	.	.	.	.	.	.	.	.	.	.
.	32e\	.	.	.	.	.	.	.	.	.	.	.	.	.	.	.
.	32f#\	.	.	.	.	.	.	.	.	.	.	.	.	.	.	.
.	32g\JJJ	.	.	.	.	.	.	.	.	.	.	.	.	.	.	.
4AA\ 4C# 4E 4A	8a\L)	.	4A\	.	.	4c#\ 4e	Więc	.	4r	.	4r	.	.	.	.	.
.	32r	[	.	.	.	.	.	.	.	.	.	.	.	.	.	.
.	(32a\LL	<	.	.	.	.	.	.	.	.	.	.	.	.	.	.
.	32b\	.	.	.	.	.	.	.	.	.	.	.	.	.	.	.
.	32cc#\JJJ	[[	.	.	.	.	.	.	.	.	.	.	.	.	.	.
=231	=231	=231	=231	=231	=231	=231	=231	=231	=231	=231	=231	=231	=231	=231	=231	=231
4D\ 4F# 4A	8dd\L)	.	4d\	.	.	4d\ 4f#	wi-	.	2a/	.	2a\ 2aa	Wi-	.	2ryy	.	.
.	(32dd\LL	.	.	.	.	.	.	.	.	.	.	.	.	.	.	.
.	32ee\	.	.	.	.	.	.	.	.	.	.	.	.	.	.	.
.	32ff#\	.	.	.	.	.	.	.	.	.	.	.	.	.	.	.
.	32gg\JJJ	.	.	.	.	.	.	.	.	.	.	.	.	.	.	.
4AA\ 4C# 4E 4A	8aa\L)	.	4A\	.	.	4c#\ 4e	-wat	.	.	.	.	.	.	.	.	.
.	32r	.	.	.	.	.	.	.	.	.	.	.	.	.	.	.
.	(32aa\LL	.	.	.	.	.	.	.	.	.	.	.	.	.	.	.
.	32bb\	.	.	.	.	.	.	.	.	.	.	.	.	.	.	.
.	32ccc#\JJJ	.	.	.	.	.	.	.	.	.	.	.	.	.	.	.
=232	=232	=232	=232	=232	=232	=232	=232	=232	=232	=232	=232	=232	=232	=232	=232	=232
4D\ 4F# 4A	8ddd\L)	.	4d\	.	.	4d\ 4f#	wi-	.	2a/	.	2a\ 2aa	.	.	2ryy	.	.
.	(32d\LL	.	.	.	.	.	.	.	.	.	.	.	.	.	.	.
.	32e\	.	.	.	.	.	.	.	.	.	.	.	.	.	.	.
.	32f#\	.	.	.	.	.	.	.	.	.	.	.	.	.	.	.
.	32g\JJJ	.	.	.	.	.	.	.	.	.	.	.	.	.	.	.
4AA\ 4C# 4E 4A	8a\L)	.	4A\	.	.	4c#\ 4e	-wat	.	.	.	.	.	.	.	.	.
.	32r	.	.	.	.	.	.	.	.	.	.	.	.	.	.	.
.	(32a\LL	.	.	.	.	.	.	.	.	.	.	.	.	.	.	.
.	32b\	.	.	.	.	.	.	.	.	.	.	.	.	.	.	.
.	32cc#\JJJ	.	.	.	.	.	.	.	.	.	.	.	.	.	.	.
=233	=233	=233	=233	=233	=233	=233	=233	=233	=233	=233	=233	=233	=233	=233	=233	=233
4D\ 4F# 4A	8dd\L)	.	(4d\	.	.	(4d\ 4f#	wi-	.	2a/	.	2a\ 2aa	.	.	2ryy	.	.
.	(32dd\LL	.	.	.	.	.	.	.	.	.	.	.	.	.	.	.
.	32ee\	.	.	.	.	.	.	.	.	.	.	.	.	.	.	.
.	32ff#\	.	.	.	.	.	.	.	.	.	.	.	.	.	.	.
.	32gg\JJJ	.	.	.	.	.	.	.	.	.	.	.	.	.	.	.
4AA\ 4C# 4E 4A	8aa\L)	.	4A\)	.	.	4c#\) 4e	.	.	.	.	.	.	.	.	.	.
.	32r	.	.	.	.	.	.	.	.	.	.	.	.	.	.	.
.	(32aa\LL	.	.	.	.	.	.	.	.	.	.	.	.	.	.	.
.	32bb\	.	.	.	.	.	.	.	.	.	.	.	.	.	.	.
.	32ccc#\JJJ	.	.	.	.	.	.	.	.	.	.	.	.	.	.	.
=234	=234	=234	=234	=234	=234	=234	=234	=234	=234	=234	=234	=234	=234	=234	=234	=234
4D\ 4F# 4A	4ddd\)	ff	4D\	.	.	4d\ 4f#	-wat!	.	4a/	.	4dd\	wat!	.	2ryy	.	.
!LO:TX:a:t=trem	!	!	!	!	!	!	!	!	!	!	!	!	!	!	!	!
*tremolo	*	*	*	*	*	*	*	*	*	*	*	*	*	*	*	*
32DD/LLL 32D	4r	.	4r	.	.	4r	.	.	4r	.	4r	.	.	.	.	.
32DD/ 32D	.	.	.	.	.	.	.	.	.	.	.	.	.	.	.	.
32DD/ 32D	.	.	.	.	.	.	.	.	.	.	.	.	.	.	.	.
32DD/ 32D	.	.	.	.	.	.	.	.	.	.	.	.	.	.	.	.
32DD/ 32D	.	.	.	.	.	.	.	.	.	.	.	.	.	.	.	.
32DD/ 32D	.	.	.	.	.	.	.	.	.	.	.	.	.	.	.	.
32DD/ 32D	.	.	.	.	.	.	.	.	.	.	.	.	.	.	.	.
32DD/JJJ 32D	.	.	.	.	.	.	.	.	.	.	.	.	.	.	.	.
=235	=235	=235	=235	=235	=235	=235	=235	=235	=235	=235	=235	=235	=235	=235	=235	=235
!	!	!	!	!	!	!LO:TX:a:t=(spełniają czary)	!	!	!	!	!	!	!	!	!	!
32DD/LLL 32D	4dd\ 4ff# 4aa 4ddd	.	2r	.	.	2r	.	.	2r	.	2r	.	.	2ryy	.	.
32DD/ 32D	.	.	.	.	.	.	.	.	.	.	.	.	.	.	.	.
32DD/ 32D	.	.	.	.	.	.	.	.	.	.	.	.	.	.	.	.
32DD/ 32D	.	.	.	.	.	.	.	.	.	.	.	.	.	.	.	.
32DD/ 32D	.	.	.	.	.	.	.	.	.	.	.	.	.	.	.	.
32DD/ 32D	.	.	.	.	.	.	.	.	.	.	.	.	.	.	.	.
32DD/ 32D	.	.	.	.	.	.	.	.	.	.	.	.	.	.	.	.
32DD/ 32D	.	.	.	.	.	.	.	.	.	.	.	.	.	.	.	.
32DD/ 32D	4r	.	.	.	.	.	.	.	.	.	.	.	.	.	.	.
32DD/ 32D	.	.	.	.	.	.	.	.	.	.	.	.	.	.	.	.
32DD/ 32D	.	.	.	.	.	.	.	.	.	.	.	.	.	.	.	.
32DD/ 32D	.	.	.	.	.	.	.	.	.	.	.	.	.	.	.	.
32DD/ 32D	.	.	.	.	.	.	.	.	.	.	.	.	.	.	.	.
32DD/ 32D	.	.	.	.	.	.	.	.	.	.	.	.	.	.	.	.
32DD/ 32D	.	.	.	.	.	.	.	.	.	.	.	.	.	.	.	.
32DD/JJJ 32D	.	.	.	.	.	.	.	.	.	.	.	.	.	.	.	.
=236	=236	=236	=236	=236	=236	=236	=236	=236	=236	=236	=236	=236	=236	=236	=236	=236
32DD/LLL 32D	4d/ 4f# 4a 4dd	.	2r	.	.	2r	.	.	2r	.	2r	.	.	2ryy	.	.
32DD/ 32D	.	.	.	.	.	.	.	.	.	.	.	.	.	.	.	.
32DD/ 32D	.	.	.	.	.	.	.	.	.	.	.	.	.	.	.	.
32DD/ 32D	.	.	.	.	.	.	.	.	.	.	.	.	.	.	.	.
32DD/ 32D	.	.	.	.	.	.	.	.	.	.	.	.	.	.	.	.
32DD/ 32D	.	.	.	.	.	.	.	.	.	.	.	.	.	.	.	.
32DD/ 32D	.	.	.	.	.	.	.	.	.	.	.	.	.	.	.	.
32DD/ 32D	.	.	.	.	.	.	.	.	.	.	.	.	.	.	.	.
32DD/ 32D	4r	.	.	.	.	.	.	.	.	.	.	.	.	.	.	.
32DD/ 32D	.	.	.	.	.	.	.	.	.	.	.	.	.	.	.	.
32DD/ 32D	.	.	.	.	.	.	.	.	.	.	.	.	.	.	.	.
32DD/ 32D	.	.	.	.	.	.	.	.	.	.	.	.	.	.	.	.
32DD/ 32D	.	.	.	.	.	.	.	.	.	.	.	.	.	.	.	.
32DD/ 32D	.	.	.	.	.	.	.	.	.	.	.	.	.	.	.	.
32DD/ 32D	.	.	.	.	.	.	.	.	.	.	.	.	.	.	.	.
32DD/JJJ 32D	.	.	.	.	.	.	.	.	.	.	.	.	.	.	.	.
=237	=237	=237	=237	=237	=237	=237	=237	=237	=237	=237	=237	=237	=237	=237	=237	=237
32DD/LLL 32D	4ff#\ 4aa 4ddd 4fff#	.	2r	.	.	2r	.	.	2r	.	2r	.	.	2ryy	.	.
32DD/ 32D	.	.	.	.	.	.	.	.	.	.	.	.	.	.	.	.
32DD/ 32D	.	.	.	.	.	.	.	.	.	.	.	.	.	.	.	.
32DD/ 32D	.	.	.	.	.	.	.	.	.	.	.	.	.	.	.	.
32DD/ 32D	.	.	.	.	.	.	.	.	.	.	.	.	.	.	.	.
32DD/ 32D	.	.	.	.	.	.	.	.	.	.	.	.	.	.	.	.
32DD/ 32D	.	.	.	.	.	.	.	.	.	.	.	.	.	.	.	.
32DD/JJJ 32D	.	.	.	.	.	.	.	.	.	.	.	.	.	.	.	.
8DD/L 8D	8.r	.	.	.	.	.	.	.	.	.	.	.	.	.	.	.
16r	.	.	.	.	.	.	.	.	.	.	.	.	.	.	.	.
16DD/Jk 16D	16d/	.	.	.	.	.	.	.	.	.	.	.	.	.	.	.
=238	=238	=238	=238	=238	=238	=238	=238	=238	=238	=238	=238	=238	=238	=238	=238	=238
2DD;/ 2D	2d;/	.	2r;	.	.	2r;	.	.	2r;	.	2r;	.	.	2ryy	.	.
==	==	==	==	==	==	==	==	==	==	==	==	==	==	==	==	==
*-	*-	*-	*-	*-	*-	*-	*-	*-	*-	*-	*-	*-	*-	*-	*-	*-
!!!RDF**kern: > = above
!!!RDF**kern: < = below
!!!system-decoration: s1[(s2,s3,s4,s5)][(s6,s7)]
!!!ENC: Filip Voros
!!!END: 2022-09-13
!!!ENC: Julita Ruszuk
!!!END: 2022-09-21
!!!YEC: Copyright 2022 Narodowy Instytut Fryderyka Chopina (https://polishscores.org)
!!!YEM: License CC-BY-4.0 (https://creativecommons.org/licenses/by/4.0)
